Letian-Fu/MP_WS/src/gp_planner/exp_data/old_data/joint_angles (copy).txt
Joint1(deg),Joint2(deg),Joint3(deg),Joint4(deg),Joint5(deg),Joint6(deg)
-45.46,73.96,-42.12,-33.31,-39.17,0.27
-45.46,73.96,-42.12,-33.31,-39.17,0.27
-45.46,73.96,-42.12,-33.31,-39.17,0.27
-45.46,73.96,-42.12,-33.31,-39.17,0.27
-45.46,73.96,-42.12,-33.31,-39.17,0.27
-45.46,73.96,-42.12,-33.31,-39.17,0.27
-45.46,73.96,-42.12,-33.31,-39.17,0.27
-45.46,73.96,-42.12,-33.31,-39.17,0.27
-45.46,73.96,-42.12,-33.31,-39.17,0.27
-45.46,73.96,-42.12,-33.31,-39.17,0.27
-45.46,73.96,-42.12,-33.31,-39.17,0.27
-45.46,73.96,-42.12,-33.31,-39.17,0.27
-45.46,73.96,-42.12,-33.31,-39.17,0.27
-45.46,73.96,-42.12,-33.31,-39.17,0.27
-45.46,73.96,-42.12,-33.31,-39.17,0.27
-45.46,73.96,-42.12,-33.31,-39.17,0.27
-45.46,73.96,-42.12,-33.31,-39.17,0.27
-45.46,73.96,-42.12,-33.31,-39.17,0.27
-45.46,73.96,-42.12,-33.31,-39.17,0.27
-45.46,73.96,-42.12,-33.31,-39.17,0.27
-45.46,73.96,-42.12,-33.31,-39.17,0.27
-45.46,73.96,-42.12,-33.31,-39.17,0.27
-45.46,73.96,-42.12,-33.31,-39.17,0.27
-45.46,73.96,-42.12,-33.31,-39.17,0.27
-45.46,73.96,-42.12,-33.31,-39.17,0.27
-45.46,73.96,-42.12,-33.31,-39.17,0.27
-45.45,73.97,-42.12,-33.30,-39.17,0.27
-45.45,73.97,-42.12,-33.30,-39.17,0.27
-45.45,73.97,-42.12,-33.30,-39.17,0.27
-45.45,73.97,-42.12,-33.30,-39.17,0.27
-45.13,73.94,-42.13,-33.20,-39.41,0.29
-45.13,73.94,-42.13,-33.20,-39.41,0.29
-45.13,73.94,-42.13,-33.20,-39.41,0.29
-45.13,73.94,-42.13,-33.20,-39.41,0.29
-44.54,73.94,-42.17,-33.09,-39.93,0.30
-44.54,73.94,-42.17,-33.09,-39.93,0.30
-44.54,73.94,-42.17,-33.09,-39.93,0.30
-44.54,73.94,-42.17,-33.09,-39.93,0.30
-43.82,73.95,-42.21,-32.98,-40.56,0.32
-43.82,73.95,-42.21,-32.98,-40.56,0.32
-43.82,73.95,-42.21,-32.98,-40.56,0.32
-43.82,73.95,-42.21,-32.98,-40.56,0.32
-43.15,73.97,-42.26,-32.89,-41.17,0.33
-43.15,73.97,-42.26,-32.89,-41.17,0.33
-43.15,73.97,-42.26,-32.89,-41.17,0.33
-43.15,73.97,-42.26,-32.89,-41.17,0.33
-42.67,73.98,-42.29,-32.82,-41.60,0.34
-42.67,73.98,-42.29,-32.82,-41.60,0.34
-42.67,73.98,-42.29,-32.82,-41.60,0.34
-42.67,73.98,-42.29,-32.82,-41.60,0.34
-43.13,73.97,-42.26,-32.87,-41.17,0.33
-43.13,73.97,-42.26,-32.87,-41.17,0.33
-43.13,73.97,-42.26,-32.87,-41.17,0.33
-43.13,73.97,-42.26,-32.87,-41.17,0.33
-42.82,73.89,-42.25,-32.70,-41.40,0.37
-42.82,73.89,-42.25,-32.70,-41.40,0.37
-42.82,73.89,-42.25,-32.70,-41.40,0.37
-42.82,73.89,-42.25,-32.70,-41.40,0.37
-42.29,73.82,-42.27,-32.51,-41.90,0.41
-42.29,73.82,-42.27,-32.51,-41.90,0.41
-42.29,73.82,-42.27,-32.51,-41.90,0.41
-42.29,73.82,-42.27,-32.51,-41.90,0.41
-41.69,73.76,-42.29,-32.32,-42.52,0.45
-41.69,73.76,-42.29,-32.32,-42.52,0.45
-41.69,73.76,-42.29,-32.32,-42.52,0.45
-41.69,73.76,-42.29,-32.32,-42.52,0.45
-41.12,73.71,-42.32,-32.17,-43.11,0.48
-41.12,73.71,-42.32,-32.17,-43.11,0.48
-41.12,73.71,-42.32,-32.17,-43.11,0.48
-41.12,73.71,-42.32,-32.17,-43.11,0.48
-40.72,73.68,-42.34,-32.06,-43.54,0.50
-40.72,73.68,-42.34,-32.06,-43.54,0.50
-40.72,73.68,-42.34,-32.06,-43.54,0.50
-40.72,73.68,-42.34,-32.06,-43.54,0.50
-40.58,73.68,-42.35,-32.04,-43.70,0.50
-40.58,73.68,-42.35,-32.04,-43.70,0.50
-40.58,73.68,-42.35,-32.04,-43.70,0.50
-40.58,73.68,-42.35,-32.04,-43.70,0.50
-40.48,73.60,-42.33,-31.90,-43.67,0.54
-40.48,73.60,-42.33,-31.90,-43.67,0.54
-40.48,73.60,-42.33,-31.90,-43.67,0.54
-40.48,73.60,-42.33,-31.90,-43.67,0.54
-39.98,73.49,-42.33,-31.69,-44.09,0.60
-39.98,73.49,-42.33,-31.69,-44.09,0.60
-39.98,73.49,-42.33,-31.69,-44.09,0.60
-39.98,73.49,-42.33,-31.69,-44.09,0.60
-39.37,73.40,-42.35,-31.47,-44.66,0.65
-39.37,73.40,-42.35,-31.47,-44.66,0.65
-39.37,73.40,-42.35,-31.47,-44.66,0.65
-39.37,73.40,-42.35,-31.47,-44.66,0.65
-38.77,73.32,-42.37,-31.29,-45.24,0.70
-38.77,73.32,-42.37,-31.29,-45.24,0.70
-38.77,73.32,-42.37,-31.29,-45.24,0.70
-38.77,73.32,-42.37,-31.29,-45.24,0.70
-38.30,73.27,-42.40,-31.16,-45.70,0.73
-38.30,73.27,-42.40,-31.16,-45.70,0.73
-38.30,73.27,-42.40,-31.16,-45.70,0.73
-38.30,73.27,-42.40,-31.16,-45.70,0.73
-38.03,73.24,-42.41,-31.08,-45.97,0.75
-38.03,73.24,-42.41,-31.08,-45.97,0.75
-38.03,73.24,-42.41,-31.08,-45.97,0.75
-38.03,73.24,-42.41,-31.08,-45.97,0.75
-38.16,73.20,-42.38,-31.04,-45.76,0.77
-38.16,73.20,-42.38,-31.04,-45.76,0.77
-38.16,73.20,-42.38,-31.04,-45.76,0.77
-38.16,73.20,-42.38,-31.04,-45.76,0.77
-37.74,73.03,-42.37,-30.82,-46.10,0.84
-37.74,73.03,-42.37,-30.82,-46.10,0.84
-37.74,73.03,-42.37,-30.82,-46.10,0.84
-37.74,73.03,-42.37,-30.82,-46.10,0.84
-37.20,72.86,-42.38,-30.60,-46.62,0.92
-37.20,72.86,-42.38,-30.60,-46.62,0.92
-37.20,72.86,-42.38,-30.60,-46.62,0.92
-37.20,72.86,-42.38,-30.60,-46.62,0.92
-36.65,72.70,-42.40,-30.40,-47.18,0.98
-36.65,72.70,-42.40,-30.40,-47.18,0.98
-36.65,72.70,-42.40,-30.40,-47.18,0.98
-36.65,72.70,-42.40,-30.40,-47.18,0.98
-36.19,72.58,-42.41,-30.25,-47.66,1.03
-36.19,72.58,-42.41,-30.25,-47.66,1.03
-36.19,72.58,-42.41,-30.25,-47.66,1.03
-36.19,72.58,-42.41,-30.25,-47.66,1.03
-35.93,72.51,-42.43,-30.17,-47.94,1.06
-35.93,72.51,-42.43,-30.17,-47.94,1.06
-35.93,72.51,-42.43,-30.17,-47.94,1.06
-35.93,72.51,-42.43,-30.17,-47.94,1.06
-36.09,72.52,-42.40,-30.17,-47.70,1.06
-36.09,72.52,-42.40,-30.17,-47.70,1.06
-36.09,72.52,-42.40,-30.17,-47.70,1.06
-36.09,72.52,-42.40,-30.17,-47.70,1.06
-35.66,72.38,-42.37,-29.95,-47.98,1.15
-35.66,72.38,-42.37,-29.95,-47.98,1.15
-35.66,72.38,-42.37,-29.95,-47.98,1.15
-35.66,72.38,-42.37,-29.95,-47.98,1.15
-35.09,72.25,-42.36,-29.74,-48.46,1.23
-35.09,72.25,-42.36,-29.74,-48.46,1.23
-35.09,72.25,-42.36,-29.74,-48.46,1.23
-35.09,72.25,-42.36,-29.74,-48.46,1.23
-34.48,72.13,-42.36,-29.55,-49.01,1.31
-34.48,72.13,-42.36,-29.55,-49.01,1.31
-34.48,72.13,-42.36,-29.55,-49.01,1.31
-34.48,72.13,-42.36,-29.55,-49.01,1.31
-33.96,72.04,-42.37,-29.40,-49.49,1.37
-33.96,72.04,-42.37,-29.40,-49.49,1.37
-33.96,72.04,-42.37,-29.40,-49.49,1.37
-33.96,72.04,-42.37,-29.40,-49.49,1.37
-33.65,71.98,-42.37,-29.31,-49.78,1.41
-33.65,71.98,-42.37,-29.31,-49.78,1.41
-33.65,71.98,-42.37,-29.31,-49.78,1.41
-33.65,71.98,-42.37,-29.31,-49.78,1.41
-33.93,72.02,-42.36,-29.37,-49.49,1.39
-33.93,72.02,-42.36,-29.37,-49.49,1.39
-33.93,72.02,-42.36,-29.37,-49.49,1.39
-33.93,72.02,-42.36,-29.37,-49.49,1.39
-33.57,71.86,-42.32,-29.17,-49.70,1.49
-33.57,71.86,-42.32,-29.17,-49.70,1.49
-33.57,71.86,-42.32,-29.17,-49.70,1.49
-33.57,71.86,-42.32,-29.17,-49.70,1.49
-33.05,71.69,-42.30,-28.97,-50.13,1.59
-33.05,71.69,-42.30,-28.97,-50.13,1.59
-33.05,71.69,-42.30,-28.97,-50.13,1.59
-33.05,71.69,-42.30,-28.97,-50.13,1.59
-32.47,71.53,-42.30,-28.79,-50.66,1.68
-32.47,71.53,-42.30,-28.79,-50.66,1.68
-32.47,71.53,-42.30,-28.79,-50.66,1.68
-32.47,71.53,-42.30,-28.79,-50.66,1.68
-31.95,71.41,-42.30,-28.64,-51.15,1.76
-31.95,71.41,-42.30,-28.64,-51.15,1.76
-31.95,71.41,-42.30,-28.64,-51.15,1.76
-31.95,71.41,-42.30,-28.64,-51.15,1.76
-31.60,71.32,-42.30,-28.54,-51.49,1.81
-31.60,71.32,-42.30,-28.54,-51.49,1.81
-31.60,71.32,-42.30,-28.54,-51.49,1.81
-31.60,71.32,-42.30,-28.54,-51.49,1.81
-31.60,71.33,-42.30,-28.54,-51.49,1.81
-31.60,71.33,-42.30,-28.54,-51.49,1.81
-31.60,71.33,-42.30,-28.54,-51.49,1.81
-31.60,71.33,-42.30,-28.54,-51.49,1.81
-31.28,71.17,-42.25,-28.37,-51.64,1.92
-31.28,71.17,-42.25,-28.37,-51.64,1.92
-31.28,71.17,-42.25,-28.37,-51.64,1.92
-31.28,71.17,-42.25,-28.37,-51.64,1.92
-30.78,70.99,-42.22,-28.19,-52.02,2.02
-30.78,70.99,-42.22,-28.19,-52.02,2.02
-30.78,70.99,-42.22,-28.19,-52.02,2.02
-30.78,70.99,-42.22,-28.19,-52.02,2.02
-30.21,70.83,-42.21,-28.03,-52.51,2.12
-30.21,70.83,-42.21,-28.03,-52.51,2.12
-30.21,70.83,-42.21,-28.03,-52.51,2.12
-30.21,70.83,-42.21,-28.03,-52.51,2.12
-29.67,70.69,-42.21,-27.90,-52.99,2.21
-29.67,70.69,-42.21,-27.90,-52.99,2.21
-29.67,70.69,-42.21,-27.90,-52.99,2.21
-29.67,70.69,-42.21,-27.90,-52.99,2.21
-29.29,70.59,-42.21,-27.81,-53.34,2.27
-29.29,70.59,-42.21,-27.81,-53.34,2.27
-29.29,70.59,-42.21,-27.81,-53.34,2.27
-29.29,70.59,-42.21,-27.81,-53.34,2.27
-29.02,70.54,-42.21,-27.75,-53.59,2.30
-29.02,70.54,-42.21,-27.75,-53.59,2.30
-29.02,70.54,-42.21,-27.75,-53.59,2.30
-29.02,70.54,-42.21,-27.75,-53.59,2.30
-29.18,70.52,-42.18,-27.73,-53.37,2.32
-29.18,70.52,-42.18,-27.73,-53.37,2.32
-29.18,70.52,-42.18,-27.73,-53.37,2.32
-29.18,70.52,-42.18,-27.73,-53.37,2.32
-29.18,70.52,-42.18,-27.73,-53.37,2.32
-28.81,70.34,-42.14,-27.57,-53.61,2.42
-28.81,70.34,-42.14,-27.57,-53.61,2.42
-28.81,70.34,-42.14,-27.57,-53.61,2.42
-28.32,70.15,-42.12,-27.42,-54.02,2.53
-28.32,70.15,-42.12,-27.42,-54.02,2.53
-28.32,70.15,-42.12,-27.42,-54.02,2.53
-28.32,70.15,-42.12,-27.42,-54.02,2.53
-27.82,69.97,-42.12,-27.30,-54.48,2.61
-27.82,69.97,-42.12,-27.30,-54.48,2.61
-27.82,69.97,-42.12,-27.30,-54.48,2.61
-27.82,69.97,-42.12,-27.30,-54.48,2.61
-27.39,69.84,-42.12,-27.20,-54.88,2.68
-27.39,69.84,-42.12,-27.20,-54.88,2.68
-27.39,69.84,-42.12,-27.20,-54.88,2.68
-27.39,69.84,-42.12,-27.20,-54.88,2.68
-27.39,69.84,-42.12,-27.20,-54.88,2.68
-27.39,69.84,-42.12,-27.20,-54.88,2.68
-27.15,69.76,-42.13,-27.15,-55.12,2.72
-27.15,69.76,-42.13,-27.15,-55.12,2.72
-27.15,69.76,-42.13,-27.15,-55.12,2.72
-26.81,69.67,-42.14,-27.09,-55.45,2.76
-26.81,69.67,-42.14,-27.09,-55.45,2.76
-26.81,69.67,-42.14,-27.09,-55.45,2.76
-26.81,69.67,-42.14,-27.09,-55.45,2.76
-26.31,69.55,-42.16,-27.02,-55.97,2.81
-26.31,69.55,-42.16,-27.02,-55.97,2.81
-26.31,69.55,-42.16,-27.02,-55.97,2.81
-26.31,69.55,-42.16,-27.02,-55.97,2.81
-25.75,69.42,-42.19,-26.95,-56.54,2.87
-25.75,69.42,-42.19,-26.95,-56.54,2.87
-25.75,69.42,-42.19,-26.95,-56.54,2.87
-25.75,69.42,-42.19,-26.95,-56.54,2.87
-25.25,69.31,-42.22,-26.88,-57.05,2.92
-25.25,69.31,-42.22,-26.88,-57.05,2.92
-25.25,69.31,-42.22,-26.88,-57.05,2.92
-25.25,69.31,-42.22,-26.88,-57.05,2.92
-24.91,69.23,-42.23,-26.84,-57.39,2.95
-24.91,69.23,-42.23,-26.84,-57.39,2.95
-24.91,69.23,-42.23,-26.84,-57.39,2.95
-24.91,69.23,-42.23,-26.84,-57.39,2.95
-24.62,69.17,-42.25,-26.80,-57.66,2.98
-24.62,69.17,-42.25,-26.80,-57.66,2.98
-24.62,69.17,-42.25,-26.80,-57.66,2.98
-24.62,69.17,-42.25,-26.80,-57.66,2.98
-24.80,69.22,-42.24,-26.83,-57.50,2.96
-24.80,69.22,-42.24,-26.83,-57.50,2.96
-24.80,69.22,-42.24,-26.83,-57.50,2.96
-24.80,69.22,-42.24,-26.83,-57.50,2.96
-24.73,69.10,-42.18,-26.72,-57.42,3.05
-24.73,69.10,-42.18,-26.72,-57.42,3.05
-24.73,69.10,-42.18,-26.72,-57.42,3.05
-24.73,69.10,-42.18,-26.72,-57.42,3.05
-24.37,68.91,-42.13,-26.60,-57.66,3.15
-24.37,68.91,-42.13,-26.60,-57.66,3.15
-24.37,68.91,-42.13,-26.60,-57.66,3.15
-24.37,68.91,-42.13,-26.60,-57.66,3.15
-23.93,68.72,-42.11,-26.50,-58.02,3.25
-23.93,68.72,-42.11,-26.50,-58.02,3.25
-23.93,68.72,-42.11,-26.50,-58.02,3.25
-23.93,68.72,-42.11,-26.50,-58.02,3.25
-23.51,68.55,-42.09,-26.41,-58.39,3.33
-23.51,68.55,-42.09,-26.41,-58.39,3.33
-23.51,68.55,-42.09,-26.41,-58.39,3.33
-23.51,68.55,-42.09,-26.41,-58.39,3.33
-23.19,68.42,-42.08,-26.35,-58.68,3.38
-23.19,68.42,-42.08,-26.35,-58.68,3.38
-23.19,68.42,-42.08,-26.35,-58.68,3.38
-23.19,68.42,-42.08,-26.35,-58.68,3.38
-23.18,68.42,-42.08,-26.35,-58.68,3.39
-23.18,68.42,-42.08,-26.35,-58.68,3.39
-23.18,68.42,-42.08,-26.35,-58.68,3.39
-23.18,68.42,-42.08,-26.35,-58.68,3.39
-22.94,68.27,-42.01,-26.24,-58.74,3.50
-22.94,68.27,-42.01,-26.24,-58.74,3.50
-22.94,68.27,-42.01,-26.24,-58.74,3.50
-22.94,68.27,-42.01,-26.24,-58.74,3.50
-22.50,68.09,-41.97,-26.15,-59.01,3.61
-22.50,68.09,-41.97,-26.15,-59.01,3.61
-22.50,68.09,-41.97,-26.15,-59.01,3.61
-22.50,68.09,-41.97,-26.15,-59.01,3.61
-21.98,67.91,-41.94,-26.08,-59.38,3.71
-21.98,67.91,-41.94,-26.08,-59.38,3.71
-21.98,67.91,-41.94,-26.08,-59.38,3.71
-21.98,67.91,-41.94,-26.08,-59.38,3.71
-21.49,67.76,-41.92,-26.02,-59.74,3.79
-21.49,67.76,-41.92,-26.02,-59.74,3.79
-21.49,67.76,-41.92,-26.02,-59.74,3.79
-21.49,67.76,-41.92,-26.02,-59.74,3.79
-21.15,67.66,-41.91,-25.98,-60.01,3.84
-21.15,67.66,-41.91,-25.98,-60.01,3.84
-21.15,67.66,-41.91,-25.98,-60.01,3.84
-21.15,67.66,-41.91,-25.98,-60.01,3.84
-20.89,67.59,-41.90,-25.96,-60.21,3.87
-20.89,67.59,-41.90,-25.96,-60.21,3.87
-20.89,67.59,-41.90,-25.96,-60.21,3.87
-20.89,67.59,-41.90,-25.96,-60.21,3.87
-21.04,67.58,-41.86,-25.94,-60.03,3.90
-21.04,67.58,-41.86,-25.94,-60.03,3.90
-21.04,67.58,-41.86,-25.94,-60.03,3.90
-21.04,67.58,-41.86,-25.94,-60.03,3.90
-20.69,67.38,-41.80,-25.89,-60.25,4.02
-20.69,67.38,-41.80,-25.89,-60.25,4.02
-20.69,67.38,-41.80,-25.89,-60.25,4.02
-20.69,67.38,-41.80,-25.89,-60.25,4.02
-20.22,67.17,-41.75,-25.85,-60.61,4.13
-20.22,67.17,-41.75,-25.85,-60.61,4.13
-20.22,67.17,-41.75,-25.85,-60.61,4.13
-20.22,67.17,-41.75,-25.85,-60.61,4.13
-19.73,66.95,-41.72,-25.82,-61.01,4.22
-19.73,66.95,-41.72,-25.82,-61.01,4.22
-19.73,66.95,-41.72,-25.82,-61.01,4.22
-19.73,66.95,-41.72,-25.82,-61.01,4.22
-19.32,66.79,-41.70,-25.80,-61.36,4.29
-19.32,66.79,-41.70,-25.80,-61.36,4.29
-19.32,66.79,-41.70,-25.80,-61.36,4.29
-19.32,66.79,-41.70,-25.80,-61.36,4.29
-19.08,66.70,-41.69,-25.79,-61.57,4.33
-19.08,66.70,-41.69,-25.79,-61.57,4.33
-19.08,66.70,-41.69,-25.79,-61.57,4.33
-19.08,66.70,-41.69,-25.79,-61.57,4.33
-19.23,66.74,-41.66,-25.79,-61.40,4.33
-19.23,66.74,-41.66,-25.79,-61.40,4.33
-19.23,66.74,-41.66,-25.79,-61.40,4.33
-19.23,66.74,-41.66,-25.79,-61.40,4.33
-18.84,66.62,-41.59,-25.78,-61.66,4.43
-18.84,66.62,-41.59,-25.78,-61.66,4.43
-18.84,66.62,-41.59,-25.78,-61.66,4.43
-18.84,66.62,-41.59,-25.78,-61.66,4.43
-18.29,66.51,-41.53,-25.78,-62.08,4.51
-18.29,66.51,-41.53,-25.78,-62.08,4.51
-18.29,66.51,-41.53,-25.78,-62.08,4.51
-18.29,66.51,-41.53,-25.78,-62.08,4.51
-17.71,66.42,-41.50,-25.80,-62.55,4.59
-17.71,66.42,-41.50,-25.80,-62.55,4.59
-17.71,66.42,-41.50,-25.80,-62.55,4.59
-17.71,66.42,-41.50,-25.80,-62.55,4.59
-17.21,66.34,-41.47,-25.82,-62.97,4.64
-17.21,66.34,-41.47,-25.82,-62.97,4.64
-17.21,66.34,-41.47,-25.82,-62.97,4.64
-17.21,66.34,-41.47,-25.82,-62.97,4.64
-16.91,66.31,-41.45,-25.83,-63.22,4.67
-16.91,66.31,-41.45,-25.83,-63.22,4.67
-16.91,66.31,-41.45,-25.83,-63.22,4.67
-16.91,66.31,-41.45,-25.83,-63.22,4.67
-17.19,66.34,-41.46,-25.82,-62.97,4.65
-17.19,66.34,-41.46,-25.82,-62.97,4.65
-17.19,66.34,-41.46,-25.82,-62.97,4.65
-17.19,66.34,-41.46,-25.82,-62.97,4.65
-16.86,66.24,-41.38,-25.83,-63.21,4.71
-16.86,66.24,-41.38,-25.83,-63.21,4.71
-16.86,66.24,-41.38,-25.83,-63.21,4.71
-16.86,66.24,-41.38,-25.83,-63.21,4.71
-16.33,66.14,-41.32,-25.85,-63.65,4.77
-16.33,66.14,-41.32,-25.85,-63.65,4.77
-16.33,66.14,-41.32,-25.85,-63.65,4.77
-16.33,66.14,-41.32,-25.85,-63.65,4.77
-15.72,66.06,-41.27,-25.89,-64.17,4.81
-15.72,66.06,-41.27,-25.89,-64.17,4.81
-15.72,66.06,-41.27,-25.89,-64.17,4.81
-15.72,66.06,-41.27,-25.89,-64.17,4.81
-15.17,66.00,-41.24,-25.93,-64.66,4.85
-15.17,66.00,-41.24,-25.93,-64.66,4.85
-15.17,66.00,-41.24,-25.93,-64.66,4.85
-15.17,66.00,-41.24,-25.93,-64.66,4.85
-14.77,65.96,-41.22,-25.96,-65.01,4.87
-14.77,65.96,-41.22,-25.96,-65.01,4.87
-14.77,65.96,-41.22,-25.96,-65.01,4.87
-14.77,65.96,-41.22,-25.96,-65.01,4.87
-14.76,65.96,-41.21,-25.96,-65.02,4.87
-14.76,65.96,-41.21,-25.96,-65.02,4.87
-14.76,65.96,-41.21,-25.96,-65.02,4.87
-14.76,65.96,-41.21,-25.96,-65.02,4.87
-14.41,65.98,-41.09,-25.98,-65.30,4.91
-14.41,65.98,-41.09,-25.98,-65.30,4.91
-14.41,65.98,-41.09,-25.98,-65.30,4.91
-14.41,65.98,-41.09,-25.98,-65.30,4.91
-13.86,66.14,-40.94,-26.01,-65.77,4.94
-13.86,66.14,-40.94,-26.01,-65.77,4.94
-13.86,66.14,-40.94,-26.01,-65.77,4.94
-13.86,66.14,-40.94,-26.01,-65.77,4.94
-13.24,66.38,-40.78,-26.05,-66.31,4.96
-13.24,66.38,-40.78,-26.05,-66.31,4.96
-13.24,66.38,-40.78,-26.05,-66.31,4.96
-13.24,66.38,-40.78,-26.05,-66.31,4.96
-12.68,66.61,-40.65,-26.08,-66.83,4.98
-12.68,66.61,-40.65,-26.08,-66.83,4.98
-12.68,66.61,-40.65,-26.08,-66.83,4.98
-12.68,66.61,-40.65,-26.08,-66.83,4.98
-12.28,66.78,-40.56,-26.11,-67.19,4.98
-12.28,66.78,-40.56,-26.11,-67.19,4.98
-12.28,66.78,-40.56,-26.11,-67.19,4.98
-12.28,66.78,-40.56,-26.11,-67.19,4.98
-12.00,66.89,-40.51,-26.13,-67.45,4.99
-12.00,66.89,-40.51,-26.13,-67.45,4.99
-12.00,66.89,-40.51,-26.13,-67.45,4.99
-12.00,66.89,-40.51,-26.13,-67.45,4.99
-12.00,66.89,-40.51,-26.13,-67.45,4.99
-12.12,66.74,-40.51,-26.12,-67.32,5.00
-12.12,66.74,-40.51,-26.12,-67.32,5.00
-12.12,66.74,-40.51,-26.12,-67.32,5.00
-12.12,66.74,-40.51,-26.12,-67.32,5.00
-11.66,66.69,-40.45,-26.15,-67.73,5.02
-11.66,66.69,-40.45,-26.15,-67.73,5.02
-11.66,66.69,-40.45,-26.15,-67.73,5.02
-11.66,66.69,-40.45,-26.15,-67.73,5.02
-11.08,66.68,-40.41,-26.20,-68.28,5.02
-11.08,66.68,-40.41,-26.20,-68.28,5.02
-11.08,66.68,-40.41,-26.20,-68.28,5.02
-11.08,66.68,-40.41,-26.20,-68.28,5.02
-10.50,66.69,-40.39,-26.25,-68.84,5.02
-10.50,66.69,-40.39,-26.25,-68.84,5.02
-10.50,66.69,-40.39,-26.25,-68.84,5.02
-10.50,66.69,-40.39,-26.25,-68.84,5.02
-10.02,66.71,-40.37,-26.29,-69.30,5.02
-10.02,66.71,-40.37,-26.29,-69.30,5.02
-10.02,66.71,-40.37,-26.29,-69.30,5.02
-10.02,66.71,-40.37,-26.29,-69.30,5.02
-9.74,66.72,-40.37,-26.31,-69.57,5.02
-9.74,66.72,-40.37,-26.31,-69.57,5.02
-9.74,66.72,-40.37,-26.31,-69.57,5.02
-9.74,66.72,-40.37,-26.31,-69.57,5.02
-9.91,66.66,-40.33,-26.29,-69.40,5.03
-9.91,66.66,-40.33,-26.29,-69.40,5.03
-9.91,66.66,-40.33,-26.29,-69.40,5.03
-9.91,66.66,-40.33,-26.29,-69.40,5.03
-9.54,66.45,-40.21,-26.28,-69.80,5.03
-9.54,66.45,-40.21,-26.28,-69.80,5.03
-9.54,66.45,-40.21,-26.28,-69.80,5.03
-9.54,66.45,-40.21,-26.28,-69.80,5.03
-9.09,66.17,-40.08,-26.28,-70.34,5.03
-9.09,66.17,-40.08,-26.28,-70.34,5.03
-9.09,66.17,-40.08,-26.28,-70.34,5.03
-9.09,66.17,-40.08,-26.28,-70.34,5.03
-8.62,65.88,-39.94,-26.27,-70.92,5.02
-8.62,65.88,-39.94,-26.27,-70.92,5.02
-8.62,65.88,-39.94,-26.27,-70.92,5.02
-8.62,65.88,-39.94,-26.27,-70.92,5.02
-8.22,65.63,-39.83,-26.26,-71.41,5.00
-8.22,65.63,-39.83,-26.26,-71.41,5.00
-8.22,65.63,-39.83,-26.26,-71.41,5.00
-8.22,65.63,-39.83,-26.26,-71.41,5.00
-7.99,65.50,-39.77,-26.25,-71.70,5.00
-7.99,65.50,-39.77,-26.25,-71.70,5.00
-7.99,65.50,-39.77,-26.25,-71.70,5.00
-7.99,65.50,-39.77,-26.25,-71.70,5.00
-8.16,65.61,-39.81,-26.26,-71.46,5.01
-8.16,65.61,-39.81,-26.26,-71.46,5.01
-8.16,65.61,-39.81,-26.26,-71.46,5.01
-8.16,65.61,-39.81,-26.26,-71.46,5.01
-7.78,65.44,-39.78,-26.28,-71.81,5.01
-7.78,65.44,-39.78,-26.28,-71.81,5.01
-7.78,65.44,-39.78,-26.28,-71.81,5.01
-7.78,65.44,-39.78,-26.28,-71.81,5.01
-7.26,65.17,-39.79,-26.32,-72.31,5.01
-7.26,65.17,-39.79,-26.32,-72.31,5.01
-7.26,65.17,-39.79,-26.32,-72.31,5.01
-7.26,65.17,-39.79,-26.32,-72.31,5.01
-6.70,64.87,-39.83,-26.37,-72.86,4.99
-6.70,64.87,-39.83,-26.37,-72.86,4.99
-6.70,64.87,-39.83,-26.37,-72.86,4.99
-6.70,64.87,-39.83,-26.37,-72.86,4.99
-6.21,64.61,-39.87,-26.41,-73.34,4.97
-6.21,64.61,-39.87,-26.41,-73.34,4.97
-6.21,64.61,-39.87,-26.41,-73.34,4.97
-6.21,64.61,-39.87,-26.41,-73.34,4.97
-5.90,64.44,-39.90,-26.44,-73.65,4.96
-5.90,64.44,-39.90,-26.44,-73.65,4.96
-5.90,64.44,-39.90,-26.44,-73.65,4.96
-5.90,64.44,-39.90,-26.44,-73.65,4.96
-5.87,64.43,-39.91,-26.44,-73.68,4.96
-5.87,64.43,-39.91,-26.44,-73.68,4.96
-5.87,64.43,-39.91,-26.44,-73.68,4.96
-5.87,64.43,-39.91,-26.44,-73.68,4.96
-5.62,64.32,-39.86,-26.45,-73.90,4.97
-5.62,64.32,-39.86,-26.45,-73.90,4.97
-5.62,64.32,-39.86,-26.45,-73.90,4.97
-5.62,64.32,-39.86,-26.45,-73.90,4.97
-5.15,64.02,-39.89,-26.48,-74.34,4.96
-5.15,64.02,-39.89,-26.48,-74.34,4.96
-5.15,64.02,-39.89,-26.48,-74.34,4.96
-5.15,64.02,-39.89,-26.48,-74.34,4.96
-4.60,63.63,-39.97,-26.51,-74.87,4.94
-4.60,63.63,-39.97,-26.51,-74.87,4.94
-4.60,63.63,-39.97,-26.51,-74.87,4.94
-4.60,63.63,-39.97,-26.51,-74.87,4.94
-4.09,63.25,-40.05,-26.55,-75.37,4.92
-4.09,63.25,-40.05,-26.55,-75.37,4.92
-4.09,63.25,-40.05,-26.55,-75.37,4.92
-4.09,63.25,-40.05,-26.55,-75.37,4.92
-3.71,62.98,-40.12,-26.58,-75.74,4.90
-3.71,62.98,-40.12,-26.58,-75.74,4.90
-3.71,62.98,-40.12,-26.58,-75.74,4.90
-3.71,62.98,-40.12,-26.58,-75.74,4.90
-3.54,62.87,-40.16,-26.60,-75.91,4.89
-3.54,62.87,-40.16,-26.60,-75.91,4.89
-3.54,62.87,-40.16,-26.60,-75.91,4.89
-3.54,62.87,-40.16,-26.60,-75.91,4.89
-3.50,62.93,-40.08,-26.59,-75.92,4.91
-3.50,62.93,-40.08,-26.59,-75.92,4.91
-3.50,62.93,-40.08,-26.59,-75.92,4.91
-3.50,62.93,-40.08,-26.59,-75.92,4.91
-3.07,62.73,-40.08,-26.61,-76.33,4.90
-3.07,62.73,-40.08,-26.61,-76.33,4.90
-3.07,62.73,-40.08,-26.61,-76.33,4.90
-3.07,62.73,-40.08,-26.61,-76.33,4.90
-2.55,62.45,-40.13,-26.64,-76.82,4.88
-2.55,62.45,-40.13,-26.64,-76.82,4.88
-2.55,62.45,-40.13,-26.64,-76.82,4.88
-2.55,62.45,-40.13,-26.64,-76.82,4.88
-2.04,62.16,-40.19,-26.67,-77.31,4.85
-2.04,62.16,-40.19,-26.67,-77.31,4.85
-2.04,62.16,-40.19,-26.67,-77.31,4.85
-2.04,62.16,-40.19,-26.67,-77.31,4.85
-1.64,61.94,-40.25,-26.70,-77.68,4.83
-1.64,61.94,-40.25,-26.70,-77.68,4.83
-1.64,61.94,-40.25,-26.70,-77.68,4.83
-1.64,61.94,-40.25,-26.70,-77.68,4.83
-1.42,61.83,-40.28,-26.72,-77.90,4.82
-1.42,61.83,-40.28,-26.72,-77.90,4.82
-1.42,61.83,-40.28,-26.72,-77.90,4.82
-1.42,61.83,-40.28,-26.72,-77.90,4.82
-1.57,61.94,-40.22,-26.70,-77.75,4.83
-1.57,61.94,-40.22,-26.70,-77.75,4.83
-1.57,61.94,-40.22,-26.70,-77.75,4.83
-1.57,61.94,-40.22,-26.70,-77.75,4.83
-1.22,61.77,-40.23,-26.71,-78.05,4.83
-1.22,61.77,-40.23,-26.71,-78.05,4.83
-1.22,61.77,-40.23,-26.71,-78.05,4.83
-1.22,61.77,-40.23,-26.71,-78.05,4.83
-1.22,61.77,-40.23,-26.71,-78.05,4.83
-0.75,61.45,-40.32,-26.74,-78.48,4.81
-0.75,61.45,-40.32,-26.74,-78.48,4.81
-0.75,61.45,-40.32,-26.74,-78.48,4.81
-0.75,61.45,-40.32,-26.74,-78.48,4.81
-0.22,61.08,-40.46,-26.77,-78.95,4.78
-0.22,61.08,-40.46,-26.77,-78.95,4.78
-0.22,61.08,-40.46,-26.77,-78.95,4.78
-0.22,61.08,-40.46,-26.77,-78.95,4.78
0.27,60.72,-40.59,-26.81,-79.38,4.75
0.27,60.72,-40.59,-26.81,-79.38,4.75
0.27,60.72,-40.59,-26.81,-79.38,4.75
0.27,60.72,-40.59,-26.81,-79.38,4.75
0.62,60.48,-40.69,-26.83,-79.71,4.73
0.62,60.48,-40.69,-26.83,-79.71,4.73
0.62,60.48,-40.69,-26.83,-79.71,4.73
0.62,60.48,-40.69,-26.83,-79.71,4.73
0.27,60.73,-40.59,-26.81,-79.39,4.75
0.27,60.73,-40.59,-26.81,-79.39,4.75
0.27,60.73,-40.59,-26.81,-79.39,4.75
0.27,60.73,-40.59,-26.81,-79.39,4.75
0.53,60.68,-40.55,-26.80,-79.63,4.75
0.53,60.68,-40.55,-26.80,-79.63,4.75
0.53,60.68,-40.55,-26.80,-79.63,4.75
0.53,60.68,-40.55,-26.80,-79.63,4.75
0.96,60.48,-40.59,-26.82,-80.01,4.73
0.96,60.48,-40.59,-26.82,-80.01,4.73
0.96,60.48,-40.59,-26.82,-80.01,4.73
0.96,60.48,-40.59,-26.82,-80.01,4.73
1.47,60.20,-40.69,-26.85,-80.46,4.70
1.47,60.20,-40.69,-26.85,-80.46,4.70
1.47,60.20,-40.69,-26.85,-80.46,4.70
1.47,60.20,-40.69,-26.85,-80.46,4.70
1.96,59.91,-40.81,-26.88,-80.90,4.67
1.96,59.91,-40.81,-26.88,-80.90,4.67
1.96,59.91,-40.81,-26.88,-80.90,4.67
1.96,59.91,-40.81,-26.88,-80.90,4.67
2.36,59.69,-40.91,-26.91,-81.27,4.65
2.36,59.69,-40.91,-26.91,-81.27,4.65
2.36,59.69,-40.91,-26.91,-81.27,4.65
2.36,59.69,-40.91,-26.91,-81.27,4.65
2.36,59.68,-40.92,-26.91,-81.27,4.64
2.36,59.68,-40.92,-26.91,-81.27,4.64
2.36,59.68,-40.92,-26.91,-81.27,4.64
2.36,59.68,-40.92,-26.91,-81.27,4.64
2.58,59.71,-40.83,-26.89,-81.49,4.64
2.58,59.71,-40.83,-26.89,-81.49,4.64
2.58,59.71,-40.83,-26.89,-81.49,4.64
2.58,59.71,-40.83,-26.89,-81.49,4.64
2.94,59.63,-40.78,-26.87,-81.86,4.62
2.94,59.63,-40.78,-26.87,-81.86,4.62
2.94,59.63,-40.78,-26.87,-81.86,4.62
2.94,59.63,-40.78,-26.87,-81.86,4.62
3.36,59.50,-40.76,-26.85,-82.31,4.60
3.36,59.50,-40.76,-26.85,-82.31,4.60
3.36,59.50,-40.76,-26.85,-82.31,4.60
3.36,59.50,-40.76,-26.85,-82.31,4.60
3.77,59.37,-40.75,-26.84,-82.75,4.56
3.77,59.37,-40.75,-26.84,-82.75,4.56
3.77,59.37,-40.75,-26.84,-82.75,4.56
3.77,59.37,-40.75,-26.84,-82.75,4.56
4.11,59.27,-40.73,-26.82,-83.12,4.54
4.11,59.27,-40.73,-26.82,-83.12,4.54
4.11,59.27,-40.73,-26.82,-83.12,4.54
4.11,59.27,-40.73,-26.82,-83.12,4.54
4.29,59.23,-40.72,-26.81,-83.34,4.52
4.29,59.23,-40.72,-26.81,-83.34,4.52
4.29,59.23,-40.72,-26.81,-83.34,4.52
4.29,59.23,-40.72,-26.81,-83.34,4.52
4.28,59.28,-40.69,-26.81,-83.29,4.54
4.28,59.28,-40.69,-26.81,-83.29,4.54
4.28,59.28,-40.69,-26.81,-83.29,4.54
4.28,59.28,-40.69,-26.81,-83.29,4.54
4.66,59.14,-40.73,-26.82,-83.62,4.52
4.66,59.14,-40.73,-26.82,-83.62,4.52
4.66,59.14,-40.73,-26.82,-83.62,4.52
4.66,59.14,-40.73,-26.82,-83.62,4.52
5.14,58.90,-40.85,-26.84,-84.04,4.49
5.14,58.90,-40.85,-26.84,-84.04,4.49
5.14,58.90,-40.85,-26.84,-84.04,4.49
5.14,58.90,-40.85,-26.84,-84.04,4.49
5.62,58.62,-40.99,-26.87,-84.47,4.46
5.62,58.62,-40.99,-26.87,-84.47,4.46
5.62,58.62,-40.99,-26.87,-84.47,4.46
5.62,58.62,-40.99,-26.87,-84.47,4.46
6.03,58.39,-41.13,-26.89,-84.83,4.43
6.03,58.39,-41.13,-26.89,-84.83,4.43
6.03,58.39,-41.13,-26.89,-84.83,4.43
6.03,58.39,-41.13,-26.89,-84.83,4.43
6.03,58.39,-41.13,-26.89,-84.83,4.43
6.33,58.25,-41.22,-26.91,-85.10,4.41
6.33,58.25,-41.22,-26.91,-85.10,4.41
6.33,58.25,-41.22,-26.91,-85.10,4.41
6.09,58.42,-41.10,-26.89,-84.89,4.43
6.09,58.42,-41.10,-26.89,-84.89,4.43
6.09,58.42,-41.10,-26.89,-84.89,4.43
6.09,58.42,-41.10,-26.89,-84.89,4.43
6.40,58.37,-41.09,-26.88,-85.16,4.42
6.40,58.37,-41.09,-26.88,-85.16,4.42
6.40,58.37,-41.09,-26.88,-85.16,4.42
6.40,58.37,-41.09,-26.88,-85.16,4.42
6.85,58.19,-41.20,-26.89,-85.54,4.39
6.85,58.19,-41.20,-26.89,-85.54,4.39
6.85,58.19,-41.20,-26.89,-85.54,4.39
6.85,58.19,-41.20,-26.89,-85.54,4.39
7.36,57.93,-41.36,-26.91,-85.95,4.36
7.36,57.93,-41.36,-26.91,-85.95,4.36
7.36,57.93,-41.36,-26.91,-85.95,4.36
7.36,57.93,-41.36,-26.91,-85.95,4.36
7.83,57.68,-41.52,-26.93,-86.34,4.33
7.83,57.68,-41.52,-26.93,-86.34,4.33
7.83,57.68,-41.52,-26.93,-86.34,4.33
7.83,57.68,-41.52,-26.93,-86.34,4.33
8.18,57.51,-41.65,-26.95,-86.64,4.30
8.18,57.51,-41.65,-26.95,-86.64,4.30
8.18,57.51,-41.65,-26.95,-86.64,4.30
8.18,57.51,-41.65,-26.95,-86.64,4.30
7.85,57.70,-41.51,-26.93,-86.36,4.33
7.85,57.70,-41.51,-26.93,-86.36,4.33
7.85,57.70,-41.51,-26.93,-86.36,4.33
7.85,57.70,-41.51,-26.93,-86.36,4.33
8.09,57.74,-41.45,-26.91,-86.62,4.32
8.09,57.74,-41.45,-26.91,-86.62,4.32
8.09,57.74,-41.45,-26.91,-86.62,4.32
8.09,57.74,-41.45,-26.91,-86.62,4.32
8.46,57.66,-41.49,-26.91,-87.00,4.30
8.46,57.66,-41.49,-26.91,-87.00,4.30
8.46,57.66,-41.49,-26.91,-87.00,4.30
8.46,57.66,-41.49,-26.91,-87.00,4.30
8.46,57.66,-41.49,-26.91,-87.00,4.30
8.86,57.51,-41.59,-26.92,-87.42,4.27
8.86,57.51,-41.59,-26.92,-87.42,4.27
8.86,57.51,-41.59,-26.92,-87.42,4.27
8.86,57.51,-41.59,-26.92,-87.42,4.27
9.23,57.36,-41.70,-26.93,-87.80,4.24
9.23,57.36,-41.70,-26.93,-87.80,4.24
9.23,57.36,-41.70,-26.93,-87.80,4.24
9.23,57.36,-41.70,-26.93,-87.80,4.24
9.48,57.26,-41.77,-26.94,-88.06,4.22
9.48,57.26,-41.77,-26.94,-88.06,4.22
9.48,57.26,-41.77,-26.94,-88.06,4.22
9.48,57.26,-41.77,-26.94,-88.06,4.22
9.50,57.25,-41.79,-26.94,-88.08,4.22
9.50,57.25,-41.79,-26.94,-88.08,4.22
9.50,57.25,-41.79,-26.94,-88.08,4.22
9.50,57.25,-41.79,-26.94,-88.08,4.22
9.67,57.31,-41.71,-26.92,-88.26,4.21
9.67,57.31,-41.71,-26.92,-88.26,4.21
9.67,57.31,-41.71,-26.92,-88.26,4.21
9.67,57.31,-41.71,-26.92,-88.26,4.21
10.01,57.20,-41.78,-26.91,-88.60,4.19
10.01,57.20,-41.78,-26.91,-88.60,4.19
10.01,57.20,-41.78,-26.91,-88.60,4.19
10.01,57.20,-41.78,-26.91,-88.60,4.19
10.41,57.00,-41.91,-26.92,-89.00,4.16
10.41,57.00,-41.91,-26.92,-89.00,4.16
10.41,57.00,-41.91,-26.92,-89.00,4.16
10.41,57.00,-41.91,-26.92,-89.00,4.16
10.79,56.77,-42.07,-26.93,-89.37,4.14
10.79,56.77,-42.07,-26.93,-89.37,4.14
10.79,56.77,-42.07,-26.93,-89.37,4.14
10.79,56.77,-42.07,-26.93,-89.37,4.14
11.07,56.60,-42.20,-26.93,-89.65,4.11
11.07,56.60,-42.20,-26.93,-89.65,4.11
11.07,56.60,-42.20,-26.93,-89.65,4.11
11.07,56.60,-42.20,-26.93,-89.65,4.11
11.15,56.56,-42.24,-26.94,-89.73,4.11
11.15,56.56,-42.24,-26.94,-89.73,4.11
11.15,56.56,-42.24,-26.94,-89.73,4.11
11.15,56.56,-42.24,-26.94,-89.73,4.11
11.18,56.76,-42.09,-26.91,-89.78,4.11
11.18,56.76,-42.09,-26.91,-89.78,4.11
11.18,56.76,-42.09,-26.91,-89.78,4.11
11.18,56.76,-42.09,-26.91,-89.78,4.11
11.38,56.96,-41.99,-26.91,-89.99,4.10
11.38,56.96,-41.99,-26.91,-89.99,4.10
11.38,56.96,-41.99,-26.91,-89.99,4.10
11.38,56.96,-41.99,-26.91,-89.99,4.10
11.61,57.17,-41.92,-26.91,-90.25,4.09
11.61,57.17,-41.92,-26.91,-90.25,4.09
11.61,57.17,-41.92,-26.91,-90.25,4.09
11.61,57.17,-41.92,-26.91,-90.25,4.09
11.86,57.39,-41.88,-26.93,-90.53,4.07
11.86,57.39,-41.88,-26.93,-90.53,4.07
11.86,57.39,-41.88,-26.93,-90.53,4.07
11.86,57.39,-41.88,-26.93,-90.53,4.07
12.11,57.63,-41.85,-26.96,-90.82,4.04
12.11,57.63,-41.85,-26.96,-90.82,4.04
12.11,57.63,-41.85,-26.96,-90.82,4.04
12.11,57.63,-41.85,-26.96,-90.82,4.04
12.11,57.63,-41.85,-26.96,-90.82,4.04
12.36,57.87,-41.82,-26.98,-91.11,4.01
12.36,57.87,-41.82,-26.98,-91.11,4.01
12.36,57.87,-41.82,-26.98,-91.11,4.01
12.17,57.67,-41.81,-26.94,-90.88,4.04
12.17,57.67,-41.81,-26.94,-90.88,4.04
12.17,57.67,-41.81,-26.94,-90.88,4.04
12.17,57.67,-41.81,-26.94,-90.88,4.04
12.48,57.60,-41.84,-26.92,-91.13,4.03
12.48,57.60,-41.84,-26.92,-91.13,4.03
12.48,57.60,-41.84,-26.92,-91.13,4.03
12.48,57.60,-41.84,-26.92,-91.13,4.03
12.48,57.60,-41.84,-26.92,-91.13,4.03
12.92,57.36,-42.01,-26.92,-91.48,4.00
12.92,57.36,-42.01,-26.92,-91.48,4.00
12.92,57.36,-42.01,-26.92,-91.48,4.00
13.41,57.04,-42.25,-26.93,-91.85,3.97
13.41,57.04,-42.25,-26.93,-91.85,3.97
13.41,57.04,-42.25,-26.93,-91.85,3.97
13.41,57.04,-42.25,-26.93,-91.85,3.97
13.85,56.73,-42.49,-26.93,-92.19,3.94
13.85,56.73,-42.49,-26.93,-92.19,3.94
13.85,56.73,-42.49,-26.93,-92.19,3.94
13.85,56.73,-42.49,-26.93,-92.19,3.94
14.16,56.53,-42.66,-26.94,-92.44,3.92
14.16,56.53,-42.66,-26.94,-92.44,3.92
14.16,56.53,-42.66,-26.94,-92.44,3.92
14.16,56.53,-42.66,-26.94,-92.44,3.92
14.16,56.53,-42.66,-26.94,-92.44,3.92
13.87,56.76,-42.46,-26.93,-92.22,3.94
13.87,56.76,-42.46,-26.93,-92.22,3.94
13.87,56.76,-42.46,-26.93,-92.22,3.94
13.87,56.76,-42.46,-26.93,-92.22,3.94
14.17,56.81,-42.42,-26.90,-92.48,3.92
14.17,56.81,-42.42,-26.90,-92.48,3.92
14.17,56.81,-42.42,-26.90,-92.48,3.92
14.17,56.81,-42.42,-26.90,-92.48,3.92
14.63,56.70,-42.51,-26.89,-92.84,3.90
14.63,56.70,-42.51,-26.89,-92.84,3.90
14.63,56.70,-42.51,-26.89,-92.84,3.90
15.16,56.51,-42.68,-26.89,-93.23,3.86
15.16,56.51,-42.68,-26.89,-93.23,3.86
15.16,56.51,-42.68,-26.89,-93.23,3.86
15.16,56.51,-42.68,-26.89,-93.23,3.86
15.66,56.30,-42.87,-26.90,-93.59,3.83
15.66,56.30,-42.87,-26.90,-93.59,3.83
15.66,56.30,-42.87,-26.90,-93.59,3.83
15.66,56.30,-42.87,-26.90,-93.59,3.83
15.66,56.30,-42.87,-26.90,-93.59,3.83
16.04,56.14,-43.02,-26.91,-93.88,3.81
16.04,56.14,-43.02,-26.91,-93.88,3.81
16.04,56.14,-43.02,-26.91,-93.88,3.81
16.04,56.14,-43.02,-26.91,-93.88,3.81
16.04,56.15,-43.02,-26.91,-93.89,3.80
16.04,56.15,-43.02,-26.91,-93.89,3.80
16.04,56.15,-43.02,-26.91,-93.89,3.80
16.04,56.15,-43.02,-26.91,-93.89,3.80
16.37,56.42,-42.84,-26.86,-94.27,3.78
16.37,56.42,-42.84,-26.86,-94.27,3.78
16.37,56.42,-42.84,-26.86,-94.27,3.78
16.37,56.42,-42.84,-26.86,-94.27,3.78
16.82,56.72,-42.68,-26.83,-94.76,3.75
16.82,56.72,-42.68,-26.83,-94.76,3.75
16.82,56.72,-42.68,-26.83,-94.76,3.75
16.82,56.72,-42.68,-26.83,-94.76,3.75
17.31,57.02,-42.56,-26.80,-95.29,3.71
17.31,57.02,-42.56,-26.80,-95.29,3.71
17.31,57.02,-42.56,-26.80,-95.29,3.71
17.31,57.02,-42.56,-26.80,-95.29,3.71
17.75,57.27,-42.46,-26.79,-95.76,3.67
17.75,57.27,-42.46,-26.79,-95.76,3.67
17.75,57.27,-42.46,-26.79,-95.76,3.67
17.75,57.27,-42.46,-26.79,-95.76,3.67
18.06,57.45,-42.40,-26.78,-96.09,3.64
18.06,57.45,-42.40,-26.78,-96.09,3.64
18.06,57.45,-42.40,-26.78,-96.09,3.64
18.06,57.45,-42.40,-26.78,-96.09,3.64
18.21,57.53,-42.38,-26.78,-96.24,3.63
18.21,57.53,-42.38,-26.78,-96.24,3.63
18.21,57.53,-42.38,-26.78,-96.24,3.63
18.21,57.53,-42.38,-26.78,-96.24,3.63
18.41,57.63,-42.28,-26.74,-96.44,3.63
18.41,57.63,-42.28,-26.74,-96.44,3.63
18.41,57.63,-42.28,-26.74,-96.44,3.63
18.41,57.63,-42.28,-26.74,-96.44,3.63
19.10,57.82,-42.21,-26.69,-97.02,3.59
19.10,57.82,-42.21,-26.69,-97.02,3.59
19.10,57.82,-42.21,-26.69,-97.02,3.59
19.10,57.82,-42.21,-26.69,-97.02,3.59
19.92,57.96,-42.21,-26.65,-97.65,3.55
19.92,57.96,-42.21,-26.65,-97.65,3.55
19.92,57.96,-42.21,-26.65,-97.65,3.55
19.92,57.96,-42.21,-26.65,-97.65,3.55
20.70,58.06,-42.24,-26.63,-98.22,3.51
20.70,58.06,-42.24,-26.63,-98.22,3.51
20.70,58.06,-42.24,-26.63,-98.22,3.51
20.70,58.06,-42.24,-26.63,-98.22,3.51
21.30,58.14,-42.27,-26.61,-98.66,3.48
21.30,58.14,-42.27,-26.61,-98.66,3.48
21.30,58.14,-42.27,-26.61,-98.66,3.48
21.30,58.14,-42.27,-26.61,-98.66,3.48
21.64,58.20,-42.28,-26.60,-98.90,3.46
21.64,58.20,-42.28,-26.60,-98.90,3.46
21.64,58.20,-42.28,-26.60,-98.90,3.46
21.64,58.20,-42.28,-26.60,-98.90,3.46
21.50,58.31,-42.15,-26.57,-98.91,3.47
21.50,58.31,-42.15,-26.57,-98.91,3.47
21.50,58.31,-42.15,-26.57,-98.91,3.47
21.50,58.31,-42.15,-26.57,-98.91,3.47
21.85,58.63,-41.97,-26.52,-99.35,3.45
21.85,58.63,-41.97,-26.52,-99.35,3.45
21.85,58.63,-41.97,-26.52,-99.35,3.45
21.85,58.63,-41.97,-26.52,-99.35,3.45
22.20,58.96,-41.81,-26.48,-99.80,3.43
22.20,58.96,-41.81,-26.48,-99.80,3.43
22.20,58.96,-41.81,-26.48,-99.80,3.43
22.20,58.96,-41.81,-26.48,-99.80,3.43
22.56,59.31,-41.68,-26.46,-100.25,3.41
22.56,59.31,-41.68,-26.46,-100.25,3.41
22.56,59.31,-41.68,-26.46,-100.25,3.41
22.56,59.31,-41.68,-26.46,-100.25,3.41
22.90,59.65,-41.57,-26.44,-100.68,3.38
22.90,59.65,-41.57,-26.44,-100.68,3.38
22.90,59.65,-41.57,-26.44,-100.68,3.38
22.90,59.65,-41.57,-26.44,-100.68,3.38
23.21,59.98,-41.49,-26.44,-101.09,3.36
23.21,59.98,-41.49,-26.44,-101.09,3.36
23.21,59.98,-41.49,-26.44,-101.09,3.36
23.21,59.98,-41.49,-26.44,-101.09,3.36
22.94,59.69,-41.55,-26.44,-100.73,3.38
22.94,59.69,-41.55,-26.44,-100.73,3.38
22.94,59.69,-41.55,-26.44,-100.73,3.38
22.94,59.69,-41.55,-26.44,-100.73,3.38
23.44,59.95,-41.40,-26.38,-101.19,3.37
23.44,59.95,-41.40,-26.38,-101.19,3.37
23.44,59.95,-41.40,-26.38,-101.19,3.37
23.44,59.95,-41.40,-26.38,-101.19,3.37
24.17,60.23,-41.30,-26.35,-101.74,3.35
24.17,60.23,-41.30,-26.35,-101.74,3.35
24.17,60.23,-41.30,-26.35,-101.74,3.35
24.17,60.23,-41.30,-26.35,-101.74,3.35
24.96,60.49,-41.23,-26.32,-102.30,3.32
24.96,60.49,-41.23,-26.32,-102.30,3.32
24.96,60.49,-41.23,-26.32,-102.30,3.32
24.96,60.49,-41.23,-26.32,-102.30,3.32
25.68,60.71,-41.20,-26.30,-102.79,3.30
25.68,60.71,-41.20,-26.30,-102.79,3.30
25.68,60.71,-41.20,-26.30,-102.79,3.30
25.68,60.71,-41.20,-26.30,-102.79,3.30
26.16,60.87,-41.18,-26.30,-103.11,3.28
26.16,60.87,-41.18,-26.30,-103.11,3.28
26.16,60.87,-41.18,-26.30,-103.11,3.28
26.16,60.87,-41.18,-26.30,-103.11,3.28
26.32,60.93,-41.18,-26.30,-103.22,3.27
26.32,60.93,-41.18,-26.30,-103.22,3.27
26.32,60.93,-41.18,-26.30,-103.22,3.27
26.32,60.93,-41.18,-26.30,-103.22,3.27
26.45,61.08,-41.04,-26.25,-103.42,3.28
26.45,61.08,-41.04,-26.25,-103.42,3.28
26.45,61.08,-41.04,-26.25,-103.42,3.28
26.45,61.08,-41.04,-26.25,-103.42,3.28
27.01,61.38,-40.91,-26.22,-103.88,3.26
27.01,61.38,-40.91,-26.22,-103.88,3.26
27.01,61.38,-40.91,-26.22,-103.88,3.26
27.01,61.38,-40.91,-26.22,-103.88,3.26
27.01,61.38,-40.91,-26.22,-103.88,3.26
27.67,61.69,-40.80,-26.19,-104.38,3.24
27.67,61.69,-40.80,-26.19,-104.38,3.24
27.67,61.69,-40.80,-26.19,-104.38,3.24
28.30,61.98,-40.73,-26.18,-104.83,3.22
28.30,61.98,-40.73,-26.18,-104.83,3.22
28.30,61.98,-40.73,-26.18,-104.83,3.22
28.30,61.98,-40.73,-26.18,-104.83,3.22
28.30,61.98,-40.73,-26.18,-104.83,3.22
28.77,62.19,-40.68,-26.17,-105.16,3.20
28.77,62.19,-40.68,-26.17,-105.16,3.20
28.77,62.19,-40.68,-26.17,-105.16,3.20
28.96,62.29,-40.66,-26.17,-105.30,3.20
28.96,62.29,-40.66,-26.17,-105.30,3.20
28.96,62.29,-40.66,-26.17,-105.30,3.20
28.96,62.29,-40.66,-26.17,-105.30,3.20
29.00,62.31,-40.60,-26.14,-105.41,3.20
29.00,62.31,-40.60,-26.14,-105.41,3.20
29.00,62.31,-40.60,-26.14,-105.41,3.20
29.00,62.31,-40.60,-26.14,-105.41,3.20
29.51,62.34,-40.64,-26.13,-105.81,3.19
29.51,62.34,-40.64,-26.13,-105.81,3.19
29.51,62.34,-40.64,-26.13,-105.81,3.19
29.51,62.34,-40.64,-26.13,-105.81,3.19
30.12,62.29,-40.77,-26.14,-106.23,3.18
30.12,62.29,-40.77,-26.14,-106.23,3.18
30.12,62.29,-40.77,-26.14,-106.23,3.18
30.12,62.29,-40.77,-26.14,-106.23,3.18
30.72,62.22,-40.93,-26.16,-106.62,3.16
30.72,62.22,-40.93,-26.16,-106.62,3.16
30.72,62.22,-40.93,-26.16,-106.62,3.16
30.72,62.22,-40.93,-26.16,-106.62,3.16
31.18,62.15,-41.06,-26.18,-106.92,3.14
31.18,62.15,-41.06,-26.18,-106.92,3.14
31.18,62.15,-41.06,-26.18,-106.92,3.14
31.18,62.15,-41.06,-26.18,-106.92,3.14
31.18,62.15,-41.06,-26.18,-106.92,3.14
31.43,62.14,-41.13,-26.19,-107.08,3.13
31.43,62.14,-41.13,-26.19,-107.08,3.13
31.43,62.14,-41.13,-26.19,-107.08,3.13
31.43,62.14,-41.13,-26.19,-107.08,3.13
31.22,62.21,-41.02,-26.16,-106.98,3.15
31.22,62.21,-41.02,-26.16,-106.98,3.15
31.22,62.21,-41.02,-26.16,-106.98,3.15
31.22,62.21,-41.02,-26.16,-106.98,3.15
31.46,62.43,-40.86,-26.12,-107.24,3.15
31.46,62.43,-40.86,-26.12,-107.24,3.15
31.46,62.43,-40.86,-26.12,-107.24,3.15
31.46,62.43,-40.86,-26.12,-107.24,3.15
31.80,62.66,-40.74,-26.09,-107.51,3.14
31.80,62.66,-40.74,-26.09,-107.51,3.14
31.80,62.66,-40.74,-26.09,-107.51,3.14
31.80,62.66,-40.74,-26.09,-107.51,3.14
32.19,62.90,-40.64,-26.08,-107.78,3.14
32.19,62.90,-40.64,-26.08,-107.78,3.14
32.19,62.90,-40.64,-26.08,-107.78,3.14
32.19,62.90,-40.64,-26.08,-107.78,3.14
32.60,63.14,-40.57,-26.07,-108.05,3.12
32.60,63.14,-40.57,-26.07,-108.05,3.12
32.60,63.14,-40.57,-26.07,-108.05,3.12
32.60,63.14,-40.57,-26.07,-108.05,3.12
33.00,63.37,-40.52,-26.07,-108.30,3.11
33.00,63.37,-40.52,-26.07,-108.30,3.11
33.00,63.37,-40.52,-26.07,-108.30,3.11
33.00,63.37,-40.52,-26.07,-108.30,3.11
32.63,63.18,-40.54,-26.06,-108.09,3.13
32.63,63.18,-40.54,-26.06,-108.09,3.13
32.63,63.18,-40.54,-26.06,-108.09,3.13
32.63,63.18,-40.54,-26.06,-108.09,3.13
32.81,63.39,-40.39,-26.02,-108.32,3.13
32.81,63.39,-40.39,-26.02,-108.32,3.13
32.81,63.39,-40.39,-26.02,-108.32,3.13
32.81,63.39,-40.39,-26.02,-108.32,3.13
33.07,63.61,-40.27,-26.00,-108.56,3.13
33.07,63.61,-40.27,-26.00,-108.56,3.13
33.07,63.61,-40.27,-26.00,-108.56,3.13
33.07,63.61,-40.27,-26.00,-108.56,3.13
33.38,63.85,-40.17,-25.99,-108.81,3.12
33.38,63.85,-40.17,-25.99,-108.81,3.12
33.38,63.85,-40.17,-25.99,-108.81,3.12
33.38,63.85,-40.17,-25.99,-108.81,3.12
33.71,64.09,-40.10,-25.98,-109.05,3.11
33.71,64.09,-40.10,-25.98,-109.05,3.11
33.71,64.09,-40.10,-25.98,-109.05,3.11
33.71,64.09,-40.10,-25.98,-109.05,3.11
34.02,64.33,-40.04,-25.99,-109.28,3.10
34.02,64.33,-40.04,-25.99,-109.28,3.10
34.02,64.33,-40.04,-25.99,-109.28,3.10
34.02,64.33,-40.04,-25.99,-109.28,3.10
34.05,64.35,-40.04,-25.99,-109.30,3.10
34.05,64.35,-40.04,-25.99,-109.30,3.10
34.05,64.35,-40.04,-25.99,-109.30,3.10
34.05,64.35,-40.04,-25.99,-109.30,3.10
34.16,64.48,-39.89,-25.95,-109.48,3.11
34.16,64.48,-39.89,-25.95,-109.48,3.11
34.16,64.48,-39.89,-25.95,-109.48,3.11
34.16,64.48,-39.89,-25.95,-109.48,3.11
34.43,64.61,-39.71,-25.93,-109.76,3.11
34.43,64.61,-39.71,-25.93,-109.76,3.11
34.43,64.61,-39.71,-25.93,-109.76,3.11
34.43,64.61,-39.71,-25.93,-109.76,3.11
34.75,64.73,-39.55,-25.93,-110.06,3.10
34.75,64.73,-39.55,-25.93,-110.06,3.10
34.75,64.73,-39.55,-25.93,-110.06,3.10
34.75,64.73,-39.55,-25.93,-110.06,3.10
35.05,64.82,-39.41,-25.93,-110.33,3.09
35.05,64.82,-39.41,-25.93,-110.33,3.09
35.05,64.82,-39.41,-25.93,-110.33,3.09
35.05,64.82,-39.41,-25.93,-110.33,3.09
35.24,64.89,-39.32,-25.93,-110.52,3.08
35.24,64.89,-39.32,-25.93,-110.52,3.08
35.24,64.89,-39.32,-25.93,-110.52,3.08
35.24,64.89,-39.32,-25.93,-110.52,3.08
35.29,64.96,-39.28,-25.93,-110.63,3.07
35.29,64.96,-39.28,-25.93,-110.63,3.07
35.29,64.96,-39.28,-25.93,-110.63,3.07
35.29,64.96,-39.28,-25.93,-110.63,3.07
35.27,64.99,-39.24,-25.91,-110.61,3.09
35.27,64.99,-39.24,-25.91,-110.61,3.09
35.27,64.99,-39.24,-25.91,-110.61,3.09
35.27,64.99,-39.24,-25.91,-110.61,3.09
35.37,65.18,-39.12,-25.88,-110.78,3.09
35.37,65.18,-39.12,-25.88,-110.78,3.09
35.37,65.18,-39.12,-25.88,-110.78,3.09
35.37,65.18,-39.12,-25.88,-110.78,3.09
35.50,65.40,-39.03,-25.87,-110.96,3.09
35.50,65.40,-39.03,-25.87,-110.96,3.09
35.50,65.40,-39.03,-25.87,-110.96,3.09
35.50,65.40,-39.03,-25.87,-110.96,3.09
35.65,65.62,-38.96,-25.86,-111.14,3.09
35.65,65.62,-38.96,-25.86,-111.14,3.09
35.65,65.62,-38.96,-25.86,-111.14,3.09
35.65,65.62,-38.96,-25.86,-111.14,3.09
35.80,65.85,-38.91,-25.87,-111.32,3.08
35.80,65.85,-38.91,-25.87,-111.32,3.08
35.80,65.85,-38.91,-25.87,-111.32,3.08
35.80,65.85,-38.91,-25.87,-111.32,3.08
35.80,65.85,-38.91,-25.87,-111.32,3.08
35.94,66.06,-38.88,-25.88,-111.49,3.07
35.94,66.06,-38.88,-25.88,-111.49,3.07
35.94,66.06,-38.88,-25.88,-111.49,3.07
35.82,65.93,-38.85,-25.85,-111.39,3.09
35.82,65.93,-38.85,-25.85,-111.39,3.09
35.82,65.93,-38.85,-25.85,-111.39,3.09
35.82,65.93,-38.85,-25.85,-111.39,3.09
35.86,66.10,-38.74,-25.82,-111.55,3.10
35.86,66.10,-38.74,-25.82,-111.55,3.10
35.86,66.10,-38.74,-25.82,-111.55,3.10
35.86,66.10,-38.74,-25.82,-111.55,3.10
35.86,66.10,-38.74,-25.82,-111.55,3.10
35.90,66.29,-38.66,-25.81,-111.71,3.10
35.90,66.29,-38.66,-25.81,-111.71,3.10
35.90,66.29,-38.66,-25.81,-111.71,3.10
35.90,66.29,-38.66,-25.81,-111.71,3.10
35.94,66.49,-38.60,-25.81,-111.88,3.09
35.94,66.49,-38.60,-25.81,-111.88,3.09
35.94,66.49,-38.60,-25.81,-111.88,3.09
35.94,66.49,-38.60,-25.81,-111.88,3.09
35.97,66.69,-38.56,-25.82,-112.04,3.09
35.97,66.69,-38.56,-25.82,-112.04,3.09
35.97,66.69,-38.56,-25.82,-112.04,3.09
35.97,66.69,-38.56,-25.82,-112.04,3.09
36.01,66.89,-38.53,-25.83,-112.20,3.08
36.01,66.89,-38.53,-25.83,-112.20,3.08
36.01,66.89,-38.53,-25.83,-112.20,3.08
36.01,66.89,-38.53,-25.83,-112.20,3.08
35.98,66.71,-38.55,-25.81,-112.05,3.09
35.98,66.71,-38.55,-25.81,-112.05,3.09
35.98,66.71,-38.55,-25.81,-112.05,3.09
35.98,66.71,-38.55,-25.81,-112.05,3.09
36.02,66.85,-38.43,-25.78,-112.18,3.10
36.02,66.85,-38.43,-25.78,-112.18,3.10
36.02,66.85,-38.43,-25.78,-112.18,3.10
36.02,66.85,-38.43,-25.78,-112.18,3.10
36.08,67.02,-38.35,-25.77,-112.32,3.10
36.08,67.02,-38.35,-25.77,-112.32,3.10
36.08,67.02,-38.35,-25.77,-112.32,3.10
36.08,67.02,-38.35,-25.77,-112.32,3.10
36.16,67.21,-38.28,-25.76,-112.46,3.10
36.16,67.21,-38.28,-25.76,-112.46,3.10
36.16,67.21,-38.28,-25.76,-112.46,3.10
36.16,67.21,-38.28,-25.76,-112.46,3.10
36.24,67.41,-38.24,-25.77,-112.60,3.10
36.24,67.41,-38.24,-25.77,-112.60,3.10
36.24,67.41,-38.24,-25.77,-112.60,3.10
36.24,67.41,-38.24,-25.77,-112.60,3.10
36.32,67.60,-38.22,-25.78,-112.74,3.09
36.32,67.60,-38.22,-25.78,-112.74,3.09
36.32,67.60,-38.22,-25.78,-112.74,3.09
36.32,67.60,-38.22,-25.78,-112.74,3.09
36.32,67.61,-38.21,-25.78,-112.75,3.09
36.32,67.61,-38.21,-25.78,-112.75,3.09
36.32,67.61,-38.21,-25.78,-112.75,3.09
36.32,67.61,-38.21,-25.78,-112.75,3.09
36.34,67.73,-38.11,-25.75,-112.86,3.10
36.34,67.73,-38.11,-25.75,-112.86,3.10
36.34,67.73,-38.11,-25.75,-112.86,3.10
36.34,67.73,-38.11,-25.75,-112.86,3.10
36.38,67.88,-38.03,-25.74,-112.98,3.11
36.38,67.88,-38.03,-25.74,-112.98,3.11
36.38,67.88,-38.03,-25.74,-112.98,3.11
36.38,67.88,-38.03,-25.74,-112.98,3.11
36.41,68.04,-37.97,-25.73,-113.11,3.11
36.41,68.04,-37.97,-25.73,-113.11,3.11
36.41,68.04,-37.97,-25.73,-113.11,3.11
36.41,68.04,-37.97,-25.73,-113.11,3.11
36.45,68.22,-37.93,-25.74,-113.24,3.11
36.45,68.22,-37.93,-25.74,-113.24,3.11
36.45,68.22,-37.93,-25.74,-113.24,3.11
36.45,68.22,-37.93,-25.74,-113.24,3.11
36.49,68.39,-37.92,-25.75,-113.37,3.10
36.49,68.39,-37.92,-25.75,-113.37,3.10
36.49,68.39,-37.92,-25.75,-113.37,3.10
36.49,68.39,-37.92,-25.75,-113.37,3.10
36.52,68.56,-37.91,-25.77,-113.49,3.09
36.52,68.56,-37.91,-25.77,-113.49,3.09
36.52,68.56,-37.91,-25.77,-113.49,3.09
36.52,68.56,-37.91,-25.77,-113.49,3.09
36.49,68.45,-37.86,-25.74,-113.42,3.11
36.49,68.45,-37.86,-25.74,-113.42,3.11
36.49,68.45,-37.86,-25.74,-113.42,3.11
36.49,68.45,-37.86,-25.74,-113.42,3.11
36.51,68.57,-37.77,-25.72,-113.52,3.12
36.51,68.57,-37.77,-25.72,-113.52,3.12
36.51,68.57,-37.77,-25.72,-113.52,3.12
36.51,68.57,-37.77,-25.72,-113.52,3.12
36.52,68.71,-37.72,-25.71,-113.62,3.12
36.52,68.71,-37.72,-25.71,-113.62,3.12
36.52,68.71,-37.72,-25.71,-113.62,3.12
36.52,68.71,-37.72,-25.71,-113.62,3.12
36.54,68.87,-37.68,-25.71,-113.73,3.12
36.54,68.87,-37.68,-25.71,-113.73,3.12
36.54,68.87,-37.68,-25.71,-113.73,3.12
36.54,68.87,-37.68,-25.71,-113.73,3.12
36.55,69.02,-37.67,-25.73,-113.85,3.11
36.55,69.02,-37.67,-25.73,-113.85,3.11
36.55,69.02,-37.67,-25.73,-113.85,3.11
36.55,69.02,-37.67,-25.73,-113.85,3.11
36.56,69.17,-37.67,-25.75,-113.95,3.10
36.56,69.17,-37.67,-25.75,-113.95,3.10
36.56,69.17,-37.67,-25.75,-113.95,3.10
36.56,69.17,-37.67,-25.75,-113.95,3.10
36.55,69.05,-37.63,-25.72,-113.87,3.12
36.55,69.05,-37.63,-25.72,-113.87,3.12
36.55,69.05,-37.63,-25.72,-113.87,3.12
36.55,69.05,-37.63,-25.72,-113.87,3.12
36.58,69.16,-37.55,-25.69,-113.96,3.13
36.58,69.16,-37.55,-25.69,-113.96,3.13
36.58,69.16,-37.55,-25.69,-113.96,3.13
36.58,69.16,-37.55,-25.69,-113.96,3.13
36.62,69.28,-37.49,-25.69,-114.05,3.13
36.62,69.28,-37.49,-25.69,-114.05,3.13
36.62,69.28,-37.49,-25.69,-114.05,3.13
36.62,69.28,-37.49,-25.69,-114.05,3.13
36.68,69.42,-37.46,-25.69,-114.15,3.13
36.68,69.42,-37.46,-25.69,-114.15,3.13
36.68,69.42,-37.46,-25.69,-114.15,3.13
36.68,69.42,-37.46,-25.69,-114.15,3.13
36.73,69.56,-37.44,-25.70,-114.25,3.13
36.73,69.56,-37.44,-25.70,-114.25,3.13
36.73,69.56,-37.44,-25.70,-114.25,3.13
36.73,69.56,-37.44,-25.70,-114.25,3.13
36.79,69.70,-37.44,-25.72,-114.35,3.12
36.79,69.70,-37.44,-25.72,-114.35,3.12
36.79,69.70,-37.44,-25.72,-114.35,3.12
36.79,69.70,-37.44,-25.72,-114.35,3.12
36.73,69.58,-37.42,-25.69,-114.27,3.13
36.73,69.58,-37.42,-25.69,-114.27,3.13
36.73,69.58,-37.42,-25.69,-114.27,3.13
36.73,69.58,-37.42,-25.69,-114.27,3.13
36.75,69.67,-37.34,-25.67,-114.34,3.15
36.75,69.67,-37.34,-25.67,-114.34,3.15
36.75,69.67,-37.34,-25.67,-114.34,3.15
36.75,69.67,-37.34,-25.67,-114.34,3.15
36.78,69.79,-37.29,-25.67,-114.41,3.15
36.78,69.79,-37.29,-25.67,-114.41,3.15
36.78,69.79,-37.29,-25.67,-114.41,3.15
36.78,69.79,-37.29,-25.67,-114.41,3.15
36.81,69.91,-37.26,-25.67,-114.50,3.15
36.81,69.91,-37.26,-25.67,-114.50,3.15
36.81,69.91,-37.26,-25.67,-114.50,3.15
36.81,69.91,-37.26,-25.67,-114.50,3.15
36.86,70.04,-37.25,-25.68,-114.59,3.15
36.86,70.04,-37.25,-25.68,-114.59,3.15
36.86,70.04,-37.25,-25.68,-114.59,3.15
36.86,70.04,-37.25,-25.68,-114.59,3.15
36.86,70.04,-37.25,-25.68,-114.59,3.15
36.90,70.18,-37.25,-25.70,-114.67,3.14
36.90,70.18,-37.25,-25.70,-114.67,3.14
36.90,70.18,-37.25,-25.70,-114.67,3.14
36.90,70.19,-37.24,-25.70,-114.67,3.15
36.90,70.19,-37.24,-25.70,-114.67,3.15
36.90,70.19,-37.24,-25.70,-114.67,3.15
36.90,70.19,-37.24,-25.70,-114.67,3.15
36.91,70.26,-37.16,-25.68,-114.73,3.16
36.91,70.26,-37.16,-25.68,-114.73,3.16
36.91,70.26,-37.16,-25.68,-114.73,3.16
36.91,70.26,-37.16,-25.68,-114.73,3.16
36.93,70.36,-37.11,-25.67,-114.80,3.17
36.93,70.36,-37.11,-25.67,-114.80,3.17
36.93,70.36,-37.11,-25.67,-114.80,3.17
36.93,70.36,-37.11,-25.67,-114.80,3.17
36.96,70.47,-37.08,-25.67,-114.88,3.17
36.96,70.47,-37.08,-25.67,-114.88,3.17
36.96,70.47,-37.08,-25.67,-114.88,3.17
36.96,70.47,-37.08,-25.67,-114.88,3.17
36.96,70.47,-37.08,-25.67,-114.88,3.17
37.00,70.59,-37.07,-25.68,-114.95,3.17
37.00,70.59,-37.07,-25.68,-114.95,3.17
37.00,70.59,-37.07,-25.68,-114.95,3.17
37.03,70.71,-37.08,-25.70,-115.03,3.16
37.03,70.71,-37.08,-25.70,-115.03,3.16
37.03,70.71,-37.08,-25.70,-115.03,3.16
37.03,70.71,-37.08,-25.70,-115.03,3.16
37.03,70.71,-37.08,-25.70,-115.03,3.16
37.07,70.83,-37.10,-25.73,-115.11,3.15
37.07,70.83,-37.10,-25.73,-115.11,3.15
37.07,70.83,-37.10,-25.73,-115.11,3.15
37.07,70.83,-37.10,-25.73,-115.11,3.15
36.97,70.79,-37.13,-25.74,-115.00,3.16
36.97,70.79,-37.13,-25.74,-115.00,3.16
36.97,70.79,-37.13,-25.74,-115.00,3.16
36.97,70.79,-37.13,-25.74,-115.00,3.16
36.91,70.93,-37.23,-25.82,-114.97,3.16
36.91,70.93,-37.23,-25.82,-114.97,3.16
36.91,70.93,-37.23,-25.82,-114.97,3.16
36.91,70.93,-37.23,-25.82,-114.97,3.16
36.88,71.09,-37.35,-25.90,-114.95,3.15
36.88,71.09,-37.35,-25.90,-114.95,3.15
36.88,71.09,-37.35,-25.90,-114.95,3.15
36.88,71.09,-37.35,-25.90,-114.95,3.15
36.87,71.25,-37.47,-25.99,-114.94,3.14
36.87,71.25,-37.47,-25.99,-114.94,3.14
36.87,71.25,-37.47,-25.99,-114.94,3.14
36.87,71.25,-37.47,-25.99,-114.94,3.14
36.88,71.40,-37.61,-26.07,-114.94,3.12
36.88,71.40,-37.61,-26.07,-114.94,3.12
36.88,71.40,-37.61,-26.07,-114.94,3.12
36.88,71.40,-37.61,-26.07,-114.94,3.12
36.90,71.55,-37.74,-26.16,-114.95,3.11
36.90,71.55,-37.74,-26.16,-114.95,3.11
36.90,71.55,-37.74,-26.16,-114.95,3.11
36.90,71.55,-37.74,-26.16,-114.95,3.11
36.84,71.46,-37.63,-26.10,-114.92,3.12
36.84,71.46,-37.63,-26.10,-114.92,3.12
36.84,71.46,-37.63,-26.10,-114.92,3.12
36.84,71.46,-37.63,-26.10,-114.92,3.12
36.77,71.58,-37.72,-26.16,-114.89,3.12
36.77,71.58,-37.72,-26.16,-114.89,3.12
36.77,71.58,-37.72,-26.16,-114.89,3.12
36.77,71.58,-37.72,-26.16,-114.89,3.12
36.74,71.72,-37.82,-26.24,-114.86,3.12
36.74,71.72,-37.82,-26.24,-114.86,3.12
36.74,71.72,-37.82,-26.24,-114.86,3.12
36.74,71.72,-37.82,-26.24,-114.86,3.12
36.73,71.87,-37.94,-26.32,-114.85,3.11
36.73,71.87,-37.94,-26.32,-114.85,3.11
36.73,71.87,-37.94,-26.32,-114.85,3.11
36.73,71.87,-37.94,-26.32,-114.85,3.11
36.74,72.02,-38.06,-26.40,-114.85,3.09
36.74,72.02,-38.06,-26.40,-114.85,3.09
36.74,72.02,-38.06,-26.40,-114.85,3.09
36.74,72.02,-38.06,-26.40,-114.85,3.09
36.76,72.16,-38.17,-26.47,-114.86,3.08
36.76,72.16,-38.17,-26.47,-114.86,3.08
36.76,72.16,-38.17,-26.47,-114.86,3.08
36.76,72.16,-38.17,-26.47,-114.86,3.08
36.74,72.03,-38.06,-26.40,-114.85,3.09
36.74,72.03,-38.06,-26.40,-114.85,3.09
36.74,72.03,-38.06,-26.40,-114.85,3.09
36.74,72.03,-38.06,-26.40,-114.85,3.09
36.67,72.14,-38.13,-26.46,-114.82,3.10
36.67,72.14,-38.13,-26.46,-114.82,3.10
36.67,72.14,-38.13,-26.46,-114.82,3.10
36.67,72.14,-38.13,-26.46,-114.82,3.10
36.63,72.26,-38.23,-26.52,-114.80,3.09
36.63,72.26,-38.23,-26.52,-114.80,3.09
36.63,72.26,-38.23,-26.52,-114.80,3.09
36.63,72.26,-38.23,-26.52,-114.80,3.09
36.63,72.39,-38.33,-26.60,-114.79,3.08
36.63,72.39,-38.33,-26.60,-114.79,3.08
36.63,72.39,-38.33,-26.60,-114.79,3.08
36.63,72.39,-38.33,-26.60,-114.79,3.08
36.65,72.52,-38.45,-26.67,-114.79,3.07
36.65,72.52,-38.45,-26.67,-114.79,3.07
36.65,72.52,-38.45,-26.67,-114.79,3.07
36.65,72.52,-38.45,-26.67,-114.79,3.07
36.69,72.65,-38.56,-26.74,-114.80,3.05
36.69,72.65,-38.56,-26.74,-114.80,3.05
36.69,72.65,-38.56,-26.74,-114.80,3.05
36.69,72.65,-38.56,-26.74,-114.80,3.05
36.69,72.66,-38.56,-26.74,-114.80,3.05
36.69,72.66,-38.56,-26.74,-114.80,3.05
36.69,72.66,-38.56,-26.74,-114.80,3.05
36.69,72.66,-38.56,-26.74,-114.80,3.05
36.62,72.75,-38.63,-26.79,-114.76,3.05
36.62,72.75,-38.63,-26.79,-114.76,3.05
36.62,72.75,-38.63,-26.79,-114.76,3.05
36.62,72.75,-38.63,-26.79,-114.76,3.05
36.59,72.86,-38.71,-26.85,-114.75,3.05
36.59,72.86,-38.71,-26.85,-114.75,3.05
36.59,72.86,-38.71,-26.85,-114.75,3.05
36.59,72.86,-38.71,-26.85,-114.75,3.05
36.59,72.98,-38.81,-26.92,-114.74,3.04
36.59,72.98,-38.81,-26.92,-114.74,3.04
36.59,72.98,-38.81,-26.92,-114.74,3.04
36.59,72.98,-38.81,-26.92,-114.74,3.04
36.61,73.10,-38.92,-26.99,-114.74,3.02
36.61,73.10,-38.92,-26.99,-114.74,3.02
36.61,73.10,-38.92,-26.99,-114.74,3.02
36.61,73.10,-38.92,-26.99,-114.74,3.02
36.65,73.22,-39.03,-27.06,-114.76,3.01
36.65,73.22,-39.03,-27.06,-114.76,3.01
36.65,73.22,-39.03,-27.06,-114.76,3.01
36.65,73.22,-39.03,-27.06,-114.76,3.01
36.69,73.34,-39.14,-27.13,-114.77,2.99
36.69,73.34,-39.14,-27.13,-114.77,2.99
36.69,73.34,-39.14,-27.13,-114.77,2.99
36.69,73.34,-39.14,-27.13,-114.77,2.99
36.61,73.27,-39.06,-27.08,-114.74,3.01
36.61,73.27,-39.06,-27.08,-114.74,3.01
36.61,73.27,-39.06,-27.08,-114.74,3.01
36.61,73.27,-39.06,-27.08,-114.74,3.01
36.56,73.37,-39.13,-27.13,-114.72,3.00
36.56,73.37,-39.13,-27.13,-114.72,3.00
36.56,73.37,-39.13,-27.13,-114.72,3.00
36.56,73.37,-39.13,-27.13,-114.72,3.00
36.55,73.47,-39.22,-27.19,-114.71,3.00
36.55,73.47,-39.22,-27.19,-114.71,3.00
36.55,73.47,-39.22,-27.19,-114.71,3.00
36.55,73.47,-39.22,-27.19,-114.71,3.00
36.57,73.58,-39.32,-27.26,-114.72,2.98
36.57,73.58,-39.32,-27.26,-114.72,2.98
36.57,73.58,-39.32,-27.26,-114.72,2.98
36.57,73.58,-39.32,-27.26,-114.72,2.98
36.61,73.69,-39.42,-27.32,-114.73,2.97
36.61,73.69,-39.42,-27.32,-114.73,2.97
36.61,73.69,-39.42,-27.32,-114.73,2.97
36.61,73.69,-39.42,-27.32,-114.73,2.97
36.65,73.80,-39.53,-27.38,-114.75,2.95
36.65,73.80,-39.53,-27.38,-114.75,2.95
36.65,73.80,-39.53,-27.38,-114.75,2.95
36.65,73.80,-39.53,-27.38,-114.75,2.95
36.71,73.91,-39.64,-27.45,-114.77,2.93
36.71,73.91,-39.64,-27.45,-114.77,2.93
36.71,73.91,-39.64,-27.45,-114.77,2.93
36.71,73.91,-39.64,-27.45,-114.77,2.93
36.71,73.91,-39.64,-27.45,-114.77,2.93
36.77,74.03,-39.76,-27.52,-114.80,2.91
36.77,74.03,-39.76,-27.52,-114.80,2.91
36.77,74.03,-39.76,-27.52,-114.80,2.91
36.84,74.16,-39.89,-27.59,-114.84,2.88
36.84,74.16,-39.89,-27.59,-114.84,2.88
36.84,74.16,-39.89,-27.59,-114.84,2.88
36.84,74.16,-39.89,-27.59,-114.84,2.88
36.90,74.28,-40.02,-27.67,-114.87,2.86
36.90,74.28,-40.02,-27.67,-114.87,2.86
36.90,74.28,-40.02,-27.67,-114.87,2.86
36.90,74.28,-40.02,-27.67,-114.87,2.86
36.96,74.40,-40.14,-27.74,-114.91,2.83
36.96,74.40,-40.14,-27.74,-114.91,2.83
36.96,74.40,-40.14,-27.74,-114.91,2.83
36.96,74.40,-40.14,-27.74,-114.91,2.83
37.01,74.51,-40.26,-27.81,-114.95,2.81
37.01,74.51,-40.26,-27.81,-114.95,2.81
37.01,74.51,-40.26,-27.81,-114.95,2.81
37.01,74.51,-40.26,-27.81,-114.95,2.81
36.96,74.41,-40.15,-27.74,-114.92,2.83
36.96,74.41,-40.15,-27.74,-114.92,2.83
36.96,74.41,-40.15,-27.74,-114.92,2.83
36.96,74.41,-40.15,-27.74,-114.92,2.83
36.96,74.41,-40.15,-27.74,-114.92,2.83
36.94,74.53,-40.29,-27.82,-114.98,2.80
36.94,74.53,-40.29,-27.82,-114.98,2.80
36.94,74.53,-40.29,-27.82,-114.98,2.80
36.94,74.53,-40.29,-27.82,-114.98,2.80
36.94,74.66,-40.43,-27.89,-115.05,2.76
36.94,74.66,-40.43,-27.89,-115.05,2.76
36.94,74.66,-40.43,-27.89,-115.05,2.76
36.94,74.66,-40.43,-27.89,-115.05,2.76
36.96,74.80,-40.59,-27.98,-115.12,2.72
36.96,74.80,-40.59,-27.98,-115.12,2.72
36.96,74.80,-40.59,-27.98,-115.12,2.72
36.96,74.80,-40.59,-27.98,-115.12,2.72
36.99,74.93,-40.74,-28.06,-115.20,2.68
36.99,74.93,-40.74,-28.06,-115.20,2.68
36.99,74.93,-40.74,-28.06,-115.20,2.68
36.99,74.93,-40.74,-28.06,-115.20,2.68
37.03,75.05,-40.89,-28.13,-115.28,2.64
37.03,75.05,-40.89,-28.13,-115.28,2.64
37.03,75.05,-40.89,-28.13,-115.28,2.64
37.03,75.05,-40.89,-28.13,-115.28,2.64
37.04,75.09,-40.93,-28.15,-115.30,2.63
37.04,75.09,-40.93,-28.15,-115.30,2.63
37.04,75.09,-40.93,-28.15,-115.30,2.63
37.04,75.09,-40.93,-28.15,-115.30,2.63
37.01,75.16,-41.00,-28.19,-115.34,2.61
37.01,75.16,-41.00,-28.19,-115.34,2.61
37.01,75.16,-41.00,-28.19,-115.34,2.61
37.01,75.16,-41.00,-28.19,-115.34,2.61
37.01,75.28,-41.14,-28.27,-115.41,2.58
37.01,75.28,-41.14,-28.27,-115.41,2.58
37.01,75.28,-41.14,-28.27,-115.41,2.58
37.01,75.28,-41.14,-28.27,-115.41,2.58
37.03,75.40,-41.29,-28.34,-115.49,2.54
37.03,75.40,-41.29,-28.34,-115.49,2.54
37.03,75.40,-41.29,-28.34,-115.49,2.54
37.03,75.40,-41.29,-28.34,-115.49,2.54
37.06,75.53,-41.44,-28.42,-115.57,2.50
37.06,75.53,-41.44,-28.42,-115.57,2.50
37.06,75.53,-41.44,-28.42,-115.57,2.50
37.06,75.53,-41.44,-28.42,-115.57,2.50
37.09,75.65,-41.58,-28.49,-115.65,2.46
37.09,75.65,-41.58,-28.49,-115.65,2.46
37.09,75.65,-41.58,-28.49,-115.65,2.46
37.09,75.65,-41.58,-28.49,-115.65,2.46
37.12,75.76,-41.71,-28.56,-115.72,2.42
37.12,75.76,-41.71,-28.56,-115.72,2.42
37.12,75.76,-41.71,-28.56,-115.72,2.42
37.12,75.76,-41.71,-28.56,-115.72,2.42
37.08,75.73,-41.67,-28.54,-115.70,2.43
37.08,75.73,-41.67,-28.54,-115.70,2.43
37.08,75.73,-41.67,-28.54,-115.70,2.43
37.08,75.73,-41.67,-28.54,-115.70,2.43
37.09,75.84,-41.81,-28.61,-115.78,2.39
37.09,75.84,-41.81,-28.61,-115.78,2.39
37.09,75.84,-41.81,-28.61,-115.78,2.39
37.09,75.84,-41.81,-28.61,-115.78,2.39
37.10,75.96,-41.95,-28.68,-115.86,2.35
37.10,75.96,-41.95,-28.68,-115.86,2.35
37.10,75.96,-41.95,-28.68,-115.86,2.35
37.10,75.96,-41.95,-28.68,-115.86,2.35
37.13,76.08,-42.09,-28.75,-115.94,2.31
37.13,76.08,-42.09,-28.75,-115.94,2.31
37.13,76.08,-42.09,-28.75,-115.94,2.31
37.13,76.08,-42.09,-28.75,-115.94,2.31
37.16,76.20,-42.23,-28.82,-116.03,2.28
37.16,76.20,-42.23,-28.82,-116.03,2.28
37.16,76.20,-42.23,-28.82,-116.03,2.28
37.16,76.20,-42.23,-28.82,-116.03,2.28
37.19,76.30,-42.36,-28.89,-116.11,2.24
37.19,76.30,-42.36,-28.89,-116.11,2.24
37.19,76.30,-42.36,-28.89,-116.11,2.24
37.19,76.30,-42.36,-28.89,-116.11,2.24
37.15,76.24,-42.28,-28.85,-116.06,2.26
37.15,76.24,-42.28,-28.85,-116.06,2.26
37.15,76.24,-42.28,-28.85,-116.06,2.26
37.15,76.24,-42.28,-28.85,-116.06,2.26
37.14,76.35,-42.40,-28.91,-116.13,2.23
37.14,76.35,-42.40,-28.91,-116.13,2.23
37.14,76.35,-42.40,-28.91,-116.13,2.23
37.14,76.35,-42.40,-28.91,-116.13,2.23
37.13,76.46,-42.53,-28.98,-116.21,2.19
37.13,76.46,-42.53,-28.98,-116.21,2.19
37.13,76.46,-42.53,-28.98,-116.21,2.19
37.13,76.46,-42.53,-28.98,-116.21,2.19
37.12,76.57,-42.67,-29.05,-116.29,2.15
37.12,76.57,-42.67,-29.05,-116.29,2.15
37.12,76.57,-42.67,-29.05,-116.29,2.15
37.12,76.57,-42.67,-29.05,-116.29,2.15
37.11,76.68,-42.80,-29.11,-116.37,2.11
37.11,76.68,-42.80,-29.11,-116.37,2.11
37.11,76.68,-42.80,-29.11,-116.37,2.11
37.11,76.68,-42.80,-29.11,-116.37,2.11
37.10,76.78,-42.92,-29.17,-116.45,2.08
37.10,76.78,-42.92,-29.17,-116.45,2.08
37.10,76.78,-42.92,-29.17,-116.45,2.08
37.10,76.78,-42.92,-29.17,-116.45,2.08
37.11,76.70,-42.82,-29.12,-116.38,2.11
37.11,76.70,-42.82,-29.12,-116.38,2.11
37.11,76.70,-42.82,-29.12,-116.38,2.11
37.11,76.70,-42.82,-29.12,-116.38,2.11
37.11,76.79,-42.93,-29.18,-116.46,2.07
37.11,76.79,-42.93,-29.18,-116.46,2.07
37.11,76.79,-42.93,-29.18,-116.46,2.07
37.11,76.79,-42.93,-29.18,-116.46,2.07
37.13,76.89,-43.06,-29.24,-116.53,2.04
37.13,76.89,-43.06,-29.24,-116.53,2.04
37.13,76.89,-43.06,-29.24,-116.53,2.04
37.13,76.89,-43.06,-29.24,-116.53,2.04
37.15,77.00,-43.18,-29.31,-116.61,2.00
37.15,77.00,-43.18,-29.31,-116.61,2.00
37.15,77.00,-43.18,-29.31,-116.61,2.00
37.15,77.00,-43.18,-29.31,-116.61,2.00
37.18,77.10,-43.31,-29.37,-116.69,1.96
37.18,77.10,-43.31,-29.37,-116.69,1.96
37.18,77.10,-43.31,-29.37,-116.69,1.96
37.18,77.10,-43.31,-29.37,-116.69,1.96
37.21,77.20,-43.43,-29.43,-116.77,1.93
37.21,77.20,-43.43,-29.43,-116.77,1.93
37.21,77.20,-43.43,-29.43,-116.77,1.93
37.21,77.20,-43.43,-29.43,-116.77,1.93
37.21,77.20,-43.43,-29.43,-116.77,1.93
37.21,77.20,-43.43,-29.43,-116.77,1.93
37.21,77.20,-43.43,-29.43,-116.77,1.93
37.21,77.20,-43.43,-29.43,-116.77,1.93
37.21,77.29,-43.54,-29.48,-116.84,1.90
37.21,77.29,-43.54,-29.48,-116.84,1.90
37.21,77.29,-43.54,-29.48,-116.84,1.90
37.21,77.29,-43.54,-29.48,-116.84,1.90
37.22,77.38,-43.65,-29.54,-116.92,1.86
37.22,77.38,-43.65,-29.54,-116.92,1.86
37.22,77.38,-43.65,-29.54,-116.92,1.86
37.22,77.38,-43.65,-29.54,-116.92,1.86
37.24,77.48,-43.77,-29.60,-116.99,1.83
37.24,77.48,-43.77,-29.60,-116.99,1.83
37.24,77.48,-43.77,-29.60,-116.99,1.83
37.24,77.48,-43.77,-29.60,-116.99,1.83
37.27,77.57,-43.89,-29.66,-117.07,1.79
37.27,77.57,-43.89,-29.66,-117.07,1.79
37.27,77.57,-43.89,-29.66,-117.07,1.79
37.27,77.57,-43.89,-29.66,-117.07,1.79
37.29,77.66,-44.00,-29.71,-117.14,1.76
37.29,77.66,-44.00,-29.71,-117.14,1.76
37.29,77.66,-44.00,-29.71,-117.14,1.76
37.29,77.66,-44.00,-29.71,-117.14,1.76
37.32,77.75,-44.11,-29.76,-117.22,1.73
37.32,77.75,-44.11,-29.76,-117.22,1.73
37.32,77.75,-44.11,-29.76,-117.22,1.73
37.32,77.75,-44.11,-29.76,-117.22,1.73
37.29,77.72,-44.06,-29.74,-117.19,1.74
37.29,77.72,-44.06,-29.74,-117.19,1.74
37.29,77.72,-44.06,-29.74,-117.19,1.74
37.29,77.72,-44.06,-29.74,-117.19,1.74
37.61,79.64,-46.47,-30.92,-118.85,1.00
37.61,79.64,-46.47,-30.92,-118.85,1.00
37.61,79.64,-46.47,-30.92,-118.85,1.00
37.61,79.64,-46.47,-30.92,-118.85,1.00
37.61,79.64,-46.47,-30.92,-118.85,1.00
37.61,79.64,-46.47,-30.92,-118.85,1.00
37.61,79.64,-46.47,-30.92,-118.85,1.00
37.61,79.64,-46.47,-30.92,-118.85,1.00
37.61,79.64,-46.47,-30.92,-118.85,1.00
37.61,79.64,-46.47,-30.92,-118.85,1.00
37.61,79.64,-46.47,-30.92,-118.85,1.00
37.52,79.64,-46.46,-30.93,-118.75,1.00
37.52,79.64,-46.46,-30.93,-118.75,1.00
37.52,79.64,-46.46,-30.93,-118.75,1.00
37.52,79.64,-46.46,-30.93,-118.75,1.00
37.12,79.60,-46.43,-30.96,-118.32,0.99
37.12,79.60,-46.43,-30.96,-118.32,0.99
37.12,79.60,-46.43,-30.96,-118.32,0.99
37.12,79.60,-46.43,-30.96,-118.32,0.99
36.55,79.52,-46.39,-30.99,-117.67,0.98
36.55,79.52,-46.39,-30.99,-117.67,0.98
36.55,79.52,-46.39,-30.99,-117.67,0.98
36.55,79.52,-46.39,-30.99,-117.67,0.98
35.94,79.44,-46.35,-31.03,-116.97,0.97
35.94,79.44,-46.35,-31.03,-116.97,0.97
35.94,79.44,-46.35,-31.03,-116.97,0.97
35.94,79.44,-46.35,-31.03,-116.97,0.97
35.42,79.36,-46.32,-31.05,-116.37,0.97
35.42,79.36,-46.32,-31.05,-116.37,0.97
35.42,79.36,-46.32,-31.05,-116.37,0.97
35.42,79.36,-46.32,-31.05,-116.37,0.97
35.12,79.32,-46.30,-31.07,-116.03,0.96
35.12,79.32,-46.30,-31.07,-116.03,0.96
35.12,79.32,-46.30,-31.07,-116.03,0.96
35.12,79.32,-46.30,-31.07,-116.03,0.96
35.29,79.37,-46.30,-31.07,-116.27,0.96
35.29,79.37,-46.30,-31.07,-116.27,0.96
35.29,79.37,-46.30,-31.07,-116.27,0.96
35.29,79.37,-46.30,-31.07,-116.27,0.96
34.82,79.32,-46.26,-31.13,-115.79,0.95
34.82,79.32,-46.26,-31.13,-115.79,0.95
34.82,79.32,-46.26,-31.13,-115.79,0.95
34.82,79.32,-46.26,-31.13,-115.79,0.95
34.18,79.21,-46.20,-31.18,-115.09,0.93
34.18,79.21,-46.20,-31.18,-115.09,0.93
34.18,79.21,-46.20,-31.18,-115.09,0.93
34.18,79.21,-46.20,-31.18,-115.09,0.93
33.51,79.09,-46.15,-31.24,-114.35,0.92
33.51,79.09,-46.15,-31.24,-114.35,0.92
33.51,79.09,-46.15,-31.24,-114.35,0.92
33.51,79.09,-46.15,-31.24,-114.35,0.92
32.95,78.98,-46.11,-31.28,-113.71,0.91
32.95,78.98,-46.11,-31.28,-113.71,0.91
32.95,78.98,-46.11,-31.28,-113.71,0.91
32.95,78.98,-46.11,-31.28,-113.71,0.91
32.61,78.92,-46.08,-31.31,-113.33,0.90
32.61,78.92,-46.08,-31.31,-113.33,0.90
32.61,78.92,-46.08,-31.31,-113.33,0.90
32.61,78.92,-46.08,-31.31,-113.33,0.90
32.88,78.99,-46.10,-31.30,-113.66,0.90
32.88,78.99,-46.10,-31.30,-113.66,0.90
32.88,78.99,-46.10,-31.30,-113.66,0.90
32.88,78.99,-46.10,-31.30,-113.66,0.90
32.44,78.95,-46.05,-31.35,-113.25,0.89
32.44,78.95,-46.05,-31.35,-113.25,0.89
32.44,78.95,-46.05,-31.35,-113.25,0.89
32.44,78.95,-46.05,-31.35,-113.25,0.89
31.82,78.84,-46.00,-31.41,-112.60,0.87
31.82,78.84,-46.00,-31.41,-112.60,0.87
31.82,78.84,-46.00,-31.41,-112.60,0.87
31.82,78.84,-46.00,-31.41,-112.60,0.87
31.15,78.70,-45.95,-31.48,-111.87,0.85
31.15,78.70,-45.95,-31.48,-111.87,0.85
31.15,78.70,-45.95,-31.48,-111.87,0.85
31.15,78.70,-45.95,-31.48,-111.87,0.85
30.56,78.57,-45.90,-31.53,-111.22,0.84
30.56,78.57,-45.90,-31.53,-111.22,0.84
30.56,78.57,-45.90,-31.53,-111.22,0.84
30.56,78.57,-45.90,-31.53,-111.22,0.84
30.18,78.48,-45.88,-31.56,-110.79,0.83
30.18,78.48,-45.88,-31.56,-110.79,0.83
30.18,78.48,-45.88,-31.56,-110.79,0.83
30.18,78.48,-45.88,-31.56,-110.79,0.83
30.17,78.49,-45.88,-31.56,-110.79,0.83
30.17,78.49,-45.88,-31.56,-110.79,0.83
30.17,78.49,-45.88,-31.56,-110.79,0.83
30.17,78.49,-45.88,-31.56,-110.79,0.83
29.75,78.49,-45.82,-31.62,-110.46,0.81
29.75,78.49,-45.82,-31.62,-110.46,0.81
29.75,78.49,-45.82,-31.62,-110.46,0.81
29.75,78.49,-45.82,-31.62,-110.46,0.81
29.09,78.44,-45.77,-31.69,-109.86,0.79
29.09,78.44,-45.77,-31.69,-109.86,0.79
29.09,78.44,-45.77,-31.69,-109.86,0.79
29.09,78.44,-45.77,-31.69,-109.86,0.79
28.33,78.35,-45.71,-31.76,-109.15,0.76
28.33,78.35,-45.71,-31.76,-109.15,0.76
28.33,78.35,-45.71,-31.76,-109.15,0.76
28.33,78.35,-45.71,-31.76,-109.15,0.76
27.63,78.25,-45.66,-31.82,-108.48,0.74
27.63,78.25,-45.66,-31.82,-108.48,0.74
27.63,78.25,-45.66,-31.82,-108.48,0.74
27.63,78.25,-45.66,-31.82,-108.48,0.74
27.13,78.18,-45.62,-31.86,-107.99,0.73
27.13,78.18,-45.62,-31.86,-107.99,0.73
27.13,78.18,-45.62,-31.86,-107.99,0.73
27.13,78.18,-45.62,-31.86,-107.99,0.73
26.78,78.13,-45.60,-31.88,-107.65,0.72
26.78,78.13,-45.60,-31.88,-107.65,0.72
26.78,78.13,-45.60,-31.88,-107.65,0.72
26.78,78.13,-45.60,-31.88,-107.65,0.72
26.91,78.21,-45.59,-31.89,-107.84,0.71
26.91,78.21,-45.59,-31.89,-107.84,0.71
26.91,78.21,-45.59,-31.89,-107.84,0.71
26.91,78.21,-45.59,-31.89,-107.84,0.71
26.34,78.18,-45.53,-31.95,-107.36,0.69
26.34,78.18,-45.53,-31.95,-107.36,0.69
26.34,78.18,-45.53,-31.95,-107.36,0.69
26.34,78.18,-45.53,-31.95,-107.36,0.69
25.63,78.12,-45.45,-32.02,-106.71,0.66
25.63,78.12,-45.45,-32.02,-106.71,0.66
25.63,78.12,-45.45,-32.02,-106.71,0.66
25.63,78.12,-45.45,-32.02,-106.71,0.66
24.91,78.04,-45.39,-32.08,-106.03,0.64
24.91,78.04,-45.39,-32.08,-106.03,0.64
24.91,78.04,-45.39,-32.08,-106.03,0.64
24.91,78.04,-45.39,-32.08,-106.03,0.64
24.32,77.97,-45.33,-32.13,-105.47,0.62
24.32,77.97,-45.33,-32.13,-105.47,0.62
24.32,77.97,-45.33,-32.13,-105.47,0.62
24.32,77.97,-45.33,-32.13,-105.47,0.62
24.32,77.97,-45.33,-32.13,-105.47,0.62
24.32,77.97,-45.33,-32.13,-105.47,0.62
23.99,77.93,-45.30,-32.15,-105.16,0.61
23.99,77.93,-45.30,-32.15,-105.16,0.61
23.50,77.86,-45.26,-32.18,-104.68,0.59
23.50,77.86,-45.26,-32.18,-104.68,0.59
23.50,77.86,-45.26,-32.18,-104.68,0.59
23.50,77.86,-45.26,-32.18,-104.68,0.59
22.80,77.76,-45.20,-32.23,-104.00,0.57
22.80,77.76,-45.20,-32.23,-104.00,0.57
22.80,77.76,-45.20,-32.23,-104.00,0.57
22.80,77.76,-45.20,-32.23,-104.00,0.57
22.05,77.65,-45.14,-32.27,-103.25,0.55
22.05,77.65,-45.14,-32.27,-103.25,0.55
22.05,77.65,-45.14,-32.27,-103.25,0.55
22.05,77.65,-45.14,-32.27,-103.25,0.55
22.05,77.65,-45.14,-32.27,-103.25,0.55
21.39,77.55,-45.09,-32.32,-102.60,0.54
21.39,77.55,-45.09,-32.32,-102.60,0.54
21.39,77.55,-45.09,-32.32,-102.60,0.54
21.39,77.55,-45.09,-32.32,-102.60,0.54
20.96,77.50,-45.05,-32.34,-102.18,0.52
20.96,77.50,-45.05,-32.34,-102.18,0.52
20.96,77.50,-45.05,-32.34,-102.18,0.52
20.96,77.50,-45.05,-32.34,-102.18,0.52
20.56,77.45,-45.02,-32.37,-101.79,0.51
20.56,77.45,-45.02,-32.37,-101.79,0.51
20.56,77.45,-45.02,-32.37,-101.79,0.51
20.56,77.45,-45.02,-32.37,-101.79,0.51
20.94,77.51,-45.05,-32.35,-102.18,0.52
20.94,77.51,-45.05,-32.35,-102.18,0.52
20.94,77.51,-45.05,-32.35,-102.18,0.52
20.94,77.51,-45.05,-32.35,-102.18,0.52
20.94,77.51,-45.05,-32.35,-102.18,0.52
20.66,77.39,-45.06,-32.40,-101.89,0.49
20.66,77.39,-45.06,-32.40,-101.89,0.49
20.66,77.39,-45.06,-32.40,-101.89,0.49
20.32,77.06,-45.14,-32.46,-101.37,0.45
20.32,77.06,-45.14,-32.46,-101.37,0.45
20.32,77.06,-45.14,-32.46,-101.37,0.45
20.32,77.06,-45.14,-32.46,-101.37,0.45
19.96,76.61,-45.24,-32.52,-100.75,0.42
19.96,76.61,-45.24,-32.52,-100.75,0.42
19.96,76.61,-45.24,-32.52,-100.75,0.42
19.96,76.61,-45.24,-32.52,-100.75,0.42
19.64,76.18,-45.35,-32.57,-100.18,0.39
19.64,76.18,-45.35,-32.57,-100.18,0.39
19.64,76.18,-45.35,-32.57,-100.18,0.39
19.64,76.18,-45.35,-32.57,-100.18,0.39
19.42,75.88,-45.42,-32.60,-99.77,0.36
19.42,75.88,-45.42,-32.60,-99.77,0.36
19.42,75.88,-45.42,-32.60,-99.77,0.36
19.42,75.88,-45.42,-32.60,-99.77,0.36
19.29,75.74,-45.45,-32.62,-99.55,0.35
19.29,75.74,-45.45,-32.62,-99.55,0.35
19.29,75.74,-45.45,-32.62,-99.55,0.35
19.29,75.74,-45.45,-32.62,-99.55,0.35
19.22,75.83,-45.42,-32.64,-99.61,0.34
19.22,75.83,-45.42,-32.64,-99.61,0.34
19.22,75.83,-45.42,-32.64,-99.61,0.34
19.22,75.83,-45.42,-32.64,-99.61,0.34
18.90,75.47,-45.51,-32.69,-99.19,0.30
18.90,75.47,-45.51,-32.69,-99.19,0.30
18.90,75.47,-45.51,-32.69,-99.19,0.30
18.90,75.47,-45.51,-32.69,-99.19,0.30
18.55,74.93,-45.66,-32.75,-98.63,0.27
18.55,74.93,-45.66,-32.75,-98.63,0.27
18.55,74.93,-45.66,-32.75,-98.63,0.27
18.55,74.93,-45.66,-32.75,-98.63,0.27
18.22,74.36,-45.82,-32.80,-98.07,0.24
18.22,74.36,-45.82,-32.80,-98.07,0.24
18.22,74.36,-45.82,-32.80,-98.07,0.24
18.22,74.36,-45.82,-32.80,-98.07,0.24
17.97,73.91,-45.95,-32.83,-97.63,0.21
17.97,73.91,-45.95,-32.83,-97.63,0.21
17.97,73.91,-45.95,-32.83,-97.63,0.21
17.97,73.91,-45.95,-32.83,-97.63,0.21
17.81,73.67,-46.01,-32.85,-97.37,0.20
17.81,73.67,-46.01,-32.85,-97.37,0.20
17.81,73.67,-46.01,-32.85,-97.37,0.20
17.81,73.67,-46.01,-32.85,-97.37,0.20
17.83,73.99,-45.90,-32.85,-97.56,0.20
17.83,73.99,-45.90,-32.85,-97.56,0.20
17.83,73.99,-45.90,-32.85,-97.56,0.20
17.83,73.99,-45.90,-32.85,-97.56,0.20
17.29,74.27,-45.68,-32.89,-97.22,0.16
17.29,74.27,-45.68,-32.89,-97.22,0.16
17.29,74.27,-45.68,-32.89,-97.22,0.16
17.29,74.27,-45.68,-32.89,-97.22,0.16
16.57,74.63,-45.36,-32.92,-96.72,0.12
16.57,74.63,-45.36,-32.92,-96.72,0.12
16.57,74.63,-45.36,-32.92,-96.72,0.12
16.57,74.63,-45.36,-32.92,-96.72,0.12
15.82,75.00,-45.01,-32.95,-96.18,0.09
15.82,75.00,-45.01,-32.95,-96.18,0.09
15.82,75.00,-45.01,-32.95,-96.18,0.09
15.82,75.00,-45.01,-32.95,-96.18,0.09
15.20,75.30,-44.72,-32.97,-95.71,0.06
15.20,75.30,-44.72,-32.97,-95.71,0.06
15.20,75.30,-44.72,-32.97,-95.71,0.06
15.20,75.30,-44.72,-32.97,-95.71,0.06
14.84,75.46,-44.56,-32.98,-95.43,0.05
14.84,75.46,-44.56,-32.98,-95.43,0.05
14.84,75.46,-44.56,-32.98,-95.43,0.05
14.84,75.46,-44.56,-32.98,-95.43,0.05
15.09,75.29,-44.73,-32.98,-95.64,0.05
15.09,75.29,-44.73,-32.98,-95.64,0.05
15.09,75.29,-44.73,-32.98,-95.64,0.05
15.09,75.29,-44.73,-32.98,-95.64,0.05
14.82,74.90,-44.88,-33.02,-95.32,0.01
14.82,74.90,-44.88,-33.02,-95.32,0.01
14.82,74.90,-44.88,-33.02,-95.32,0.01
14.82,74.90,-44.88,-33.02,-95.32,0.01
14.53,74.21,-45.15,-33.06,-94.83,-0.03
14.53,74.21,-45.15,-33.06,-94.83,-0.03
14.53,74.21,-45.15,-33.06,-94.83,-0.03
14.53,74.21,-45.15,-33.06,-94.83,-0.03
14.25,73.43,-45.45,-33.10,-94.30,-0.07
14.25,73.43,-45.45,-33.10,-94.30,-0.07
14.25,73.43,-45.45,-33.10,-94.30,-0.07
14.25,73.43,-45.45,-33.10,-94.30,-0.07
14.01,72.75,-45.71,-33.12,-93.85,-0.10
14.01,72.75,-45.71,-33.12,-93.85,-0.10
14.01,72.75,-45.71,-33.12,-93.85,-0.10
14.01,72.75,-45.71,-33.12,-93.85,-0.10
13.87,72.37,-45.85,-33.14,-93.59,-0.11
13.87,72.37,-45.85,-33.14,-93.59,-0.11
13.87,72.37,-45.85,-33.14,-93.59,-0.11
13.87,72.37,-45.85,-33.14,-93.59,-0.11
14.01,72.73,-45.71,-33.12,-93.84,-0.10
14.01,72.73,-45.71,-33.12,-93.84,-0.10
14.01,72.73,-45.71,-33.12,-93.84,-0.10
14.01,72.73,-45.71,-33.12,-93.84,-0.10
13.74,72.67,-45.74,-33.16,-93.66,-0.13
13.74,72.67,-45.74,-33.16,-93.66,-0.13
13.74,72.67,-45.74,-33.16,-93.66,-0.13
13.74,72.67,-45.74,-33.16,-93.66,-0.13
13.37,72.24,-45.89,-33.20,-93.26,-0.17
13.37,72.24,-45.89,-33.20,-93.26,-0.17
13.37,72.24,-45.89,-33.20,-93.26,-0.17
13.37,72.24,-45.89,-33.20,-93.26,-0.17
12.96,71.63,-46.09,-33.23,-92.76,-0.21
12.96,71.63,-46.09,-33.23,-92.76,-0.21
12.96,71.63,-46.09,-33.23,-92.76,-0.21
12.96,71.63,-46.09,-33.23,-92.76,-0.21
12.59,71.01,-46.30,-33.26,-92.27,-0.24
12.59,71.01,-46.30,-33.26,-92.27,-0.24
12.59,71.01,-46.30,-33.26,-92.27,-0.24
12.59,71.01,-46.30,-33.26,-92.27,-0.24
12.32,70.56,-46.46,-33.28,-91.91,-0.26
12.32,70.56,-46.46,-33.28,-91.91,-0.26
12.32,70.56,-46.46,-33.28,-91.91,-0.26
12.32,70.56,-46.46,-33.28,-91.91,-0.26
12.32,70.56,-46.46,-33.28,-91.91,-0.26
12.13,70.31,-46.54,-33.29,-91.68,-0.27
12.13,70.31,-46.54,-33.29,-91.68,-0.27
12.13,70.31,-46.54,-33.29,-91.68,-0.27
11.79,69.89,-46.68,-33.30,-91.24,-0.29
11.79,69.89,-46.68,-33.30,-91.24,-0.29
11.79,69.89,-46.68,-33.30,-91.24,-0.29
11.79,69.89,-46.68,-33.30,-91.24,-0.29
11.36,69.36,-46.86,-33.32,-90.69,-0.32
11.36,69.36,-46.86,-33.32,-90.69,-0.32
11.36,69.36,-46.86,-33.32,-90.69,-0.32
11.36,69.36,-46.86,-33.32,-90.69,-0.32
10.92,68.84,-47.03,-33.34,-90.14,-0.34
10.92,68.84,-47.03,-33.34,-90.14,-0.34
10.92,68.84,-47.03,-33.34,-90.14,-0.34
10.92,68.84,-47.03,-33.34,-90.14,-0.34
10.56,68.44,-47.16,-33.36,-89.69,-0.36
10.56,68.44,-47.16,-33.36,-89.69,-0.36
10.56,68.44,-47.16,-33.36,-89.69,-0.36
10.56,68.44,-47.16,-33.36,-89.69,-0.36
10.34,68.25,-47.22,-33.37,-89.43,-0.37
10.34,68.25,-47.22,-33.37,-89.43,-0.37
10.34,68.25,-47.22,-33.37,-89.43,-0.37
10.34,68.25,-47.22,-33.37,-89.43,-0.37
10.34,68.25,-47.22,-33.37,-89.43,-0.37
9.99,68.03,-47.29,-33.38,-89.05,-0.39
9.99,68.03,-47.29,-33.38,-89.05,-0.39
9.99,68.03,-47.29,-33.38,-89.05,-0.39
9.99,68.03,-47.29,-33.38,-89.05,-0.39
10.18,68.29,-47.21,-33.38,-89.36,-0.39
10.18,68.29,-47.21,-33.38,-89.36,-0.39
10.18,68.29,-47.21,-33.38,-89.36,-0.39
10.18,68.29,-47.21,-33.38,-89.36,-0.39
9.74,68.02,-47.30,-33.40,-89.05,-0.42
9.74,68.02,-47.30,-33.40,-89.05,-0.42
9.74,68.02,-47.30,-33.40,-89.05,-0.42
9.74,68.02,-47.30,-33.40,-89.05,-0.42
9.18,67.45,-47.47,-33.42,-88.59,-0.45
9.18,67.45,-47.47,-33.42,-88.59,-0.45
9.18,67.45,-47.47,-33.42,-88.59,-0.45
9.18,67.45,-47.47,-33.42,-88.59,-0.45
8.59,66.76,-47.69,-33.43,-88.09,-0.48
8.59,66.76,-47.69,-33.43,-88.09,-0.48
8.59,66.76,-47.69,-33.43,-88.09,-0.48
8.59,66.76,-47.69,-33.43,-88.09,-0.48
8.07,66.12,-47.90,-33.44,-87.62,-0.50
8.07,66.12,-47.90,-33.44,-87.62,-0.50
8.07,66.12,-47.90,-33.44,-87.62,-0.50
8.07,66.12,-47.90,-33.44,-87.62,-0.50
8.07,66.12,-47.90,-33.44,-87.62,-0.50
7.70,65.70,-48.03,-33.45,-87.28,-0.52
7.70,65.70,-48.03,-33.45,-87.28,-0.52
7.70,65.70,-48.03,-33.45,-87.28,-0.52
7.23,65.24,-48.18,-33.45,-86.86,-0.53
7.23,65.24,-48.18,-33.45,-86.86,-0.53
7.23,65.24,-48.18,-33.45,-86.86,-0.53
7.23,65.24,-48.18,-33.45,-86.86,-0.53
6.59,64.64,-48.36,-33.45,-86.30,-0.55
6.59,64.64,-48.36,-33.45,-86.30,-0.55
6.59,64.64,-48.36,-33.45,-86.30,-0.55
6.59,64.64,-48.36,-33.45,-86.30,-0.55
5.89,64.02,-48.55,-33.45,-85.69,-0.57
5.89,64.02,-48.55,-33.45,-85.69,-0.57
5.89,64.02,-48.55,-33.45,-85.69,-0.57
5.89,64.02,-48.55,-33.45,-85.69,-0.57
5.24,63.47,-48.71,-33.46,-85.13,-0.58
5.24,63.47,-48.71,-33.46,-85.13,-0.58
5.24,63.47,-48.71,-33.46,-85.13,-0.58
5.24,63.47,-48.71,-33.46,-85.13,-0.58
4.75,63.11,-48.82,-33.46,-84.70,-0.60
4.75,63.11,-48.82,-33.46,-84.70,-0.60
4.75,63.11,-48.82,-33.46,-84.70,-0.60
4.75,63.11,-48.82,-33.46,-84.70,-0.60
4.30,62.87,-48.89,-33.46,-84.33,-0.61
4.30,62.87,-48.89,-33.46,-84.33,-0.61
4.30,62.87,-48.89,-33.46,-84.33,-0.61
4.30,62.87,-48.89,-33.46,-84.33,-0.61
3.64,62.56,-48.98,-33.46,-83.79,-0.62
3.64,62.56,-48.98,-33.46,-83.79,-0.62
3.64,62.56,-48.98,-33.46,-83.79,-0.62
3.64,62.56,-48.98,-33.46,-83.79,-0.62
2.88,62.21,-49.07,-33.46,-83.17,-0.64
2.88,62.21,-49.07,-33.46,-83.17,-0.64
2.88,62.21,-49.07,-33.46,-83.17,-0.64
2.88,62.21,-49.07,-33.46,-83.17,-0.64
2.13,61.90,-49.15,-33.46,-82.57,-0.65
2.13,61.90,-49.15,-33.46,-82.57,-0.65
2.13,61.90,-49.15,-33.46,-82.57,-0.65
2.13,61.90,-49.15,-33.46,-82.57,-0.65
2.13,61.90,-49.15,-33.46,-82.57,-0.65
1.51,61.69,-49.20,-33.46,-82.07,-0.67
1.51,61.69,-49.20,-33.46,-82.07,-0.67
1.51,61.69,-49.20,-33.46,-82.07,-0.67
1.06,61.60,-49.23,-33.46,-81.71,-0.68
1.06,61.60,-49.23,-33.46,-81.71,-0.68
1.06,61.60,-49.23,-33.46,-81.71,-0.68
1.06,61.60,-49.23,-33.46,-81.71,-0.68
0.41,61.49,-49.24,-33.46,-81.20,-0.69
0.41,61.49,-49.24,-33.46,-81.20,-0.69
0.41,61.49,-49.24,-33.46,-81.20,-0.69
0.41,61.49,-49.24,-33.46,-81.20,-0.69
-0.39,61.37,-49.26,-33.46,-80.58,-0.71
-0.39,61.37,-49.26,-33.46,-80.58,-0.71
-0.39,61.37,-49.26,-33.46,-80.58,-0.71
-0.39,61.37,-49.26,-33.46,-80.58,-0.71
-1.22,61.27,-49.27,-33.46,-79.95,-0.72
-1.22,61.27,-49.27,-33.46,-79.95,-0.72
-1.22,61.27,-49.27,-33.46,-79.95,-0.72
-1.22,61.27,-49.27,-33.46,-79.95,-0.72
-1.95,61.20,-49.26,-33.46,-79.39,-0.74
-1.95,61.20,-49.26,-33.46,-79.39,-0.74
-1.95,61.20,-49.26,-33.46,-79.39,-0.74
-1.95,61.20,-49.26,-33.46,-79.39,-0.74
-2.46,61.21,-49.25,-33.46,-78.99,-0.75
-2.46,61.21,-49.25,-33.46,-78.99,-0.75
-2.46,61.21,-49.25,-33.46,-78.99,-0.75
-2.46,61.21,-49.25,-33.46,-78.99,-0.75
-3.08,61.25,-49.22,-33.46,-78.52,-0.76
-3.08,61.25,-49.22,-33.46,-78.52,-0.76
-3.08,61.25,-49.22,-33.46,-78.52,-0.76
-3.08,61.25,-49.22,-33.46,-78.52,-0.76
-3.90,61.30,-49.17,-33.47,-77.91,-0.77
-3.90,61.30,-49.17,-33.47,-77.91,-0.77
-3.90,61.30,-49.17,-33.47,-77.91,-0.77
-3.90,61.30,-49.17,-33.47,-77.91,-0.77
-4.03,61.31,-49.16,-33.47,-77.81,-0.77
-4.03,61.31,-49.16,-33.47,-77.81,-0.77
-4.03,61.31,-49.16,-33.47,-77.81,-0.77
-4.03,61.31,-49.16,-33.47,-77.81,-0.77
-4.03,61.31,-49.16,-33.47,-77.81,-0.77
-4.03,61.31,-49.16,-33.47,-77.81,-0.77
-4.03,61.31,-49.16,-33.47,-77.81,-0.77
-4.03,61.31,-49.16,-33.47,-77.81,-0.77
-4.03,61.31,-49.16,-33.47,-77.81,-0.77
-4.03,61.31,-49.16,-33.47,-77.81,-0.77
-4.03,61.31,-49.16,-33.47,-77.81,-0.77
-4.03,61.31,-49.16,-33.47,-77.81,-0.77
-4.03,61.31,-49.16,-33.47,-77.81,-0.77
-4.03,61.31,-49.16,-33.47,-77.81,-0.77
-4.03,61.31,-49.16,-33.47,-77.81,-0.77
-4.03,61.31,-49.16,-33.47,-77.81,-0.77
-4.03,61.31,-49.16,-33.47,-77.81,-0.77
-4.03,61.31,-49.16,-33.47,-77.81,-0.77
-4.03,61.31,-49.16,-33.47,-77.81,-0.77
-4.03,61.31,-49.16,-33.47,-77.81,-0.77
-4.08,61.23,-49.18,-33.45,-77.77,-0.78
-4.08,61.23,-49.18,-33.45,-77.77,-0.78
-4.08,61.23,-49.18,-33.45,-77.77,-0.78
-4.08,61.23,-49.18,-33.45,-77.77,-0.78
-4.31,60.85,-49.30,-33.43,-77.57,-0.79
-4.31,60.85,-49.30,-33.43,-77.57,-0.79
-4.31,60.85,-49.30,-33.43,-77.57,-0.79
-4.31,60.85,-49.30,-33.43,-77.57,-0.79
-4.65,60.29,-49.47,-33.40,-77.27,-0.80
-4.65,60.29,-49.47,-33.40,-77.27,-0.80
-4.65,60.29,-49.47,-33.40,-77.27,-0.80
-4.65,60.29,-49.47,-33.40,-77.27,-0.80
-5.03,59.68,-49.65,-33.38,-76.93,-0.81
-5.03,59.68,-49.65,-33.38,-76.93,-0.81
-5.03,59.68,-49.65,-33.38,-76.93,-0.81
-5.03,59.68,-49.65,-33.38,-76.93,-0.81
-5.38,59.16,-49.82,-33.36,-76.62,-0.81
-5.38,59.16,-49.82,-33.36,-76.62,-0.81
-5.38,59.16,-49.82,-33.36,-76.62,-0.81
-5.38,59.16,-49.82,-33.36,-76.62,-0.81
-5.63,58.82,-49.92,-33.35,-76.40,-0.82
-5.63,58.82,-49.92,-33.35,-76.40,-0.82
-5.63,58.82,-49.92,-33.35,-76.40,-0.82
-5.63,58.82,-49.92,-33.35,-76.40,-0.82
-5.40,59.17,-49.81,-33.35,-76.60,-0.82
-5.40,59.17,-49.81,-33.35,-76.60,-0.82
-5.40,59.17,-49.81,-33.35,-76.60,-0.82
-5.40,59.17,-49.81,-33.35,-76.60,-0.82
-5.59,59.13,-49.77,-33.30,-76.45,-0.86
-5.59,59.13,-49.77,-33.30,-76.45,-0.86
-5.59,59.13,-49.77,-33.30,-76.45,-0.86
-5.59,59.13,-49.77,-33.30,-76.45,-0.86
-5.89,58.97,-49.74,-33.24,-76.23,-0.89
-5.89,58.97,-49.74,-33.24,-76.23,-0.89
-5.89,58.97,-49.74,-33.24,-76.23,-0.89
-5.89,58.97,-49.74,-33.24,-76.23,-0.89
-6.25,58.75,-49.72,-33.20,-75.96,-0.91
-6.25,58.75,-49.72,-33.20,-75.96,-0.91
-6.25,58.75,-49.72,-33.20,-75.96,-0.91
-6.25,58.75,-49.72,-33.20,-75.96,-0.91
-6.67,58.50,-49.71,-33.15,-75.65,-0.94
-6.67,58.50,-49.71,-33.15,-75.65,-0.94
-6.67,58.50,-49.71,-33.15,-75.65,-0.94
-6.67,58.50,-49.71,-33.15,-75.65,-0.94
-7.10,58.27,-49.69,-33.11,-75.32,-0.96
-7.10,58.27,-49.69,-33.11,-75.32,-0.96
-7.10,58.27,-49.69,-33.11,-75.32,-0.96
-7.10,58.27,-49.69,-33.11,-75.32,-0.96
-7.10,58.27,-49.69,-33.11,-75.32,-0.96
-7.14,58.29,-49.68,-33.10,-75.29,-0.96
-7.14,58.29,-49.68,-33.10,-75.29,-0.96
-7.14,58.29,-49.68,-33.10,-75.29,-0.96
-7.14,58.29,-49.68,-33.10,-75.29,-0.96
-7.44,58.18,-49.72,-33.04,-75.02,-1.00
-7.44,58.18,-49.72,-33.04,-75.02,-1.00
-7.44,58.18,-49.72,-33.04,-75.02,-1.00
-7.44,58.18,-49.72,-33.04,-75.02,-1.00
-7.90,57.87,-49.85,-32.96,-74.61,-1.03
-7.90,57.87,-49.85,-32.96,-74.61,-1.03
-7.90,57.87,-49.85,-32.96,-74.61,-1.03
-7.90,57.87,-49.85,-32.96,-74.61,-1.03
-8.41,57.48,-50.02,-32.89,-74.17,-1.06
-8.41,57.48,-50.02,-32.89,-74.17,-1.06
-8.41,57.48,-50.02,-32.89,-74.17,-1.06
-8.41,57.48,-50.02,-32.89,-74.17,-1.06
-8.87,57.11,-50.19,-32.83,-73.77,-1.08
-8.87,57.11,-50.19,-32.83,-73.77,-1.08
-8.87,57.11,-50.19,-32.83,-73.77,-1.08
-8.87,57.11,-50.19,-32.83,-73.77,-1.08
-9.17,56.88,-50.29,-32.79,-73.51,-1.09
-9.17,56.88,-50.29,-32.79,-73.51,-1.09
-9.17,56.88,-50.29,-32.79,-73.51,-1.09
-9.17,56.88,-50.29,-32.79,-73.51,-1.09
-9.40,56.75,-50.35,-32.76,-73.30,-1.10
-9.40,56.75,-50.35,-32.76,-73.30,-1.10
-9.40,56.75,-50.35,-32.76,-73.30,-1.10
-9.40,56.75,-50.35,-32.76,-73.30,-1.10
-9.31,56.91,-50.27,-32.75,-73.37,-1.11
-9.31,56.91,-50.27,-32.75,-73.37,-1.11
-9.31,56.91,-50.27,-32.75,-73.37,-1.11
-9.31,56.91,-50.27,-32.75,-73.37,-1.11
-9.67,56.80,-50.30,-32.70,-73.05,-1.14
-9.67,56.80,-50.30,-32.70,-73.05,-1.14
-9.67,56.80,-50.30,-32.70,-73.05,-1.14
-9.67,56.80,-50.30,-32.70,-73.05,-1.14
-10.12,56.58,-50.39,-32.64,-72.65,-1.17
-10.12,56.58,-50.39,-32.64,-72.65,-1.17
-10.12,56.58,-50.39,-32.64,-72.65,-1.17
-10.12,56.58,-50.39,-32.64,-72.65,-1.17
-10.56,56.32,-50.50,-32.59,-72.24,-1.19
-10.56,56.32,-50.50,-32.59,-72.24,-1.19
-10.56,56.32,-50.50,-32.59,-72.24,-1.19
-10.56,56.32,-50.50,-32.59,-72.24,-1.19
-10.92,56.12,-50.59,-32.55,-71.93,-1.20
-10.92,56.12,-50.59,-32.55,-71.93,-1.20
-10.92,56.12,-50.59,-32.55,-71.93,-1.20
-10.92,56.12,-50.59,-32.55,-71.93,-1.20
-11.12,56.03,-50.63,-32.53,-71.74,-1.21
-11.12,56.03,-50.63,-32.53,-71.74,-1.21
-11.12,56.03,-50.63,-32.53,-71.74,-1.21
-11.12,56.03,-50.63,-32.53,-71.74,-1.21
-10.97,56.18,-50.55,-32.53,-71.88,-1.21
-10.97,56.18,-50.55,-32.53,-71.88,-1.21
-10.97,56.18,-50.55,-32.53,-71.88,-1.21
-10.97,56.18,-50.55,-32.53,-71.88,-1.21
-11.14,56.33,-50.46,-32.50,-71.71,-1.24
-11.14,56.33,-50.46,-32.50,-71.71,-1.24
-11.14,56.33,-50.46,-32.50,-71.71,-1.24
-11.14,56.33,-50.46,-32.50,-71.71,-1.24
-11.38,56.48,-50.35,-32.46,-71.48,-1.25
-11.38,56.48,-50.35,-32.46,-71.48,-1.25
-11.38,56.48,-50.35,-32.46,-71.48,-1.25
-11.38,56.48,-50.35,-32.46,-71.48,-1.25
-11.67,56.63,-50.24,-32.43,-71.21,-1.27
-11.67,56.63,-50.24,-32.43,-71.21,-1.27
-11.67,56.63,-50.24,-32.43,-71.21,-1.27
-11.67,56.63,-50.24,-32.43,-71.21,-1.27
-11.98,56.76,-50.12,-32.41,-70.92,-1.28
-11.98,56.76,-50.12,-32.41,-70.92,-1.28
-11.98,56.76,-50.12,-32.41,-70.92,-1.28
-11.98,56.76,-50.12,-32.41,-70.92,-1.28
-12.30,56.89,-50.01,-32.39,-70.62,-1.29
-12.30,56.89,-50.01,-32.39,-70.62,-1.29
-12.30,56.89,-50.01,-32.39,-70.62,-1.29
-12.30,56.89,-50.01,-32.39,-70.62,-1.29
-12.03,56.80,-50.11,-32.39,-70.86,-1.29
-12.03,56.80,-50.11,-32.39,-70.86,-1.29
-12.03,56.80,-50.11,-32.39,-70.86,-1.29
-12.03,56.80,-50.11,-32.39,-70.86,-1.29
-12.28,56.70,-50.15,-32.36,-70.62,-1.31
-12.28,56.70,-50.15,-32.36,-70.62,-1.31
-12.28,56.70,-50.15,-32.36,-70.62,-1.31
-12.28,56.70,-50.15,-32.36,-70.62,-1.31
-12.62,56.43,-50.27,-32.32,-70.28,-1.33
-12.62,56.43,-50.27,-32.32,-70.28,-1.33
-12.62,56.43,-50.27,-32.32,-70.28,-1.33
-12.62,56.43,-50.27,-32.32,-70.28,-1.33
-12.99,56.10,-50.43,-32.29,-69.92,-1.35
-12.99,56.10,-50.43,-32.29,-69.92,-1.35
-12.99,56.10,-50.43,-32.29,-69.92,-1.35
-12.99,56.10,-50.43,-32.29,-69.92,-1.35
-13.31,55.81,-50.57,-32.26,-69.61,-1.36
-13.31,55.81,-50.57,-32.26,-69.61,-1.36
-13.31,55.81,-50.57,-32.26,-69.61,-1.36
-13.31,55.81,-50.57,-32.26,-69.61,-1.36
-13.50,55.65,-50.65,-32.25,-69.42,-1.37
-13.50,55.65,-50.65,-32.25,-69.42,-1.37
-13.50,55.65,-50.65,-32.25,-69.42,-1.37
-13.50,55.65,-50.65,-32.25,-69.42,-1.37
-13.56,55.61,-50.67,-32.24,-69.36,-1.37
-13.56,55.61,-50.67,-32.24,-69.36,-1.37
-13.56,55.61,-50.67,-32.24,-69.36,-1.37
-13.56,55.61,-50.67,-32.24,-69.36,-1.37
-13.59,55.80,-50.57,-32.22,-69.33,-1.38
-13.59,55.80,-50.57,-32.22,-69.33,-1.38
-13.59,55.80,-50.57,-32.22,-69.33,-1.38
-13.59,55.80,-50.57,-32.22,-69.33,-1.38
-13.77,55.95,-50.46,-32.19,-69.17,-1.40
-13.77,55.95,-50.46,-32.19,-69.17,-1.40
-13.77,55.95,-50.46,-32.19,-69.17,-1.40
-13.77,55.95,-50.46,-32.19,-69.17,-1.40
-14.00,56.11,-50.35,-32.17,-68.96,-1.41
-14.00,56.11,-50.35,-32.17,-68.96,-1.41
-14.00,56.11,-50.35,-32.17,-68.96,-1.41
-14.00,56.11,-50.35,-32.17,-68.96,-1.41
-14.28,56.26,-50.23,-32.15,-68.71,-1.42
-14.28,56.26,-50.23,-32.15,-68.71,-1.42
-14.28,56.26,-50.23,-32.15,-68.71,-1.42
-14.28,56.26,-50.23,-32.15,-68.71,-1.42
-14.57,56.40,-50.12,-32.13,-68.45,-1.43
-14.57,56.40,-50.12,-32.13,-68.45,-1.43
-14.57,56.40,-50.12,-32.13,-68.45,-1.43
-14.57,56.40,-50.12,-32.13,-68.45,-1.43
-14.85,56.53,-50.01,-32.12,-68.20,-1.43
-14.85,56.53,-50.01,-32.12,-68.20,-1.43
-14.85,56.53,-50.01,-32.12,-68.20,-1.43
-14.85,56.53,-50.01,-32.12,-68.20,-1.43
-14.64,56.42,-50.11,-32.12,-68.37,-1.44
-14.64,56.42,-50.11,-32.12,-68.37,-1.44
-14.64,56.42,-50.11,-32.12,-68.37,-1.44
-14.64,56.42,-50.11,-32.12,-68.37,-1.44
-14.84,56.18,-50.21,-32.15,-68.14,-1.46
-14.84,56.18,-50.21,-32.15,-68.14,-1.46
-14.84,56.18,-50.21,-32.15,-68.14,-1.46
-14.84,56.18,-50.21,-32.15,-68.14,-1.46
-15.10,55.78,-50.39,-32.20,-67.85,-1.47
-15.10,55.78,-50.39,-32.20,-67.85,-1.47
-15.10,55.78,-50.39,-32.20,-67.85,-1.47
-15.10,55.78,-50.39,-32.20,-67.85,-1.47
-15.36,55.34,-50.59,-32.25,-67.56,-1.48
-15.36,55.34,-50.59,-32.25,-67.56,-1.48
-15.36,55.34,-50.59,-32.25,-67.56,-1.48
-15.36,55.34,-50.59,-32.25,-67.56,-1.48
-15.57,54.99,-50.76,-32.30,-67.32,-1.48
-15.57,54.99,-50.76,-32.30,-67.32,-1.48
-15.57,54.99,-50.76,-32.30,-67.32,-1.48
-15.57,54.99,-50.76,-32.30,-67.32,-1.48
-15.68,54.82,-50.83,-32.32,-67.18,-1.49
-15.68,54.82,-50.83,-32.32,-67.18,-1.49
-15.68,54.82,-50.83,-32.32,-67.18,-1.49
-15.68,54.82,-50.83,-32.32,-67.18,-1.49
-15.60,55.04,-50.73,-32.29,-67.28,-1.49
-15.60,55.04,-50.73,-32.29,-67.28,-1.49
-15.60,55.04,-50.73,-32.29,-67.28,-1.49
-15.60,55.04,-50.73,-32.29,-67.28,-1.49
-15.74,54.98,-50.75,-32.29,-67.11,-1.51
-15.74,54.98,-50.75,-32.29,-67.11,-1.51
-15.74,54.98,-50.75,-32.29,-67.11,-1.51
-15.74,54.98,-50.75,-32.29,-67.11,-1.51
-15.94,54.76,-50.85,-32.32,-66.86,-1.52
-15.94,54.76,-50.85,-32.32,-66.86,-1.52
-15.94,54.76,-50.85,-32.32,-66.86,-1.52
-15.94,54.76,-50.85,-32.32,-66.86,-1.52
-16.15,54.48,-50.97,-32.36,-66.58,-1.53
-16.15,54.48,-50.97,-32.36,-66.58,-1.53
-16.15,54.48,-50.97,-32.36,-66.58,-1.53
-16.15,54.48,-50.97,-32.36,-66.58,-1.53
-16.33,54.23,-51.09,-32.40,-66.34,-1.53
-16.33,54.23,-51.09,-32.40,-66.34,-1.53
-16.33,54.23,-51.09,-32.40,-66.34,-1.53
-16.33,54.23,-51.09,-32.40,-66.34,-1.53
-16.44,54.10,-51.14,-32.42,-66.20,-1.53
-16.44,54.10,-51.14,-32.42,-66.20,-1.53
-16.44,54.10,-51.14,-32.42,-66.20,-1.53
-16.44,54.10,-51.14,-32.42,-66.20,-1.53
-16.34,54.24,-51.09,-32.40,-66.34,-1.53
-16.34,54.24,-51.09,-32.40,-66.34,-1.53
-16.34,54.24,-51.09,-32.40,-66.34,-1.53
-16.34,54.24,-51.09,-32.40,-66.34,-1.53
-16.45,54.32,-51.06,-32.38,-66.23,-1.54
-16.45,54.32,-51.06,-32.38,-66.23,-1.54
-16.45,54.32,-51.06,-32.38,-66.23,-1.54
-16.45,54.32,-51.06,-32.38,-66.23,-1.54
-16.67,54.23,-51.16,-32.40,-66.01,-1.55
-16.67,54.23,-51.16,-32.40,-66.01,-1.55
-16.67,54.23,-51.16,-32.40,-66.01,-1.55
-16.67,54.23,-51.16,-32.40,-66.01,-1.55
-16.95,54.05,-51.31,-32.43,-65.73,-1.55
-16.95,54.05,-51.31,-32.43,-65.73,-1.55
-16.95,54.05,-51.31,-32.43,-65.73,-1.55
-16.95,54.05,-51.31,-32.43,-65.73,-1.55
-17.23,53.84,-51.48,-32.46,-65.45,-1.56
-17.23,53.84,-51.48,-32.46,-65.45,-1.56
-17.23,53.84,-51.48,-32.46,-65.45,-1.56
-17.23,53.84,-51.48,-32.46,-65.45,-1.56
-17.46,53.68,-51.62,-32.49,-65.22,-1.56
-17.46,53.68,-51.62,-32.49,-65.22,-1.56
-17.46,53.68,-51.62,-32.49,-65.22,-1.56
-17.46,53.68,-51.62,-32.49,-65.22,-1.56
-17.47,53.69,-51.61,-32.48,-65.22,-1.56
-17.47,53.69,-51.61,-32.48,-65.22,-1.56
-17.47,53.69,-51.61,-32.48,-65.22,-1.56
-17.47,53.69,-51.61,-32.48,-65.22,-1.56
-17.54,53.72,-51.60,-32.52,-65.11,-1.57
-17.54,53.72,-51.60,-32.52,-65.11,-1.57
-17.54,53.72,-51.60,-32.52,-65.11,-1.57
-17.54,53.72,-51.60,-32.52,-65.11,-1.57
-17.66,53.49,-51.72,-32.63,-64.93,-1.58
-17.66,53.49,-51.72,-32.63,-64.93,-1.58
-17.66,53.49,-51.72,-32.63,-64.93,-1.58
-17.66,53.49,-51.72,-32.63,-64.93,-1.58
-17.80,53.13,-51.91,-32.79,-64.70,-1.58
-17.80,53.13,-51.91,-32.79,-64.70,-1.58
-17.80,53.13,-51.91,-32.79,-64.70,-1.58
-17.80,53.13,-51.91,-32.79,-64.70,-1.58
-17.94,52.77,-52.09,-32.95,-64.49,-1.58
-17.94,52.77,-52.09,-32.95,-64.49,-1.58
-17.94,52.77,-52.09,-32.95,-64.49,-1.58
-17.94,52.77,-52.09,-32.95,-64.49,-1.58
-17.94,52.77,-52.09,-32.95,-64.49,-1.58
-18.03,52.52,-52.22,-33.05,-64.34,-1.58
-18.03,52.52,-52.22,-33.05,-64.34,-1.58
-18.03,52.52,-52.22,-33.05,-64.34,-1.58
-18.03,52.52,-52.22,-33.05,-64.34,-1.58
-18.11,52.40,-52.29,-33.11,-64.22,-1.58
-18.11,52.40,-52.29,-33.11,-64.22,-1.58
-18.11,52.40,-52.29,-33.11,-64.22,-1.58
-18.11,52.40,-52.29,-33.11,-64.22,-1.58
-18.07,52.61,-52.18,-33.05,-64.30,-1.59
-18.07,52.61,-52.18,-33.05,-64.30,-1.59
-18.07,52.61,-52.18,-33.05,-64.30,-1.59
-18.07,52.61,-52.18,-33.05,-64.30,-1.59
-18.17,52.56,-52.20,-33.11,-64.15,-1.60
-18.17,52.56,-52.20,-33.11,-64.15,-1.60
-18.17,52.56,-52.20,-33.11,-64.15,-1.60
-18.17,52.56,-52.20,-33.11,-64.15,-1.60
-18.29,52.36,-52.30,-33.23,-63.95,-1.60
-18.29,52.36,-52.30,-33.23,-63.95,-1.60
-18.29,52.36,-52.30,-33.23,-63.95,-1.60
-18.29,52.36,-52.30,-33.23,-63.95,-1.60
-18.43,52.10,-52.43,-33.36,-63.74,-1.60
-18.43,52.10,-52.43,-33.36,-63.74,-1.60
-18.43,52.10,-52.43,-33.36,-63.74,-1.60
-18.43,52.10,-52.43,-33.36,-63.74,-1.60
-18.53,51.87,-52.54,-33.48,-63.57,-1.60
-18.53,51.87,-52.54,-33.48,-63.57,-1.60
-18.53,51.87,-52.54,-33.48,-63.57,-1.60
-18.53,51.87,-52.54,-33.48,-63.57,-1.60
-18.60,51.77,-52.59,-33.54,-63.47,-1.60
-18.60,51.77,-52.59,-33.54,-63.47,-1.60
-18.60,51.77,-52.59,-33.54,-63.47,-1.60
-18.60,51.77,-52.59,-33.54,-63.47,-1.60
-18.55,51.98,-52.48,-33.46,-63.55,-1.61
-18.55,51.98,-52.48,-33.46,-63.55,-1.61
-18.55,51.98,-52.48,-33.46,-63.55,-1.61
-18.55,51.98,-52.48,-33.46,-63.55,-1.61
-18.65,52.27,-52.34,-33.41,-63.48,-1.61
-18.65,52.27,-52.34,-33.41,-63.48,-1.61
-18.65,52.27,-52.34,-33.41,-63.48,-1.61
-18.65,52.27,-52.34,-33.41,-63.48,-1.61
-18.79,52.59,-52.18,-33.36,-63.35,-1.62
-18.79,52.59,-52.18,-33.36,-63.35,-1.62
-18.79,52.59,-52.18,-33.36,-63.35,-1.62
-18.79,52.59,-52.18,-33.36,-63.35,-1.62
-18.97,52.92,-52.02,-33.32,-63.19,-1.62
-18.97,52.92,-52.02,-33.32,-63.19,-1.62
-18.97,52.92,-52.02,-33.32,-63.19,-1.62
-18.97,52.92,-52.02,-33.32,-63.19,-1.62
-19.18,53.24,-51.86,-33.28,-63.00,-1.62
-19.18,53.24,-51.86,-33.28,-63.00,-1.62
-19.18,53.24,-51.86,-33.28,-63.00,-1.62
-19.18,53.24,-51.86,-33.28,-63.00,-1.62
-19.39,53.56,-51.71,-33.24,-62.80,-1.62
-19.39,53.56,-51.71,-33.24,-62.80,-1.62
-19.39,53.56,-51.71,-33.24,-62.80,-1.62
-19.39,53.56,-51.71,-33.24,-62.80,-1.62
-19.18,53.26,-51.85,-33.27,-63.00,-1.62
-19.18,53.26,-51.85,-33.27,-63.00,-1.62
-19.18,53.26,-51.85,-33.27,-63.00,-1.62
-19.18,53.26,-51.85,-33.27,-63.00,-1.62
-19.31,53.22,-51.88,-33.31,-62.92,-1.63
-19.31,53.22,-51.88,-33.31,-62.92,-1.63
-19.31,53.22,-51.88,-33.31,-62.92,-1.63
-19.31,53.22,-51.88,-33.31,-62.92,-1.63
-19.54,52.83,-52.10,-33.45,-62.78,-1.63
-19.54,52.83,-52.10,-33.45,-62.78,-1.63
-19.54,52.83,-52.10,-33.45,-62.78,-1.63
-19.54,52.83,-52.10,-33.45,-62.78,-1.63
-19.83,52.26,-52.42,-33.65,-62.61,-1.62
-19.83,52.26,-52.42,-33.65,-62.61,-1.62
-19.83,52.26,-52.42,-33.65,-62.61,-1.62
-19.83,52.26,-52.42,-33.65,-62.61,-1.62
-20.10,51.67,-52.75,-33.85,-62.43,-1.62
-20.10,51.67,-52.75,-33.85,-62.43,-1.62
-20.10,51.67,-52.75,-33.85,-62.43,-1.62
-20.10,51.67,-52.75,-33.85,-62.43,-1.62
-20.32,51.23,-53.00,-34.00,-62.28,-1.61
-20.32,51.23,-53.00,-34.00,-62.28,-1.61
-20.32,51.23,-53.00,-34.00,-62.28,-1.61
-20.32,51.23,-53.00,-34.00,-62.28,-1.61
-20.49,50.96,-53.16,-34.10,-62.14,-1.61
-20.49,50.96,-53.16,-34.10,-62.14,-1.61
-20.49,50.96,-53.16,-34.10,-62.14,-1.61
-20.49,50.96,-53.16,-34.10,-62.14,-1.61
-20.78,50.56,-53.39,-34.25,-61.94,-1.60
-20.78,50.56,-53.39,-34.25,-61.94,-1.60
-20.78,50.56,-53.39,-34.25,-61.94,-1.60
-20.78,50.56,-53.39,-34.25,-61.94,-1.60
-21.13,50.11,-53.66,-34.42,-61.71,-1.59
-21.13,50.11,-53.66,-34.42,-61.71,-1.59
-21.13,50.11,-53.66,-34.42,-61.71,-1.59
-21.13,50.11,-53.66,-34.42,-61.71,-1.59
-21.49,49.69,-53.90,-34.58,-61.47,-1.58
-21.49,49.69,-53.90,-34.58,-61.47,-1.58
-21.49,49.69,-53.90,-34.58,-61.47,-1.58
-21.49,49.69,-53.90,-34.58,-61.47,-1.58
-21.78,49.39,-54.08,-34.71,-61.27,-1.57
-21.78,49.39,-54.08,-34.71,-61.27,-1.57
-21.78,49.39,-54.08,-34.71,-61.27,-1.57
-21.78,49.39,-54.08,-34.71,-61.27,-1.57
-21.97,49.26,-54.17,-34.77,-61.12,-1.56
-21.97,49.26,-54.17,-34.77,-61.12,-1.56
-21.97,49.26,-54.17,-34.77,-61.12,-1.56
-21.97,49.26,-54.17,-34.77,-61.12,-1.56
-22.26,49.13,-54.26,-34.84,-60.91,-1.56
-22.26,49.13,-54.26,-34.84,-60.91,-1.56
-22.26,49.13,-54.26,-34.84,-60.91,-1.56
-22.26,49.13,-54.26,-34.84,-60.91,-1.56
-22.64,48.97,-54.37,-34.93,-60.66,-1.55
-22.64,48.97,-54.37,-34.93,-60.66,-1.55
-22.64,48.97,-54.37,-34.93,-60.66,-1.55
-22.64,48.97,-54.37,-34.93,-60.66,-1.55
-23.04,48.83,-54.47,-35.02,-60.40,-1.53
-23.04,48.83,-54.47,-35.02,-60.40,-1.53
-23.04,48.83,-54.47,-35.02,-60.40,-1.53
-23.04,48.83,-54.47,-35.02,-60.40,-1.53
-23.40,48.73,-54.55,-35.09,-60.16,-1.52
-23.40,48.73,-54.55,-35.09,-60.16,-1.52
-23.40,48.73,-54.55,-35.09,-60.16,-1.52
-23.40,48.73,-54.55,-35.09,-60.16,-1.52
-23.64,48.71,-54.57,-35.12,-59.98,-1.52
-23.64,48.71,-54.57,-35.12,-59.98,-1.52
-23.64,48.71,-54.57,-35.12,-59.98,-1.52
-23.64,48.71,-54.57,-35.12,-59.98,-1.52
-23.92,48.75,-54.58,-35.14,-59.78,-1.51
-23.92,48.75,-54.58,-35.14,-59.78,-1.51
-23.92,48.75,-54.58,-35.14,-59.78,-1.51
-23.92,48.75,-54.58,-35.14,-59.78,-1.51
-23.92,48.75,-54.58,-35.14,-59.78,-1.51
-24.31,48.79,-54.60,-35.17,-59.52,-1.50
-24.31,48.79,-54.60,-35.17,-59.52,-1.50
-24.31,48.79,-54.60,-35.17,-59.52,-1.50
-24.31,48.79,-54.60,-35.17,-59.52,-1.50
-24.76,48.83,-54.61,-35.20,-59.23,-1.49
-24.76,48.83,-54.61,-35.20,-59.23,-1.49
-24.76,48.83,-54.61,-35.20,-59.23,-1.49
-24.76,48.83,-54.61,-35.20,-59.23,-1.49
-25.18,48.90,-54.61,-35.22,-58.95,-1.47
-25.18,48.90,-54.61,-35.22,-58.95,-1.47
-25.18,48.90,-54.61,-35.22,-58.95,-1.47
-25.18,48.90,-54.61,-35.22,-58.95,-1.47
-25.50,48.98,-54.60,-35.23,-58.73,-1.47
-25.50,48.98,-54.60,-35.23,-58.73,-1.47
-25.50,48.98,-54.60,-35.23,-58.73,-1.47
-25.50,48.98,-54.60,-35.23,-58.73,-1.47
-25.76,49.11,-54.56,-35.21,-58.54,-1.46
-25.76,49.11,-54.56,-35.21,-58.54,-1.46
-25.76,49.11,-54.56,-35.21,-58.54,-1.46
-25.76,49.11,-54.56,-35.21,-58.54,-1.46
-26.16,49.32,-54.49,-35.20,-58.28,-1.45
-26.16,49.32,-54.49,-35.20,-58.28,-1.45
-26.16,49.32,-54.49,-35.20,-58.28,-1.45
-26.16,49.32,-54.49,-35.20,-58.28,-1.45
-26.44,49.46,-54.44,-35.18,-58.09,-1.44
-26.44,49.46,-54.44,-35.18,-58.09,-1.44
-26.44,49.46,-54.44,-35.18,-58.09,-1.44
-26.44,49.46,-54.44,-35.18,-58.09,-1.44
-26.16,49.41,-54.44,-35.18,-58.27,-1.45
-26.16,49.41,-54.44,-35.18,-58.27,-1.45
-26.16,49.41,-54.44,-35.18,-58.27,-1.45
-26.16,49.41,-54.44,-35.18,-58.27,-1.45
-26.21,49.77,-54.25,-35.10,-58.20,-1.45
-26.21,49.77,-54.25,-35.10,-58.20,-1.45
-26.21,49.77,-54.25,-35.10,-58.20,-1.45
-26.21,49.77,-54.25,-35.10,-58.20,-1.45
-26.29,50.16,-54.04,-35.03,-58.09,-1.45
-26.29,50.16,-54.04,-35.03,-58.09,-1.45
-26.29,50.16,-54.04,-35.03,-58.09,-1.45
-26.29,50.16,-54.04,-35.03,-58.09,-1.45
-26.41,50.55,-53.83,-34.95,-57.95,-1.45
-26.41,50.55,-53.83,-34.95,-57.95,-1.45
-26.41,50.55,-53.83,-34.95,-57.95,-1.45
-26.41,50.55,-53.83,-34.95,-57.95,-1.45
-26.55,50.93,-53.62,-34.89,-57.79,-1.44
-26.55,50.93,-53.62,-34.89,-57.79,-1.44
-26.55,50.93,-53.62,-34.89,-57.79,-1.44
-26.55,50.93,-53.62,-34.89,-57.79,-1.44
-26.71,51.30,-53.42,-34.82,-57.63,-1.44
-26.71,51.30,-53.42,-34.82,-57.63,-1.44
-26.71,51.30,-53.42,-34.82,-57.63,-1.44
-26.71,51.30,-53.42,-34.82,-57.63,-1.44
-26.73,51.33,-53.40,-34.82,-57.60,-1.44
-26.73,51.33,-53.40,-34.82,-57.60,-1.44
-26.73,51.33,-53.40,-34.82,-57.60,-1.44
-26.73,51.33,-53.40,-34.82,-57.60,-1.44
-26.77,51.57,-53.27,-34.76,-57.56,-1.44
-26.77,51.57,-53.27,-34.76,-57.56,-1.44
-26.77,51.57,-53.27,-34.76,-57.56,-1.44
-26.77,51.57,-53.27,-34.76,-57.56,-1.44
-26.93,51.84,-53.11,-34.68,-57.40,-1.44
-26.93,51.84,-53.11,-34.68,-57.40,-1.44
-26.93,51.84,-53.11,-34.68,-57.40,-1.44
-26.93,51.84,-53.11,-34.68,-57.40,-1.44
-27.13,52.07,-52.97,-34.61,-57.21,-1.43
-27.13,52.07,-52.97,-34.61,-57.21,-1.43
-27.13,52.07,-52.97,-34.61,-57.21,-1.43
-27.13,52.07,-52.97,-34.61,-57.21,-1.43
-27.34,52.25,-52.85,-34.55,-57.03,-1.43
-27.34,52.25,-52.85,-34.55,-57.03,-1.43
-27.34,52.25,-52.85,-34.55,-57.03,-1.43
-27.34,52.25,-52.85,-34.55,-57.03,-1.43
-27.49,52.38,-52.77,-34.51,-56.89,-1.42
-27.49,52.38,-52.77,-34.51,-56.89,-1.42
-27.49,52.38,-52.77,-34.51,-56.89,-1.42
-27.49,52.38,-52.77,-34.51,-56.89,-1.42
-27.59,52.45,-52.72,-34.49,-56.80,-1.42
-27.59,52.45,-52.72,-34.49,-56.80,-1.42
-27.59,52.45,-52.72,-34.49,-56.80,-1.42
-27.59,52.45,-52.72,-34.49,-56.80,-1.42
-27.53,52.54,-52.68,-34.48,-56.85,-1.42
-27.53,52.54,-52.68,-34.48,-56.85,-1.42
-27.53,52.54,-52.68,-34.48,-56.85,-1.42
-27.53,52.54,-52.68,-34.48,-56.85,-1.42
-27.73,52.73,-52.57,-34.42,-56.73,-1.42
-27.73,52.73,-52.57,-34.42,-56.73,-1.42
-27.73,52.73,-52.57,-34.42,-56.73,-1.42
-27.73,52.73,-52.57,-34.42,-56.73,-1.42
-28.02,52.84,-52.49,-34.38,-56.56,-1.41
-28.02,52.84,-52.49,-34.38,-56.56,-1.41
-28.02,52.84,-52.49,-34.38,-56.56,-1.41
-28.02,52.84,-52.49,-34.38,-56.56,-1.41
-28.34,52.91,-52.42,-34.34,-56.38,-1.40
-28.34,52.91,-52.42,-34.34,-56.38,-1.40
-28.34,52.91,-52.42,-34.34,-56.38,-1.40
-28.34,52.91,-52.42,-34.34,-56.38,-1.40
-28.63,52.95,-52.38,-34.30,-56.22,-1.39
-28.63,52.95,-52.38,-34.30,-56.22,-1.39
-28.63,52.95,-52.38,-34.30,-56.22,-1.39
-28.63,52.95,-52.38,-34.30,-56.22,-1.39
-28.83,52.98,-52.34,-34.28,-56.10,-1.39
-28.83,52.98,-52.34,-34.28,-56.10,-1.39
-28.83,52.98,-52.34,-34.28,-56.10,-1.39
-28.83,52.98,-52.34,-34.28,-56.10,-1.39
-28.65,53.15,-52.28,-34.27,-56.18,-1.39
-28.65,53.15,-52.28,-34.27,-56.18,-1.39
-28.65,53.15,-52.28,-34.27,-56.18,-1.39
-28.65,53.15,-52.28,-34.27,-56.18,-1.39
-28.74,53.62,-52.04,-34.20,-56.04,-1.39
-28.74,53.62,-52.04,-34.20,-56.04,-1.39
-28.74,53.62,-52.04,-34.20,-56.04,-1.39
-28.74,53.62,-52.04,-34.20,-56.04,-1.39
-28.87,54.17,-51.76,-34.12,-55.85,-1.38
-28.87,54.17,-51.76,-34.12,-55.85,-1.38
-28.87,54.17,-51.76,-34.12,-55.85,-1.38
-28.87,54.17,-51.76,-34.12,-55.85,-1.38
-29.02,54.70,-51.49,-34.04,-55.65,-1.38
-29.02,54.70,-51.49,-34.04,-55.65,-1.38
-29.02,54.70,-51.49,-34.04,-55.65,-1.38
-29.02,54.70,-51.49,-34.04,-55.65,-1.38
-29.15,55.13,-51.28,-33.99,-55.48,-1.37
-29.15,55.13,-51.28,-33.99,-55.48,-1.37
-29.15,55.13,-51.28,-33.99,-55.48,-1.37
-29.15,55.13,-51.28,-33.99,-55.48,-1.37
-29.22,55.37,-51.15,-33.95,-55.38,-1.36
-29.22,55.37,-51.15,-33.95,-55.38,-1.36
-29.22,55.37,-51.15,-33.95,-55.38,-1.36
-29.22,55.37,-51.15,-33.95,-55.38,-1.36
-29.15,55.18,-51.25,-33.98,-55.47,-1.37
-29.15,55.18,-51.25,-33.98,-55.47,-1.37
-29.15,55.18,-51.25,-33.98,-55.47,-1.37
-29.15,55.18,-51.25,-33.98,-55.47,-1.37
-29.27,55.36,-51.15,-33.93,-55.40,-1.37
-29.27,55.36,-51.15,-33.93,-55.40,-1.37
-29.27,55.36,-51.15,-33.93,-55.40,-1.37
-29.27,55.36,-51.15,-33.93,-55.40,-1.37
-29.51,55.44,-51.10,-33.89,-55.29,-1.36
-29.51,55.44,-51.10,-33.89,-55.29,-1.36
-29.51,55.44,-51.10,-33.89,-55.29,-1.36
-29.51,55.44,-51.10,-33.89,-55.29,-1.36
-29.84,55.45,-51.07,-33.84,-55.17,-1.36
-29.84,55.45,-51.07,-33.84,-55.17,-1.36
-29.84,55.45,-51.07,-33.84,-55.17,-1.36
-29.84,55.45,-51.07,-33.84,-55.17,-1.36
-30.21,55.43,-51.06,-33.80,-55.03,-1.35
-30.21,55.43,-51.06,-33.80,-55.03,-1.35
-30.21,55.43,-51.06,-33.80,-55.03,-1.35
-30.21,55.43,-51.06,-33.80,-55.03,-1.35
-30.61,55.39,-51.06,-33.77,-54.88,-1.34
-30.61,55.39,-51.06,-33.77,-54.88,-1.34
-30.61,55.39,-51.06,-33.77,-54.88,-1.34
-30.61,55.39,-51.06,-33.77,-54.88,-1.34
-30.62,55.38,-51.06,-33.77,-54.88,-1.34
-30.62,55.38,-51.06,-33.77,-54.88,-1.34
-30.62,55.38,-51.06,-33.77,-54.88,-1.34
-30.62,55.38,-51.06,-33.77,-54.88,-1.34
-30.64,55.64,-50.93,-33.73,-54.81,-1.34
-30.64,55.64,-50.93,-33.73,-54.81,-1.34
-30.64,55.64,-50.93,-33.73,-54.81,-1.34
-30.64,55.64,-50.93,-33.73,-54.81,-1.34
-30.64,55.64,-50.93,-33.73,-54.81,-1.34
-30.71,55.93,-50.79,-33.69,-54.70,-1.34
-30.71,55.93,-50.79,-33.69,-54.70,-1.34
-30.71,55.93,-50.79,-33.69,-54.70,-1.34
-30.82,56.21,-50.63,-33.65,-54.57,-1.33
-30.82,56.21,-50.63,-33.65,-54.57,-1.33
-30.82,56.21,-50.63,-33.65,-54.57,-1.33
-30.82,56.21,-50.63,-33.65,-54.57,-1.33
-30.82,56.21,-50.63,-33.65,-54.57,-1.33
-30.95,56.50,-50.48,-33.61,-54.42,-1.33
-30.95,56.50,-50.48,-33.61,-54.42,-1.33
-30.95,56.50,-50.48,-33.61,-54.42,-1.33
-31.10,56.77,-50.34,-33.58,-54.26,-1.32
-31.10,56.77,-50.34,-33.58,-54.26,-1.32
-31.10,56.77,-50.34,-33.58,-54.26,-1.32
-31.10,56.77,-50.34,-33.58,-54.26,-1.32
-31.10,56.77,-50.34,-33.58,-54.26,-1.32
-31.26,57.02,-50.20,-33.55,-54.09,-1.31
-31.26,57.02,-50.20,-33.55,-54.09,-1.31
-31.26,57.02,-50.20,-33.55,-54.09,-1.31
-31.26,57.02,-50.20,-33.55,-54.09,-1.31
-31.14,56.91,-50.27,-33.56,-54.21,-1.32
-31.14,56.91,-50.27,-33.56,-54.21,-1.32
-31.14,56.91,-50.27,-33.56,-54.21,-1.32
-31.14,56.91,-50.27,-33.56,-54.21,-1.32
-31.32,57.07,-50.18,-33.52,-54.12,-1.31
-31.32,57.07,-50.18,-33.52,-54.12,-1.31
-31.32,57.07,-50.18,-33.52,-54.12,-1.31
-31.32,57.07,-50.18,-33.52,-54.12,-1.31
-31.60,57.18,-50.10,-33.49,-53.99,-1.31
-31.60,57.18,-50.10,-33.49,-53.99,-1.31
-31.60,57.18,-50.10,-33.49,-53.99,-1.31
-31.60,57.18,-50.10,-33.49,-53.99,-1.31
-31.95,57.25,-50.03,-33.45,-53.85,-1.30
-31.95,57.25,-50.03,-33.45,-53.85,-1.30
-31.95,57.25,-50.03,-33.45,-53.85,-1.30
-31.95,57.25,-50.03,-33.45,-53.85,-1.30
-32.33,57.31,-49.97,-33.42,-53.70,-1.29
-32.33,57.31,-49.97,-33.42,-53.70,-1.29
-32.33,57.31,-49.97,-33.42,-53.70,-1.29
-32.33,57.31,-49.97,-33.42,-53.70,-1.29
-32.72,57.37,-49.91,-33.39,-53.54,-1.28
-32.72,57.37,-49.91,-33.39,-53.54,-1.28
-32.72,57.37,-49.91,-33.39,-53.54,-1.28
-32.72,57.37,-49.91,-33.39,-53.54,-1.28
-32.36,57.42,-49.92,-33.40,-53.66,-1.29
-32.36,57.42,-49.92,-33.40,-53.66,-1.29
-32.36,57.42,-49.92,-33.40,-53.66,-1.29
-32.36,57.42,-49.92,-33.40,-53.66,-1.29
-32.51,57.60,-49.82,-33.37,-53.56,-1.29
-32.51,57.60,-49.82,-33.37,-53.56,-1.29
-32.51,57.60,-49.82,-33.37,-53.56,-1.29
-32.51,57.60,-49.82,-33.37,-53.56,-1.29
-32.77,57.74,-49.74,-33.34,-53.44,-1.28
-32.77,57.74,-49.74,-33.34,-53.44,-1.28
-32.77,57.74,-49.74,-33.34,-53.44,-1.28
-32.77,57.74,-49.74,-33.34,-53.44,-1.28
-33.10,57.85,-49.66,-33.31,-53.29,-1.28
-33.10,57.85,-49.66,-33.31,-53.29,-1.28
-33.10,57.85,-49.66,-33.31,-53.29,-1.28
-33.10,57.85,-49.66,-33.31,-53.29,-1.28
-33.47,57.94,-49.59,-33.29,-53.14,-1.27
-33.47,57.94,-49.59,-33.29,-53.14,-1.27
