Letian-Fu/MP_WS/src/gp_planner/exp_data/joint_angles.txt
Joint1(deg),Joint2(deg),Joint3(deg),Joint4(deg),Joint5(deg),Joint6(deg)
-48.33,74.89,-41.96,-32.93,-35.37,-0.11
-48.33,74.89,-41.96,-32.93,-35.37,-0.11
-48.33,74.89,-41.96,-32.93,-35.37,-0.11
-48.33,74.89,-41.96,-32.93,-35.37,-0.11
-48.33,74.89,-41.96,-32.93,-35.37,-0.11
-48.33,74.89,-41.96,-32.93,-35.37,-0.11
-48.33,74.89,-41.96,-32.93,-35.37,-0.11
-48.33,74.89,-41.96,-32.93,-35.37,-0.11
-48.33,74.89,-41.96,-32.93,-35.37,-0.11
-48.33,74.89,-41.96,-32.93,-35.37,-0.11
-48.33,74.89,-41.96,-32.93,-35.37,-0.11
-48.33,74.89,-41.96,-32.93,-35.37,-0.11
-48.33,74.89,-41.96,-32.93,-35.37,-0.11
-48.33,74.89,-41.96,-32.93,-35.37,-0.11
-48.33,74.89,-41.96,-32.93,-35.37,-0.11
-48.33,74.89,-41.96,-32.93,-35.37,-0.11
-48.33,74.89,-41.96,-32.93,-35.37,-0.11
-48.33,74.89,-41.96,-32.93,-35.37,-0.11
-48.33,74.89,-41.96,-32.93,-35.37,-0.11
-48.33,74.89,-41.96,-32.93,-35.37,-0.11
-48.33,74.89,-41.96,-32.93,-35.37,-0.11
-48.33,74.89,-41.96,-32.93,-35.37,-0.11
-48.33,74.89,-41.96,-32.93,-35.37,-0.11
-48.33,74.89,-41.96,-32.93,-35.37,-0.11
-48.33,74.89,-41.96,-32.93,-35.37,-0.11
-48.33,74.89,-41.96,-32.93,-35.37,-0.11
-48.33,74.89,-41.96,-32.93,-35.37,-0.11
-48.33,74.89,-41.96,-32.93,-35.37,-0.11
-48.33,74.89,-41.96,-32.93,-35.37,-0.11
-48.33,74.89,-41.96,-32.93,-35.37,-0.11
-48.33,74.89,-41.96,-32.93,-35.37,-0.11
-48.33,74.89,-41.96,-32.93,-35.37,-0.11
-48.33,74.89,-41.96,-32.93,-35.37,-0.11
-48.33,74.89,-41.96,-32.93,-35.37,-0.11
-48.33,74.89,-41.96,-32.93,-35.37,-0.11
-48.33,74.89,-41.96,-32.93,-35.37,-0.11
-48.33,74.89,-41.96,-32.93,-35.37,-0.11
-48.33,74.89,-41.96,-32.93,-35.37,-0.11
-48.33,74.89,-41.96,-32.93,-35.37,-0.11
-48.33,74.89,-41.96,-32.93,-35.37,-0.11
-48.33,74.89,-41.96,-32.93,-35.37,-0.11
-48.33,74.89,-41.96,-32.93,-35.37,-0.11
-48.33,74.89,-41.96,-32.93,-35.37,-0.11
-48.33,74.89,-41.96,-32.93,-35.37,-0.11
-48.33,74.89,-41.96,-32.93,-35.37,-0.11
-48.33,74.89,-41.96,-32.93,-35.37,-0.11
-48.33,74.89,-41.96,-32.93,-35.37,-0.11
-48.33,74.89,-41.96,-32.93,-35.37,-0.11
-48.33,74.89,-41.96,-32.93,-35.37,-0.11
-48.33,74.89,-41.96,-32.93,-35.37,-0.11
-48.33,74.89,-41.96,-32.93,-35.37,-0.11
-48.33,74.89,-41.96,-32.93,-35.37,-0.11
-48.33,74.89,-41.96,-32.93,-35.37,-0.11
-48.33,74.89,-41.96,-32.93,-35.37,-0.11
-48.33,74.89,-41.96,-32.93,-35.37,-0.11
-48.33,74.89,-41.96,-32.93,-35.37,-0.11
-48.33,74.89,-41.96,-32.93,-35.37,-0.11
-48.33,74.89,-41.96,-32.93,-35.37,-0.11
-48.33,74.89,-41.96,-32.93,-35.37,-0.11
-48.33,74.89,-41.96,-32.93,-35.37,-0.11
-48.33,74.89,-41.96,-32.93,-35.37,-0.11
-48.33,74.89,-41.96,-32.93,-35.37,-0.11
-48.33,74.89,-41.96,-32.93,-35.37,-0.11
-48.33,74.89,-41.96,-32.93,-35.37,-0.11
-48.33,74.89,-41.96,-32.93,-35.37,-0.11
-48.33,74.89,-41.96,-32.93,-35.37,-0.11
-48.33,74.89,-41.96,-32.93,-35.37,-0.11
-48.33,74.89,-41.96,-32.93,-35.37,-0.11
-48.33,74.89,-41.96,-32.93,-35.37,-0.11
-48.33,74.89,-41.96,-32.93,-35.37,-0.11
-48.33,74.89,-41.96,-32.93,-35.37,-0.11
-48.33,74.89,-41.96,-32.93,-35.37,-0.11
-48.33,74.89,-41.96,-32.93,-35.37,-0.11
-48.33,74.89,-41.96,-32.93,-35.37,-0.11
-48.33,74.89,-41.96,-32.93,-35.37,-0.11
-48.33,74.89,-41.96,-32.93,-35.37,-0.11
-48.33,74.89,-41.96,-32.93,-35.37,-0.11
-48.33,74.89,-41.96,-32.93,-35.37,-0.11
-48.33,74.89,-41.96,-32.93,-35.37,-0.11
-48.33,74.89,-41.96,-32.93,-35.37,-0.11
-48.33,74.89,-41.96,-32.93,-35.37,-0.11
-48.33,74.89,-41.96,-32.93,-35.37,-0.11
-48.33,74.89,-41.96,-32.93,-35.37,-0.11
-48.33,74.89,-41.96,-32.93,-35.37,-0.11
-48.33,74.89,-41.96,-32.93,-35.37,-0.11
-48.33,74.89,-41.96,-32.93,-35.37,-0.11
-48.33,74.89,-41.96,-32.93,-35.37,-0.11
-48.33,74.89,-41.96,-32.93,-35.37,-0.11
-48.33,74.89,-41.96,-32.93,-35.37,-0.11
-48.33,74.89,-41.96,-32.93,-35.37,-0.11
-48.33,74.89,-41.96,-32.93,-35.37,-0.11
-48.33,74.89,-41.96,-32.93,-35.37,-0.11
-48.33,74.89,-41.96,-32.93,-35.37,-0.11
-48.33,74.89,-41.96,-32.93,-35.37,-0.11
-48.33,74.89,-41.96,-32.93,-35.37,-0.11
-48.33,74.89,-41.96,-32.93,-35.37,-0.11
-48.33,74.89,-41.96,-32.93,-35.37,-0.11
-48.33,74.89,-41.96,-32.93,-35.37,-0.11
-48.33,74.89,-41.96,-32.93,-35.37,-0.11
-48.33,74.89,-41.96,-32.93,-35.37,-0.11
-48.33,74.89,-41.96,-32.93,-35.37,-0.11
-48.33,74.89,-41.96,-32.93,-35.37,-0.11
-48.33,74.89,-41.96,-32.93,-35.37,-0.11
-48.33,74.89,-41.96,-32.93,-35.37,-0.11
-48.33,74.89,-41.96,-32.93,-35.37,-0.11
-48.33,74.89,-41.96,-32.93,-35.37,-0.11
-48.33,74.89,-41.96,-32.93,-35.37,-0.11
-48.33,74.89,-41.96,-32.93,-35.37,-0.11
-48.33,74.89,-41.96,-32.93,-35.37,-0.11
-48.33,74.89,-41.96,-32.93,-35.37,-0.11
-48.33,74.89,-41.96,-32.93,-35.37,-0.11
-48.33,74.89,-41.96,-32.93,-35.37,-0.11
-48.33,74.89,-41.96,-32.93,-35.37,-0.11
-48.33,74.89,-41.96,-32.93,-35.37,-0.11
-48.33,74.89,-41.96,-32.93,-35.37,-0.11
-48.33,74.89,-41.96,-32.93,-35.37,-0.11
-48.33,74.89,-41.96,-32.93,-35.37,-0.11
-48.33,74.89,-41.96,-32.93,-35.37,-0.11
-48.33,74.89,-41.96,-32.93,-35.37,-0.11
-48.33,74.89,-41.96,-32.93,-35.37,-0.11
-48.33,74.89,-41.96,-32.93,-35.37,-0.11
-48.33,74.89,-41.96,-32.93,-35.37,-0.11
-48.33,74.89,-41.96,-32.93,-35.37,-0.11
-48.33,74.89,-41.96,-32.93,-35.37,-0.11
-48.33,74.89,-41.96,-32.93,-35.37,-0.11
-48.33,74.89,-41.96,-32.93,-35.37,-0.11
-48.33,74.89,-41.96,-32.93,-35.37,-0.11
-48.33,74.89,-41.96,-32.93,-35.37,-0.11
-48.33,74.89,-41.96,-32.93,-35.37,-0.11
-48.33,74.89,-41.96,-32.93,-35.37,-0.11
-48.33,74.89,-41.96,-32.93,-35.37,-0.11
-48.33,74.89,-41.96,-32.93,-35.37,-0.11
-48.33,74.89,-41.96,-32.93,-35.37,-0.11
-48.33,74.89,-41.96,-32.93,-35.37,-0.11
-48.33,74.89,-41.96,-32.93,-35.37,-0.11
-48.33,74.89,-41.96,-32.93,-35.37,-0.11
-48.33,74.89,-41.96,-32.93,-35.37,-0.11
-48.33,74.89,-41.96,-32.93,-35.37,-0.11
-48.33,74.89,-41.96,-32.93,-35.37,-0.11
-48.33,74.89,-41.96,-32.93,-35.37,-0.11
-48.33,74.89,-41.96,-32.93,-35.37,-0.11
-48.33,74.89,-41.96,-32.93,-35.37,-0.11
-48.33,74.89,-41.96,-32.93,-35.37,-0.11
-48.33,74.89,-41.96,-32.93,-35.37,-0.11
-48.33,74.89,-41.96,-32.93,-35.37,-0.11
-48.33,74.89,-41.96,-32.93,-35.37,-0.11
-48.33,74.89,-41.96,-32.93,-35.37,-0.11
-48.33,74.89,-41.96,-32.93,-35.37,-0.11
-48.33,74.89,-41.96,-32.93,-35.37,-0.11
-48.33,74.89,-41.96,-32.93,-35.37,-0.11
-48.33,74.89,-41.96,-32.93,-35.37,-0.11
-48.33,74.89,-41.96,-32.93,-35.37,-0.11
-48.33,74.89,-41.96,-32.93,-35.37,-0.11
-48.33,74.89,-41.96,-32.93,-35.37,-0.11
-48.33,74.89,-41.96,-32.93,-35.37,-0.11
-48.33,74.89,-41.96,-32.93,-35.37,-0.11
-48.33,74.89,-41.96,-32.93,-35.37,-0.11
-48.33,74.89,-41.96,-32.93,-35.37,-0.11
-48.33,74.89,-41.96,-32.93,-35.37,-0.11
-48.33,74.89,-41.96,-32.93,-35.37,-0.11
-48.33,74.89,-41.96,-32.93,-35.37,-0.11
-48.33,74.89,-41.96,-32.93,-35.37,-0.11
-48.33,74.89,-41.96,-32.93,-35.37,-0.11
-48.33,74.89,-41.96,-32.93,-35.37,-0.11
-48.33,74.89,-41.96,-32.93,-35.37,-0.11
-48.33,74.89,-41.96,-32.93,-35.37,-0.11
-48.33,74.89,-41.96,-32.93,-35.37,-0.11
-48.33,74.89,-41.96,-32.93,-35.37,-0.11
-48.33,74.89,-41.96,-32.93,-35.37,-0.11
-48.33,74.89,-41.96,-32.93,-35.37,-0.11
-48.33,74.89,-41.96,-32.93,-35.37,-0.11
-48.33,74.89,-41.96,-32.93,-35.37,-0.11
-48.33,74.89,-41.96,-32.93,-35.37,-0.11
-48.33,74.89,-41.96,-32.93,-35.37,-0.11
-48.33,74.89,-41.96,-32.93,-35.37,-0.11
-48.33,74.89,-41.96,-32.93,-35.37,-0.11
-48.33,74.89,-41.96,-32.93,-35.37,-0.11
-48.33,74.89,-41.96,-32.93,-35.37,-0.11
-48.33,74.89,-41.96,-32.93,-35.37,-0.11
-48.33,74.89,-41.96,-32.93,-35.37,-0.11
-48.33,74.89,-41.96,-32.93,-35.37,-0.11
-48.33,74.89,-41.96,-32.93,-35.37,-0.11
-48.33,74.89,-41.96,-32.93,-35.37,-0.11
-48.33,74.89,-41.96,-32.93,-35.37,-0.11
-48.33,74.89,-41.96,-32.93,-35.37,-0.11
-48.33,74.89,-41.96,-32.93,-35.37,-0.11
-48.33,74.89,-41.96,-32.93,-35.37,-0.11
-48.33,74.89,-41.96,-32.93,-35.37,-0.11
-48.33,74.89,-41.96,-32.93,-35.37,-0.11
-48.33,74.89,-41.96,-32.93,-35.37,-0.11
-48.33,74.89,-41.96,-32.93,-35.37,-0.11
-48.33,74.89,-41.96,-32.93,-35.37,-0.11
-48.33,74.89,-41.96,-32.93,-35.37,-0.11
-48.33,74.89,-41.96,-32.93,-35.37,-0.11
-48.33,74.89,-41.96,-32.93,-35.37,-0.11
-48.33,74.89,-41.96,-32.93,-35.37,-0.11
-48.33,74.89,-41.96,-32.93,-35.37,-0.11
-48.33,74.89,-41.96,-32.93,-35.37,-0.11
-48.33,74.89,-41.96,-32.93,-35.37,-0.11
-48.33,74.89,-41.96,-32.93,-35.37,-0.11
-48.33,74.89,-41.96,-32.93,-35.37,-0.11
-48.33,74.89,-41.96,-32.93,-35.37,-0.11
-48.33,74.89,-41.96,-32.93,-35.37,-0.11
-48.33,74.89,-41.96,-32.93,-35.37,-0.11
-48.33,74.89,-41.96,-32.93,-35.37,-0.11
-48.33,74.89,-41.96,-32.93,-35.37,-0.11
-48.33,74.89,-41.96,-32.93,-35.37,-0.11
-48.33,74.89,-41.96,-32.93,-35.37,-0.11
-48.33,74.89,-41.96,-32.93,-35.37,-0.11
-48.33,74.89,-41.96,-32.93,-35.37,-0.11
-48.33,74.89,-41.96,-32.93,-35.37,-0.11
-48.33,74.89,-41.96,-32.93,-35.37,-0.11
-48.33,74.89,-41.96,-32.93,-35.37,-0.11
-48.33,74.89,-41.96,-32.93,-35.37,-0.11
-48.33,74.89,-41.96,-32.93,-35.37,-0.11
-48.33,74.89,-41.96,-32.93,-35.37,-0.11
-48.33,74.89,-41.96,-32.93,-35.37,-0.11
-48.33,74.89,-41.96,-32.93,-35.37,-0.11
-48.33,74.89,-41.96,-32.93,-35.37,-0.11
-48.33,74.89,-41.96,-32.93,-35.37,-0.11
-48.33,74.89,-41.96,-32.93,-35.37,-0.11
-48.33,74.89,-41.96,-32.93,-35.37,-0.11
-48.33,74.89,-41.96,-32.93,-35.37,-0.11
-48.33,74.89,-41.96,-32.93,-35.37,-0.11
-48.33,74.89,-41.96,-32.93,-35.37,-0.11
-48.33,74.89,-41.96,-32.93,-35.37,-0.11
-48.33,74.89,-41.96,-32.93,-35.37,-0.11
-48.33,74.89,-41.96,-32.93,-35.37,-0.11
-48.33,74.89,-41.96,-32.93,-35.37,-0.11
-48.33,74.89,-41.96,-32.93,-35.37,-0.11
-48.33,74.89,-41.96,-32.93,-35.37,-0.11
-48.33,74.89,-41.96,-32.93,-35.37,-0.11
-48.33,74.89,-41.96,-32.93,-35.37,-0.11
-48.33,74.89,-41.96,-32.93,-35.37,-0.11
-48.33,74.89,-41.96,-32.93,-35.37,-0.11
-48.33,74.89,-41.96,-32.93,-35.37,-0.11
-48.33,74.89,-41.96,-32.93,-35.37,-0.11
-48.33,74.89,-41.96,-32.93,-35.37,-0.11
-48.33,74.89,-41.96,-32.93,-35.37,-0.11
-48.33,74.89,-41.96,-32.93,-35.37,-0.11
-48.33,74.89,-41.96,-32.93,-35.37,-0.11
-48.33,74.89,-41.96,-32.93,-35.37,-0.11
-48.33,74.89,-41.96,-32.93,-35.37,-0.11
-48.33,74.89,-41.96,-32.93,-35.37,-0.11
-48.33,74.89,-41.96,-32.93,-35.37,-0.11
-48.33,74.89,-41.96,-32.93,-35.37,-0.11
-48.33,74.89,-41.96,-32.93,-35.37,-0.11
-48.33,74.89,-41.96,-32.93,-35.37,-0.11
-48.33,74.89,-41.96,-32.93,-35.37,-0.11
-48.33,74.89,-41.96,-32.93,-35.37,-0.11
-48.33,74.89,-41.96,-32.93,-35.37,-0.11
-48.33,74.89,-41.96,-32.93,-35.37,-0.11
-48.33,74.89,-41.96,-32.93,-35.37,-0.11
-48.33,74.89,-41.96,-32.93,-35.37,-0.11
-48.33,74.89,-41.96,-32.93,-35.37,-0.11
-48.33,74.89,-41.96,-32.93,-35.37,-0.11
-48.33,74.89,-41.96,-32.93,-35.37,-0.11
-48.33,74.89,-41.96,-32.93,-35.37,-0.11
-48.33,74.89,-41.96,-32.93,-35.37,-0.11
-48.33,74.89,-41.96,-32.93,-35.37,-0.11
-48.33,74.89,-41.96,-32.93,-35.37,-0.11
-48.33,74.89,-41.96,-32.93,-35.37,-0.11
-48.33,74.89,-41.96,-32.93,-35.37,-0.11
-48.33,74.89,-41.96,-32.93,-35.37,-0.11
-48.33,74.89,-41.96,-32.93,-35.37,-0.11
-48.33,74.89,-41.96,-32.93,-35.37,-0.11
-48.33,74.89,-41.96,-32.93,-35.37,-0.11
-48.33,74.89,-41.96,-32.93,-35.37,-0.11
-48.33,74.89,-41.96,-32.93,-35.37,-0.11
-48.33,74.89,-41.96,-32.93,-35.37,-0.11
-48.33,74.89,-41.96,-32.93,-35.37,-0.11
-48.33,74.89,-41.96,-32.93,-35.37,-0.11
-48.33,74.89,-41.96,-32.93,-35.37,-0.11
-48.33,74.89,-41.96,-32.93,-35.37,-0.11
-48.33,74.89,-41.96,-32.93,-35.37,-0.11
-48.33,74.89,-41.96,-32.93,-35.37,-0.11
-48.33,74.89,-41.96,-32.93,-35.37,-0.11
-48.33,74.89,-41.96,-32.93,-35.37,-0.11
-48.33,74.89,-41.96,-32.93,-35.37,-0.11
-48.33,74.89,-41.96,-32.93,-35.37,-0.11
-48.33,74.89,-41.96,-32.93,-35.37,-0.11
-48.33,74.89,-41.96,-32.93,-35.37,-0.11
-48.33,74.89,-41.96,-32.93,-35.37,-0.11
-48.33,74.89,-41.96,-32.93,-35.37,-0.11
-48.33,74.89,-41.96,-32.93,-35.37,-0.11
-48.33,74.89,-41.96,-32.93,-35.37,-0.11
-48.33,74.89,-41.96,-32.93,-35.37,-0.11
-48.33,74.89,-41.96,-32.93,-35.37,-0.11
-48.33,74.89,-41.96,-32.93,-35.37,-0.11
-48.33,74.89,-41.96,-32.93,-35.37,-0.11
-48.33,74.89,-41.96,-32.93,-35.37,-0.11
-48.33,74.89,-41.96,-32.93,-35.37,-0.11
-48.33,74.89,-41.96,-32.93,-35.37,-0.11
-48.33,74.89,-41.96,-32.93,-35.37,-0.11
-48.33,74.89,-41.96,-32.93,-35.37,-0.11
-48.33,74.89,-41.96,-32.93,-35.37,-0.11
-48.33,74.89,-41.96,-32.93,-35.37,-0.11
-48.33,74.89,-41.96,-32.93,-35.37,-0.11
-48.33,74.89,-41.96,-32.93,-35.37,-0.11
-48.33,74.89,-41.96,-32.93,-35.37,-0.11
-48.33,74.89,-41.96,-32.93,-35.37,-0.11
-48.33,74.89,-41.96,-32.93,-35.37,-0.11
-48.33,74.89,-41.96,-32.93,-35.37,-0.11
-48.33,74.89,-41.96,-32.93,-35.37,-0.11
-48.33,74.89,-41.96,-32.93,-35.37,-0.11
-48.33,74.89,-41.96,-32.93,-35.37,-0.11
-48.33,74.89,-41.96,-32.93,-35.37,-0.11
-48.33,74.89,-41.96,-32.93,-35.37,-0.11
-48.33,74.89,-41.96,-32.93,-35.37,-0.11
-48.33,74.89,-41.96,-32.93,-35.37,-0.11
-48.33,74.89,-41.96,-32.93,-35.37,-0.11
-48.33,74.89,-41.96,-32.93,-35.37,-0.11
-48.33,74.89,-41.96,-32.93,-35.37,-0.11
-48.33,74.89,-41.96,-32.93,-35.37,-0.11
-48.33,74.89,-41.96,-32.93,-35.37,-0.11
-48.33,74.89,-41.96,-32.93,-35.37,-0.11
-48.33,74.89,-41.96,-32.93,-35.37,-0.11
-48.33,74.89,-41.96,-32.93,-35.37,-0.11
-48.33,74.89,-41.96,-32.93,-35.37,-0.11
-48.33,74.89,-41.96,-32.93,-35.37,-0.11
-48.33,74.89,-41.96,-32.93,-35.37,-0.11
-48.33,74.89,-41.96,-32.93,-35.37,-0.11
-48.33,74.89,-41.96,-32.93,-35.37,-0.11
-48.33,74.89,-41.96,-32.93,-35.37,-0.11
-48.33,74.89,-41.96,-32.93,-35.37,-0.11
-48.33,74.89,-41.96,-32.93,-35.37,-0.11
-48.33,74.89,-41.96,-32.93,-35.37,-0.11
-48.33,74.89,-41.96,-32.93,-35.37,-0.11
-48.33,74.89,-41.96,-32.93,-35.37,-0.11
-48.33,74.89,-41.96,-32.93,-35.37,-0.11
-48.33,74.89,-41.96,-32.93,-35.37,-0.11
-48.33,74.89,-41.96,-32.93,-35.37,-0.11
-48.33,74.89,-41.96,-32.93,-35.37,-0.11
-48.33,74.89,-41.96,-32.93,-35.37,-0.11
-48.33,74.89,-41.96,-32.93,-35.37,-0.11
-48.33,74.89,-41.96,-32.93,-35.37,-0.11
-48.33,74.89,-41.96,-32.93,-35.37,-0.11
-48.33,74.89,-41.96,-32.93,-35.37,-0.11
-48.33,74.89,-41.96,-32.93,-35.37,-0.11
-48.33,74.89,-41.96,-32.93,-35.37,-0.11
-48.33,74.89,-41.96,-32.93,-35.37,-0.11
-48.33,74.89,-41.96,-32.93,-35.37,-0.11
-48.33,74.89,-41.96,-32.93,-35.37,-0.11
-48.33,74.89,-41.96,-32.93,-35.37,-0.11
-48.33,74.89,-41.96,-32.93,-35.37,-0.11
-48.33,74.89,-41.96,-32.93,-35.37,-0.11
-48.33,74.89,-41.96,-32.93,-35.37,-0.11
-48.33,74.89,-41.96,-32.93,-35.37,-0.11
-48.33,74.89,-41.96,-32.93,-35.37,-0.11
-48.33,74.89,-41.96,-32.93,-35.37,-0.11
-48.33,74.89,-41.96,-32.93,-35.37,-0.11
-48.33,74.89,-41.96,-32.93,-35.37,-0.11
-48.33,74.89,-41.96,-32.93,-35.37,-0.11
-48.33,74.89,-41.96,-32.93,-35.37,-0.11
-48.33,74.89,-41.96,-32.93,-35.37,-0.11
-48.33,74.89,-41.96,-32.93,-35.37,-0.11
-48.33,74.89,-41.96,-32.93,-35.37,-0.11
-48.33,74.89,-41.96,-32.93,-35.37,-0.11
-48.33,74.89,-41.96,-32.93,-35.37,-0.11
-48.33,74.89,-41.96,-32.93,-35.37,-0.11
-48.33,74.89,-41.96,-32.93,-35.37,-0.11
-48.33,74.89,-41.96,-32.93,-35.37,-0.11
-48.33,74.89,-41.96,-32.93,-35.37,-0.11
-48.33,74.89,-41.96,-32.93,-35.37,-0.11
-48.33,74.89,-41.96,-32.93,-35.37,-0.11
-48.33,74.89,-41.96,-32.93,-35.37,-0.11
-48.33,74.89,-41.96,-32.93,-35.37,-0.11
-48.33,74.89,-41.96,-32.93,-35.37,-0.11
-48.33,74.89,-41.96,-32.93,-35.37,-0.11
-48.33,74.89,-41.96,-32.93,-35.37,-0.11
-48.33,74.89,-41.96,-32.93,-35.37,-0.11
-48.33,74.89,-41.96,-32.93,-35.37,-0.11
-48.33,74.89,-41.96,-32.93,-35.37,-0.11
-48.33,74.89,-41.96,-32.93,-35.37,-0.11
-48.33,74.89,-41.96,-32.93,-35.37,-0.11
-48.33,74.89,-41.96,-32.93,-35.37,-0.11
-48.33,74.89,-41.96,-32.93,-35.37,-0.11
-48.33,74.89,-41.96,-32.93,-35.37,-0.11
-48.33,74.89,-41.96,-32.93,-35.37,-0.11
-48.33,74.89,-41.96,-32.93,-35.37,-0.11
-48.33,74.89,-41.96,-32.93,-35.37,-0.11
-48.33,74.89,-41.96,-32.93,-35.37,-0.11
-48.33,74.89,-41.96,-32.93,-35.37,-0.11
-48.33,74.89,-41.96,-32.93,-35.37,-0.11
-48.33,74.89,-41.96,-32.93,-35.37,-0.11
-48.33,74.89,-41.96,-32.93,-35.37,-0.11
-48.33,74.89,-41.96,-32.93,-35.37,-0.11
-48.33,74.89,-41.96,-32.93,-35.37,-0.11
-48.33,74.89,-41.96,-32.93,-35.37,-0.11
-48.33,74.89,-41.96,-32.93,-35.37,-0.11
-48.33,74.89,-41.96,-32.93,-35.37,-0.11
-48.33,74.89,-41.96,-32.93,-35.37,-0.11
-48.33,74.89,-41.96,-32.93,-35.37,-0.11
-48.33,74.89,-41.96,-32.93,-35.37,-0.11
-48.33,74.89,-41.96,-32.93,-35.37,-0.11
-48.33,74.89,-41.96,-32.93,-35.37,-0.11
-48.33,74.89,-41.96,-32.93,-35.37,-0.11
-48.33,74.89,-41.96,-32.93,-35.37,-0.11
-48.33,74.89,-41.96,-32.93,-35.37,-0.11
-48.33,74.89,-41.96,-32.93,-35.37,-0.11
-48.33,74.89,-41.96,-32.93,-35.37,-0.11
-48.33,74.89,-41.96,-32.93,-35.37,-0.11
-48.33,74.89,-41.96,-32.93,-35.37,-0.11
-48.33,74.89,-41.96,-32.93,-35.37,-0.11
-48.33,74.89,-41.96,-32.93,-35.37,-0.11
-48.33,74.89,-41.96,-32.93,-35.37,-0.11
-48.33,74.89,-41.96,-32.93,-35.37,-0.11
-48.33,74.89,-41.96,-32.93,-35.37,-0.11
-48.33,74.89,-41.96,-32.93,-35.37,-0.11
-48.33,74.89,-41.96,-32.93,-35.37,-0.11
-48.33,74.89,-41.96,-32.93,-35.37,-0.11
-48.33,74.89,-41.96,-32.93,-35.37,-0.11
-48.33,74.89,-41.96,-32.93,-35.37,-0.11
-48.33,74.89,-41.96,-32.93,-35.37,-0.11
-48.33,74.89,-41.96,-32.93,-35.37,-0.11
-48.33,74.89,-41.96,-32.93,-35.37,-0.11
-48.33,74.89,-41.96,-32.93,-35.37,-0.11
-48.33,74.89,-41.96,-32.93,-35.37,-0.11
-48.33,74.89,-41.96,-32.93,-35.37,-0.11
-48.33,74.89,-41.96,-32.93,-35.37,-0.11
-48.33,74.89,-41.96,-32.93,-35.37,-0.11
-48.33,74.89,-41.96,-32.93,-35.37,-0.11
-48.33,74.89,-41.96,-32.93,-35.37,-0.11
-48.33,74.89,-41.96,-32.93,-35.37,-0.11
-48.33,74.89,-41.96,-32.93,-35.37,-0.11
-48.33,74.89,-41.96,-32.93,-35.37,-0.11
-48.33,74.89,-41.96,-32.93,-35.37,-0.11
-48.33,74.89,-41.96,-32.93,-35.37,-0.11
-48.33,74.89,-41.96,-32.93,-35.37,-0.11
-48.33,74.89,-41.96,-32.93,-35.37,-0.11
-48.33,74.89,-41.96,-32.93,-35.37,-0.11
-48.33,74.89,-41.96,-32.93,-35.37,-0.11
-48.33,74.89,-41.96,-32.93,-35.37,-0.11
-48.33,74.89,-41.96,-32.93,-35.37,-0.11
-48.33,74.89,-41.96,-32.93,-35.37,-0.11
-48.33,74.89,-41.96,-32.93,-35.37,-0.11
-48.33,74.89,-41.96,-32.93,-35.37,-0.11
-48.33,74.89,-41.96,-32.93,-35.37,-0.11
-48.33,74.89,-41.96,-32.93,-35.37,-0.11
-48.33,74.89,-41.96,-32.93,-35.37,-0.11
-48.33,74.89,-41.96,-32.93,-35.37,-0.11
-48.33,74.89,-41.96,-32.93,-35.37,-0.11
-48.33,74.89,-41.96,-32.93,-35.37,-0.11
-48.33,74.89,-41.96,-32.93,-35.37,-0.11
-48.33,74.89,-41.96,-32.93,-35.37,-0.11
-48.33,74.89,-41.96,-32.93,-35.37,-0.11
-48.33,74.89,-41.96,-32.93,-35.37,-0.11
-48.33,74.89,-41.96,-32.93,-35.37,-0.11
-48.33,74.89,-41.96,-32.93,-35.37,-0.11
-48.33,74.89,-41.96,-32.93,-35.37,-0.11
-48.33,74.89,-41.96,-32.93,-35.37,-0.11
-48.33,74.89,-41.96,-32.93,-35.37,-0.11
-48.33,74.89,-41.96,-32.93,-35.37,-0.11
-48.33,74.89,-41.96,-32.93,-35.37,-0.11
-48.33,74.89,-41.96,-32.93,-35.37,-0.11
-48.33,74.89,-41.96,-32.93,-35.37,-0.11
-48.33,74.89,-41.96,-32.93,-35.37,-0.11
-48.33,74.89,-41.96,-32.93,-35.37,-0.11
-48.33,74.89,-41.96,-32.93,-35.37,-0.11
-48.33,74.89,-41.96,-32.93,-35.37,-0.11
-48.33,74.89,-41.96,-32.93,-35.37,-0.11
-48.33,74.89,-41.96,-32.93,-35.37,-0.11
-48.33,74.89,-41.96,-32.93,-35.37,-0.11
-48.33,74.89,-41.96,-32.93,-35.37,-0.11
-48.33,74.89,-41.96,-32.93,-35.37,-0.11
-48.33,74.89,-41.96,-32.93,-35.37,-0.11
-48.33,74.89,-41.96,-32.93,-35.37,-0.11
-48.33,74.89,-41.96,-32.93,-35.37,-0.11
-48.33,74.89,-41.96,-32.93,-35.37,-0.11
-48.33,74.89,-41.96,-32.93,-35.37,-0.11
-48.33,74.89,-41.96,-32.93,-35.37,-0.11
-48.33,74.89,-41.96,-32.93,-35.37,-0.11
-48.33,74.89,-41.96,-32.93,-35.37,-0.11
-48.33,74.89,-41.96,-32.93,-35.37,-0.11
-48.33,74.89,-41.96,-32.93,-35.37,-0.11
-48.33,74.89,-41.96,-32.93,-35.37,-0.11
-48.33,74.89,-41.96,-32.93,-35.37,-0.11
-48.33,74.89,-41.96,-32.93,-35.37,-0.11
-48.33,74.89,-41.96,-32.93,-35.37,-0.11
-48.33,74.89,-41.96,-32.93,-35.37,-0.11
-48.33,74.89,-41.96,-32.93,-35.37,-0.11
-48.33,74.89,-41.96,-32.93,-35.37,-0.11
-48.33,74.89,-41.96,-32.93,-35.37,-0.11
-48.33,74.89,-41.96,-32.93,-35.37,-0.11
-48.33,74.89,-41.96,-32.93,-35.37,-0.11
-48.33,74.89,-41.96,-32.93,-35.37,-0.11
-48.33,74.89,-41.96,-32.93,-35.37,-0.11
-48.33,74.89,-41.96,-32.93,-35.37,-0.11
-48.33,74.89,-41.96,-32.93,-35.37,-0.11
-48.33,74.89,-41.96,-32.93,-35.37,-0.11
-48.33,74.89,-41.96,-32.93,-35.37,-0.11
-48.33,74.89,-41.96,-32.93,-35.37,-0.11
-48.33,74.89,-41.96,-32.93,-35.37,-0.11
-48.33,74.89,-41.96,-32.93,-35.37,-0.11
-48.33,74.89,-41.96,-32.93,-35.37,-0.11
-48.33,74.89,-41.96,-32.93,-35.37,-0.11
-48.33,74.89,-41.96,-32.93,-35.37,-0.11
-48.33,74.89,-41.96,-32.93,-35.37,-0.11
-48.33,74.89,-41.96,-32.93,-35.37,-0.11
-48.33,74.89,-41.96,-32.93,-35.37,-0.11
-48.33,74.89,-41.96,-32.93,-35.37,-0.11
-48.33,74.89,-41.96,-32.93,-35.37,-0.11
-48.33,74.89,-41.96,-32.93,-35.37,-0.11
-48.33,74.89,-41.96,-32.93,-35.37,-0.11
-48.33,74.89,-41.96,-32.93,-35.37,-0.11
-48.33,74.89,-41.96,-32.93,-35.37,-0.11
-48.33,74.89,-41.96,-32.93,-35.37,-0.11
-48.33,74.89,-41.96,-32.93,-35.37,-0.11
-48.33,74.89,-41.96,-32.93,-35.37,-0.11
-48.33,74.89,-41.96,-32.93,-35.37,-0.11
-48.33,74.89,-41.96,-32.93,-35.37,-0.11
-48.33,74.89,-41.96,-32.93,-35.37,-0.11
-48.33,74.89,-41.96,-32.93,-35.37,-0.11
-48.33,74.89,-41.96,-32.93,-35.37,-0.11
-48.33,74.89,-41.96,-32.93,-35.37,-0.11
-48.33,74.89,-41.96,-32.93,-35.37,-0.11
-48.33,74.89,-41.96,-32.93,-35.37,-0.11
-48.33,74.89,-41.96,-32.93,-35.37,-0.11
-48.33,74.89,-41.96,-32.93,-35.37,-0.11
-48.33,74.89,-41.96,-32.93,-35.37,-0.11
-48.33,74.89,-41.96,-32.93,-35.37,-0.11
-48.33,74.89,-41.96,-32.93,-35.37,-0.11
-48.33,74.89,-41.96,-32.93,-35.37,-0.11
-48.33,74.89,-41.96,-32.93,-35.37,-0.11
-48.33,74.89,-41.96,-32.93,-35.37,-0.11
-48.33,74.89,-41.96,-32.93,-35.37,-0.11
-48.33,74.89,-41.96,-32.93,-35.37,-0.11
-48.33,74.89,-41.96,-32.93,-35.37,-0.11
-48.33,74.89,-41.96,-32.93,-35.37,-0.11
-48.33,74.89,-41.96,-32.93,-35.37,-0.11
-48.33,74.89,-41.96,-32.93,-35.37,-0.11
-48.33,74.89,-41.96,-32.93,-35.37,-0.11
-48.33,74.89,-41.96,-32.93,-35.37,-0.11
-48.33,74.89,-41.96,-32.93,-35.37,-0.11
-48.33,74.89,-41.96,-32.93,-35.37,-0.11
-48.33,74.89,-41.96,-32.93,-35.37,-0.11
-48.33,74.89,-41.96,-32.93,-35.37,-0.11
-48.33,74.89,-41.96,-32.93,-35.37,-0.11
-48.33,74.89,-41.96,-32.93,-35.37,-0.11
-48.33,74.89,-41.96,-32.93,-35.37,-0.11
-48.33,74.89,-41.96,-32.93,-35.37,-0.11
-48.33,74.89,-41.96,-32.93,-35.37,-0.11
-48.33,74.89,-41.96,-32.93,-35.37,-0.11
-48.33,74.89,-41.96,-32.93,-35.37,-0.11
-48.33,74.89,-41.96,-32.93,-35.37,-0.11
-48.33,74.89,-41.96,-32.93,-35.37,-0.11
-48.33,74.89,-41.96,-32.93,-35.37,-0.11
-48.33,74.89,-41.96,-32.93,-35.37,-0.11
-48.33,74.89,-41.96,-32.93,-35.37,-0.11
-48.33,74.89,-41.96,-32.93,-35.37,-0.11
-48.33,74.89,-41.96,-32.93,-35.37,-0.11
-48.33,74.89,-41.96,-32.93,-35.37,-0.11
-48.33,74.89,-41.96,-32.93,-35.37,-0.11
-48.33,74.89,-41.96,-32.93,-35.37,-0.11
-48.33,74.89,-41.96,-32.93,-35.37,-0.11
-48.33,74.89,-41.96,-32.93,-35.37,-0.11
-48.33,74.89,-41.96,-32.93,-35.37,-0.11
-48.33,74.89,-41.96,-32.93,-35.37,-0.11
-48.33,74.89,-41.96,-32.93,-35.37,-0.11
-48.33,74.89,-41.96,-32.93,-35.37,-0.11
-48.33,74.89,-41.96,-32.93,-35.37,-0.11
-48.33,74.89,-41.96,-32.93,-35.37,-0.11
-48.33,74.89,-41.96,-32.93,-35.37,-0.11
-48.33,74.89,-41.96,-32.93,-35.37,-0.11
-48.33,74.89,-41.96,-32.93,-35.37,-0.11
-48.33,74.89,-41.96,-32.93,-35.37,-0.11
-48.33,74.89,-41.96,-32.93,-35.37,-0.11
-48.33,74.89,-41.96,-32.93,-35.37,-0.11
-48.33,74.89,-41.96,-32.93,-35.37,-0.11
-48.33,74.89,-41.96,-32.93,-35.37,-0.11
-48.33,74.89,-41.96,-32.93,-35.37,-0.11
-48.33,74.89,-41.96,-32.93,-35.37,-0.11
-48.33,74.89,-41.96,-32.93,-35.37,-0.11
-48.33,74.89,-41.96,-32.93,-35.37,-0.11
-48.33,74.89,-41.96,-32.93,-35.37,-0.11
-48.33,74.89,-41.96,-32.93,-35.37,-0.11
-48.33,74.89,-41.96,-32.93,-35.37,-0.11
-48.33,74.89,-41.96,-32.93,-35.37,-0.11
-48.33,74.89,-41.96,-32.93,-35.37,-0.11
-48.33,74.89,-41.96,-32.93,-35.37,-0.11
-48.33,74.89,-41.96,-32.93,-35.37,-0.11
-48.33,74.89,-41.96,-32.93,-35.37,-0.11
-48.33,74.89,-41.96,-32.93,-35.37,-0.11
-48.33,74.89,-41.96,-32.93,-35.37,-0.11
-48.33,74.89,-41.96,-32.93,-35.37,-0.11
-48.33,74.89,-41.96,-32.93,-35.37,-0.11
-48.33,74.89,-41.96,-32.93,-35.37,-0.11
-48.33,74.89,-41.96,-32.93,-35.37,-0.11
-48.33,74.89,-41.96,-32.93,-35.37,-0.11
-48.33,74.89,-41.96,-32.93,-35.37,-0.11
-48.33,74.89,-41.96,-32.93,-35.37,-0.11
-48.33,74.89,-41.96,-32.93,-35.37,-0.11
-48.33,74.89,-41.96,-32.93,-35.37,-0.11
-48.33,74.89,-41.96,-32.93,-35.37,-0.11
-48.33,74.89,-41.96,-32.93,-35.37,-0.11
-48.33,74.89,-41.96,-32.93,-35.37,-0.11
-48.33,74.89,-41.96,-32.93,-35.37,-0.11
-48.33,74.89,-41.96,-32.93,-35.37,-0.11
-48.33,74.89,-41.96,-32.93,-35.37,-0.11
-48.33,74.89,-41.96,-32.93,-35.37,-0.11
-48.33,74.89,-41.96,-32.93,-35.37,-0.11
-48.33,74.89,-41.96,-32.93,-35.37,-0.11
-48.33,74.89,-41.96,-32.93,-35.37,-0.11
-48.33,74.89,-41.96,-32.93,-35.37,-0.11
-48.33,74.89,-41.96,-32.93,-35.37,-0.11
-48.33,74.89,-41.96,-32.93,-35.37,-0.11
-48.34,74.91,-41.96,-32.94,-35.37,-0.11
-48.34,74.91,-41.96,-32.94,-35.37,-0.11
-48.34,74.91,-41.96,-32.94,-35.37,-0.11
-48.34,74.91,-41.96,-32.94,-35.37,-0.11
-48.34,74.91,-41.96,-32.94,-35.37,-0.11
-48.34,74.91,-41.96,-32.94,-35.37,-0.11
-48.34,74.91,-41.96,-32.94,-35.37,-0.11
-48.34,74.91,-41.96,-32.94,-35.37,-0.11
-48.34,74.91,-41.96,-32.94,-35.37,-0.11
-48.34,74.91,-41.96,-32.94,-35.37,-0.11
-48.10,74.83,-41.95,-32.89,-35.58,-0.12
-48.10,74.83,-41.95,-32.89,-35.58,-0.12
-48.10,74.83,-41.95,-32.89,-35.58,-0.12
-48.10,74.83,-41.95,-32.89,-35.58,-0.12
-48.10,74.83,-41.95,-32.89,-35.58,-0.12
-48.10,74.83,-41.95,-32.89,-35.58,-0.12
-48.10,74.83,-41.95,-32.89,-35.58,-0.12
-48.10,74.83,-41.95,-32.89,-35.58,-0.12
-48.10,74.83,-41.95,-32.89,-35.58,-0.12
-48.10,74.83,-41.95,-32.89,-35.58,-0.12
-47.66,74.79,-41.93,-32.83,-36.06,-0.13
-47.66,74.79,-41.93,-32.83,-36.06,-0.13
-47.66,74.79,-41.93,-32.83,-36.06,-0.13
-47.66,74.79,-41.93,-32.83,-36.06,-0.13
-47.66,74.79,-41.93,-32.83,-36.06,-0.13
-47.66,74.79,-41.93,-32.83,-36.06,-0.13
-47.66,74.79,-41.93,-32.83,-36.06,-0.13
-47.66,74.79,-41.93,-32.83,-36.06,-0.13
-47.66,74.79,-41.93,-32.83,-36.06,-0.13
-47.66,74.79,-41.93,-32.83,-36.06,-0.13
-47.10,74.79,-41.92,-32.77,-36.69,-0.15
-47.10,74.79,-41.92,-32.77,-36.69,-0.15
-47.10,74.79,-41.92,-32.77,-36.69,-0.15
-47.10,74.79,-41.92,-32.77,-36.69,-0.15
-47.10,74.79,-41.92,-32.77,-36.69,-0.15
-47.10,74.79,-41.92,-32.77,-36.69,-0.15
-47.10,74.79,-41.92,-32.77,-36.69,-0.15
-47.10,74.79,-41.92,-32.77,-36.69,-0.15
-47.10,74.79,-41.92,-32.77,-36.69,-0.15
-47.10,74.79,-41.92,-32.77,-36.69,-0.15
-46.54,74.80,-41.90,-32.71,-37.35,-0.16
-46.54,74.80,-41.90,-32.71,-37.35,-0.16
-46.54,74.80,-41.90,-32.71,-37.35,-0.16
-46.54,74.80,-41.90,-32.71,-37.35,-0.16
-46.54,74.80,-41.90,-32.71,-37.35,-0.16
-46.54,74.80,-41.90,-32.71,-37.35,-0.16
-46.54,74.80,-41.90,-32.71,-37.35,-0.16
-46.54,74.80,-41.90,-32.71,-37.35,-0.16
-46.54,74.80,-41.90,-32.71,-37.35,-0.16
-46.54,74.80,-41.90,-32.71,-37.35,-0.16
-46.54,74.80,-41.90,-32.71,-37.35,-0.16
-46.54,74.80,-41.90,-32.71,-37.35,-0.16
-46.54,74.80,-41.90,-32.71,-37.35,-0.16
-46.54,74.80,-41.90,-32.71,-37.35,-0.16
-46.54,74.80,-41.90,-32.71,-37.35,-0.16
-46.54,74.80,-41.90,-32.71,-37.35,-0.16
-46.54,74.80,-41.90,-32.71,-37.35,-0.16
-46.06,74.81,-41.88,-32.66,-37.91,-0.17
-46.06,74.81,-41.88,-32.66,-37.91,-0.17
-46.06,74.81,-41.88,-32.66,-37.91,-0.17
-45.77,74.83,-41.87,-32.63,-38.25,-0.18
-45.77,74.83,-41.87,-32.63,-38.25,-0.18
-45.77,74.83,-41.87,-32.63,-38.25,-0.18
-45.77,74.83,-41.87,-32.63,-38.25,-0.18
-45.77,74.83,-41.87,-32.63,-38.25,-0.18
-45.77,74.83,-41.87,-32.63,-38.25,-0.18
-45.77,74.83,-41.87,-32.63,-38.25,-0.18
-45.77,74.83,-41.87,-32.63,-38.25,-0.18
-45.77,74.83,-41.87,-32.63,-38.25,-0.18
-45.77,74.83,-41.87,-32.63,-38.25,-0.18
-45.53,74.84,-41.87,-32.61,-38.54,-0.19
-45.53,74.84,-41.87,-32.61,-38.54,-0.19
-45.53,74.84,-41.87,-32.61,-38.54,-0.19
-45.53,74.84,-41.87,-32.61,-38.54,-0.19
-45.53,74.84,-41.87,-32.61,-38.54,-0.19
-45.53,74.84,-41.87,-32.61,-38.54,-0.19
-45.53,74.84,-41.87,-32.61,-38.54,-0.19
-45.53,74.84,-41.87,-32.61,-38.54,-0.19
-45.53,74.84,-41.87,-32.61,-38.54,-0.19
-45.53,74.84,-41.87,-32.61,-38.54,-0.19
-45.08,74.89,-41.85,-32.57,-39.09,-0.19
-45.08,74.89,-41.85,-32.57,-39.09,-0.19
-45.08,74.89,-41.85,-32.57,-39.09,-0.19
-45.08,74.89,-41.85,-32.57,-39.09,-0.19
-45.08,74.89,-41.85,-32.57,-39.09,-0.19
-45.08,74.89,-41.85,-32.57,-39.09,-0.19
-45.08,74.89,-41.85,-32.57,-39.09,-0.19
-45.08,74.89,-41.85,-32.57,-39.09,-0.19
-45.08,74.89,-41.85,-32.57,-39.09,-0.19
-45.08,74.89,-41.85,-32.57,-39.09,-0.19
-44.52,74.94,-41.84,-32.52,-39.78,-0.20
-44.52,74.94,-41.84,-32.52,-39.78,-0.20
-44.52,74.94,-41.84,-32.52,-39.78,-0.20
-44.52,74.94,-41.84,-32.52,-39.78,-0.20
-44.52,74.94,-41.84,-32.52,-39.78,-0.20
-44.52,74.94,-41.84,-32.52,-39.78,-0.20
-44.52,74.94,-41.84,-32.52,-39.78,-0.20
-44.52,74.94,-41.84,-32.52,-39.78,-0.20
-44.52,74.94,-41.84,-32.52,-39.78,-0.20
-44.52,74.94,-41.84,-32.52,-39.78,-0.20
-43.95,75.01,-41.82,-32.47,-40.49,-0.21
-43.95,75.01,-41.82,-32.47,-40.49,-0.21
-43.95,75.01,-41.82,-32.47,-40.49,-0.21
-43.95,75.01,-41.82,-32.47,-40.49,-0.21
-43.95,75.01,-41.82,-32.47,-40.49,-0.21
-43.95,75.01,-41.82,-32.47,-40.49,-0.21
-43.95,75.01,-41.82,-32.47,-40.49,-0.21
-43.95,75.01,-41.82,-32.47,-40.49,-0.21
-43.95,75.01,-41.82,-32.47,-40.49,-0.21
-43.95,75.01,-41.82,-32.47,-40.49,-0.21
-43.46,75.06,-41.81,-32.42,-41.08,-0.22
-43.46,75.06,-41.81,-32.42,-41.08,-0.22
-43.46,75.06,-41.81,-32.42,-41.08,-0.22
-43.46,75.06,-41.81,-32.42,-41.08,-0.22
-43.46,75.06,-41.81,-32.42,-41.08,-0.22
-43.46,75.06,-41.81,-32.42,-41.08,-0.22
-43.46,75.06,-41.81,-32.42,-41.08,-0.22
-43.46,75.06,-41.81,-32.42,-41.08,-0.22
-43.46,75.06,-41.81,-32.42,-41.08,-0.22
-43.46,75.06,-41.81,-32.42,-41.08,-0.22
-43.16,75.08,-41.80,-32.40,-41.45,-0.23
-43.16,75.08,-41.80,-32.40,-41.45,-0.23
-43.16,75.08,-41.80,-32.40,-41.45,-0.23
-43.16,75.08,-41.80,-32.40,-41.45,-0.23
-43.16,75.08,-41.80,-32.40,-41.45,-0.23
-43.16,75.08,-41.80,-32.40,-41.45,-0.23
-43.16,75.08,-41.80,-32.40,-41.45,-0.23
-43.16,75.08,-41.80,-32.40,-41.45,-0.23
-43.16,75.08,-41.80,-32.40,-41.45,-0.23
-43.16,75.08,-41.80,-32.40,-41.45,-0.23
-42.91,75.11,-41.79,-32.37,-41.75,-0.23
-42.91,75.11,-41.79,-32.37,-41.75,-0.23
-42.91,75.11,-41.79,-32.37,-41.75,-0.23
-42.91,75.11,-41.79,-32.37,-41.75,-0.23
-42.91,75.11,-41.79,-32.37,-41.75,-0.23
-42.91,75.11,-41.79,-32.37,-41.75,-0.23
-42.91,75.11,-41.79,-32.37,-41.75,-0.23
-42.91,75.11,-41.79,-32.37,-41.75,-0.23
-42.91,75.11,-41.79,-32.37,-41.75,-0.23
-42.91,75.11,-41.79,-32.37,-41.75,-0.23
-42.44,75.16,-41.78,-32.33,-42.33,-0.24
-42.44,75.16,-41.78,-32.33,-42.33,-0.24
-42.44,75.16,-41.78,-32.33,-42.33,-0.24
-42.44,75.16,-41.78,-32.33,-42.33,-0.24
-42.44,75.16,-41.78,-32.33,-42.33,-0.24
-42.44,75.16,-41.78,-32.33,-42.33,-0.24
-42.44,75.16,-41.78,-32.33,-42.33,-0.24
-42.44,75.16,-41.78,-32.33,-42.33,-0.24
-42.44,75.16,-41.78,-32.33,-42.33,-0.24
-42.44,75.16,-41.78,-32.33,-42.33,-0.24
-41.85,75.23,-41.76,-32.28,-43.06,-0.25
-41.85,75.23,-41.76,-32.28,-43.06,-0.25
-41.85,75.23,-41.76,-32.28,-43.06,-0.25
-41.85,75.23,-41.76,-32.28,-43.06,-0.25
-41.85,75.23,-41.76,-32.28,-43.06,-0.25
-41.85,75.23,-41.76,-32.28,-43.06,-0.25
-41.85,75.23,-41.76,-32.28,-43.06,-0.25
-41.85,75.23,-41.76,-32.28,-43.06,-0.25
-41.85,75.23,-41.76,-32.28,-43.06,-0.25
-41.85,75.23,-41.76,-32.28,-43.06,-0.25
-41.25,75.31,-41.74,-32.23,-43.81,-0.26
-41.25,75.31,-41.74,-32.23,-43.81,-0.26
-41.25,75.31,-41.74,-32.23,-43.81,-0.26
-41.25,75.31,-41.74,-32.23,-43.81,-0.26
-41.25,75.31,-41.74,-32.23,-43.81,-0.26
-41.25,75.31,-41.74,-32.23,-43.81,-0.26
-41.25,75.31,-41.74,-32.23,-43.81,-0.26
-41.25,75.31,-41.74,-32.23,-43.81,-0.26
-41.25,75.31,-41.74,-32.23,-43.81,-0.26
-41.25,75.31,-41.74,-32.23,-43.81,-0.26
-40.74,75.37,-41.73,-32.19,-44.44,-0.26
-40.74,75.37,-41.73,-32.19,-44.44,-0.26
-40.74,75.37,-41.73,-32.19,-44.44,-0.26
-40.74,75.37,-41.73,-32.19,-44.44,-0.26
-40.74,75.37,-41.73,-32.19,-44.44,-0.26
-40.74,75.37,-41.73,-32.19,-44.44,-0.26
-40.74,75.37,-41.73,-32.19,-44.44,-0.26
-40.74,75.37,-41.73,-32.19,-44.44,-0.26
-40.74,75.37,-41.73,-32.19,-44.44,-0.26
-40.74,75.37,-41.73,-32.19,-44.44,-0.26
-40.43,75.40,-41.72,-32.16,-44.83,-0.27
-40.43,75.40,-41.72,-32.16,-44.83,-0.27
-40.43,75.40,-41.72,-32.16,-44.83,-0.27
-40.43,75.40,-41.72,-32.16,-44.83,-0.27
-40.43,75.40,-41.72,-32.16,-44.83,-0.27
-40.43,75.40,-41.72,-32.16,-44.83,-0.27
-40.43,75.40,-41.72,-32.16,-44.83,-0.27
-40.43,75.40,-41.72,-32.16,-44.83,-0.27
-40.43,75.40,-41.72,-32.16,-44.83,-0.27
-40.43,75.40,-41.72,-32.16,-44.83,-0.27
-40.16,75.43,-41.71,-32.14,-45.15,-0.27
-40.16,75.43,-41.71,-32.14,-45.15,-0.27
-40.16,75.43,-41.71,-32.14,-45.15,-0.27
-40.16,75.43,-41.71,-32.14,-45.15,-0.27
-40.16,75.43,-41.71,-32.14,-45.15,-0.27
-40.16,75.43,-41.71,-32.14,-45.15,-0.27
-40.16,75.43,-41.71,-32.14,-45.15,-0.27
-40.16,75.43,-41.71,-32.14,-45.15,-0.27
-40.16,75.43,-41.71,-32.14,-45.15,-0.27
-40.16,75.43,-41.71,-32.14,-45.15,-0.27
-39.66,75.50,-41.70,-32.10,-45.78,-0.28
-39.66,75.50,-41.70,-32.10,-45.78,-0.28
-39.66,75.50,-41.70,-32.10,-45.78,-0.28
-39.66,75.50,-41.70,-32.10,-45.78,-0.28
-39.66,75.50,-41.70,-32.10,-45.78,-0.28
-39.66,75.50,-41.70,-32.10,-45.78,-0.28
-39.66,75.50,-41.70,-32.10,-45.78,-0.28
-39.66,75.50,-41.70,-32.10,-45.78,-0.28
-39.66,75.50,-41.70,-32.10,-45.78,-0.28
-39.66,75.50,-41.70,-32.10,-45.78,-0.28
-39.66,75.50,-41.70,-32.10,-45.78,-0.28
-39.03,75.59,-41.68,-32.04,-46.57,-0.29
-39.03,75.59,-41.68,-32.04,-46.57,-0.29
-39.03,75.59,-41.68,-32.04,-46.57,-0.29
-39.03,75.59,-41.68,-32.04,-46.57,-0.29
-39.03,75.59,-41.68,-32.04,-46.57,-0.29
-39.03,75.59,-41.68,-32.04,-46.57,-0.29
-39.03,75.59,-41.68,-32.04,-46.57,-0.29
-39.03,75.59,-41.68,-32.04,-46.57,-0.29
-39.03,75.59,-41.68,-32.04,-46.57,-0.29
-39.03,75.59,-41.68,-32.04,-46.57,-0.29
-38.39,75.68,-41.66,-31.99,-47.38,-0.30
-38.39,75.68,-41.66,-31.99,-47.38,-0.30
-38.39,75.68,-41.66,-31.99,-47.38,-0.30
-38.39,75.68,-41.66,-31.99,-47.38,-0.30
-38.39,75.68,-41.66,-31.99,-47.38,-0.30
-38.39,75.68,-41.66,-31.99,-47.38,-0.30
-38.39,75.68,-41.66,-31.99,-47.38,-0.30
-38.39,75.68,-41.66,-31.99,-47.38,-0.30
-38.39,75.68,-41.66,-31.99,-47.38,-0.30
-38.39,75.68,-41.66,-31.99,-47.38,-0.30
-37.84,75.76,-41.64,-31.95,-48.07,-0.30
-37.84,75.76,-41.64,-31.95,-48.07,-0.30
-37.84,75.76,-41.64,-31.95,-48.07,-0.30
-37.84,75.76,-41.64,-31.95,-48.07,-0.30
-37.84,75.76,-41.64,-31.95,-48.07,-0.30
-37.84,75.76,-41.64,-31.95,-48.07,-0.30
-37.84,75.76,-41.64,-31.95,-48.07,-0.30
-37.84,75.76,-41.64,-31.95,-48.07,-0.30
-37.84,75.76,-41.64,-31.95,-48.07,-0.30
-37.84,75.76,-41.64,-31.95,-48.07,-0.30
-37.51,75.80,-41.63,-31.92,-48.49,-0.31
-37.51,75.80,-41.63,-31.92,-48.49,-0.31
-37.51,75.80,-41.63,-31.92,-48.49,-0.31
-37.51,75.80,-41.63,-31.92,-48.49,-0.31
-37.51,75.80,-41.63,-31.92,-48.49,-0.31
-37.51,75.80,-41.63,-31.92,-48.49,-0.31
-37.51,75.80,-41.63,-31.92,-48.49,-0.31
-37.51,75.80,-41.63,-31.92,-48.49,-0.31
-37.51,75.80,-41.63,-31.92,-48.49,-0.31
-37.51,75.80,-41.63,-31.92,-48.49,-0.31
-37.78,75.83,-41.64,-31.96,-48.19,-0.31
-37.78,75.83,-41.64,-31.96,-48.19,-0.31
-37.78,75.83,-41.64,-31.96,-48.19,-0.31
-37.78,75.83,-41.64,-31.96,-48.19,-0.31
-37.78,75.83,-41.64,-31.96,-48.19,-0.31
-37.78,75.83,-41.64,-31.96,-48.19,-0.31
-37.78,75.83,-41.64,-31.96,-48.19,-0.31
-37.78,75.83,-41.64,-31.96,-48.19,-0.31
-37.78,75.83,-41.64,-31.96,-48.19,-0.31
-37.78,75.83,-41.64,-31.96,-48.19,-0.31
-37.70,75.53,-41.63,-31.86,-48.16,-0.30
-37.70,75.53,-41.63,-31.86,-48.16,-0.30
-37.70,75.53,-41.63,-31.86,-48.16,-0.30
-37.70,75.53,-41.63,-31.86,-48.16,-0.30
-37.70,75.53,-41.63,-31.86,-48.16,-0.30
-37.70,75.53,-41.63,-31.86,-48.16,-0.30
-37.70,75.53,-41.63,-31.86,-48.16,-0.30
-37.70,75.53,-41.63,-31.86,-48.16,-0.30
-37.70,75.53,-41.63,-31.86,-48.16,-0.30
-37.70,75.53,-41.63,-31.86,-48.16,-0.30
-37.56,75.12,-41.64,-31.73,-48.52,-0.29
-37.56,75.12,-41.64,-31.73,-48.52,-0.29
-37.56,75.12,-41.64,-31.73,-48.52,-0.29
-37.56,75.12,-41.64,-31.73,-48.52,-0.29
-37.56,75.12,-41.64,-31.73,-48.52,-0.29
-37.56,75.12,-41.64,-31.73,-48.52,-0.29
-37.56,75.12,-41.64,-31.73,-48.52,-0.29
-37.56,75.12,-41.64,-31.73,-48.52,-0.29
-37.56,75.12,-41.64,-31.73,-48.52,-0.29
-37.56,75.12,-41.64,-31.73,-48.52,-0.29
-37.49,74.66,-41.66,-31.59,-49.06,-0.29
-37.49,74.66,-41.66,-31.59,-49.06,-0.29
-37.49,74.66,-41.66,-31.59,-49.06,-0.29
-37.49,74.66,-41.66,-31.59,-49.06,-0.29
-37.49,74.66,-41.66,-31.59,-49.06,-0.29
-37.49,74.66,-41.66,-31.59,-49.06,-0.29
-37.49,74.66,-41.66,-31.59,-49.06,-0.29
-37.49,74.66,-41.66,-31.59,-49.06,-0.29
-37.49,74.66,-41.66,-31.59,-49.06,-0.29
-37.49,74.66,-41.66,-31.59,-49.06,-0.29
-37.45,74.20,-41.69,-31.47,-49.66,-0.28
-37.45,74.20,-41.69,-31.47,-49.66,-0.28
-37.45,74.20,-41.69,-31.47,-49.66,-0.28
-37.45,74.20,-41.69,-31.47,-49.66,-0.28
-37.45,74.20,-41.69,-31.47,-49.66,-0.28
-37.45,74.20,-41.69,-31.47,-49.66,-0.28
-37.45,74.20,-41.69,-31.47,-49.66,-0.28
-37.45,74.20,-41.69,-31.47,-49.66,-0.28
-37.45,74.20,-41.69,-31.47,-49.66,-0.28
-37.45,74.20,-41.69,-31.47,-49.66,-0.28
-37.44,73.80,-41.72,-31.36,-50.23,-0.27
-37.44,73.80,-41.72,-31.36,-50.23,-0.27
-37.44,73.80,-41.72,-31.36,-50.23,-0.27
-37.44,73.80,-41.72,-31.36,-50.23,-0.27
-37.44,73.80,-41.72,-31.36,-50.23,-0.27
-37.44,73.80,-41.72,-31.36,-50.23,-0.27
-37.44,73.80,-41.72,-31.36,-50.23,-0.27
-37.44,73.80,-41.72,-31.36,-50.23,-0.27
-37.44,73.80,-41.72,-31.36,-50.23,-0.27
-37.44,73.80,-41.72,-31.36,-50.23,-0.27
-37.49,74.03,-41.71,-31.43,-49.98,-0.28
-37.49,74.03,-41.71,-31.43,-49.98,-0.28
-37.49,74.03,-41.71,-31.43,-49.98,-0.28
-37.49,74.03,-41.71,-31.43,-49.98,-0.28
-37.49,74.03,-41.71,-31.43,-49.98,-0.28
-37.49,74.03,-41.71,-31.43,-49.98,-0.28
-37.49,74.03,-41.71,-31.43,-49.98,-0.28
-37.49,74.03,-41.71,-31.43,-49.98,-0.28
-37.49,74.03,-41.71,-31.43,-49.98,-0.28
-37.49,74.03,-41.71,-31.43,-49.98,-0.28
-37.49,74.03,-41.71,-31.43,-49.98,-0.28
-37.28,74.04,-41.68,-31.40,-49.69,-0.27
-37.28,74.04,-41.68,-31.40,-49.69,-0.27
-37.28,74.04,-41.68,-31.40,-49.69,-0.27
-37.28,74.04,-41.68,-31.40,-49.69,-0.27
-37.28,74.04,-41.68,-31.40,-49.69,-0.27
-37.28,74.04,-41.68,-31.40,-49.69,-0.27
-37.28,74.04,-41.68,-31.40,-49.69,-0.27
-37.28,74.04,-41.68,-31.40,-49.69,-0.27
-37.28,74.04,-41.68,-31.40,-49.69,-0.27
-36.87,73.78,-41.67,-31.28,-49.87,-0.26
-36.87,73.78,-41.67,-31.28,-49.87,-0.26
-36.87,73.78,-41.67,-31.28,-49.87,-0.26
-36.87,73.78,-41.67,-31.28,-49.87,-0.26
-36.87,73.78,-41.67,-31.28,-49.87,-0.26
-36.87,73.78,-41.67,-31.28,-49.87,-0.26
-36.87,73.78,-41.67,-31.28,-49.87,-0.26
-36.87,73.78,-41.67,-31.28,-49.87,-0.26
-36.87,73.78,-41.67,-31.28,-49.87,-0.26
-36.87,73.78,-41.67,-31.28,-49.87,-0.26
-36.35,73.55,-41.68,-31.17,-50.16,-0.25
-36.35,73.55,-41.68,-31.17,-50.16,-0.25
-36.35,73.55,-41.68,-31.17,-50.16,-0.25
-36.35,73.55,-41.68,-31.17,-50.16,-0.25
-36.35,73.55,-41.68,-31.17,-50.16,-0.25
-36.35,73.55,-41.68,-31.17,-50.16,-0.25
-36.35,73.55,-41.68,-31.17,-50.16,-0.25
-36.35,73.55,-41.68,-31.17,-50.16,-0.25
-36.35,73.55,-41.68,-31.17,-50.16,-0.25
-36.35,73.55,-41.68,-31.17,-50.16,-0.25
-35.77,73.34,-41.69,-31.07,-50.52,-0.24
-35.77,73.34,-41.69,-31.07,-50.52,-0.24
-35.77,73.34,-41.69,-31.07,-50.52,-0.24
-35.77,73.34,-41.69,-31.07,-50.52,-0.24
-35.77,73.34,-41.69,-31.07,-50.52,-0.24
-35.77,73.34,-41.69,-31.07,-50.52,-0.24
-35.77,73.34,-41.69,-31.07,-50.52,-0.24
-35.77,73.34,-41.69,-31.07,-50.52,-0.24
-35.77,73.34,-41.69,-31.07,-50.52,-0.24
-35.77,73.34,-41.69,-31.07,-50.52,-0.24
-35.15,73.17,-41.72,-30.98,-50.93,-0.22
-35.15,73.17,-41.72,-30.98,-50.93,-0.22
-35.15,73.17,-41.72,-30.98,-50.93,-0.22
-35.15,73.17,-41.72,-30.98,-50.93,-0.22
-35.15,73.17,-41.72,-30.98,-50.93,-0.22
-35.15,73.17,-41.72,-30.98,-50.93,-0.22
-35.15,73.17,-41.72,-30.98,-50.93,-0.22
-35.15,73.17,-41.72,-30.98,-50.93,-0.22
-35.15,73.17,-41.72,-30.98,-50.93,-0.22
-35.15,73.17,-41.72,-30.98,-50.93,-0.22
-35.15,73.17,-41.72,-30.98,-50.93,-0.22
-34.99,73.16,-41.73,-30.98,-51.07,-0.22
-34.99,73.16,-41.73,-30.98,-51.07,-0.22
-34.99,73.16,-41.73,-30.98,-51.07,-0.22
-34.99,73.16,-41.73,-30.98,-51.07,-0.22
-34.99,73.16,-41.73,-30.98,-51.07,-0.22
-34.99,73.16,-41.73,-30.98,-51.07,-0.22
-34.99,73.16,-41.73,-30.98,-51.07,-0.22
-34.99,73.16,-41.73,-30.98,-51.07,-0.22
-34.99,73.16,-41.73,-30.98,-51.07,-0.22
-35.05,73.01,-41.70,-30.91,-50.96,-0.21
-35.05,73.01,-41.70,-30.91,-50.96,-0.21
-35.05,73.01,-41.70,-30.91,-50.96,-0.21
-35.05,73.01,-41.70,-30.91,-50.96,-0.21
-35.05,73.01,-41.70,-30.91,-50.96,-0.21
-35.05,73.01,-41.70,-30.91,-50.96,-0.21
-35.05,73.01,-41.70,-30.91,-50.96,-0.21
-35.05,73.01,-41.70,-30.91,-50.96,-0.21
-35.05,73.01,-41.70,-30.91,-50.96,-0.21
-35.05,73.01,-41.70,-30.91,-50.96,-0.21
-34.98,72.67,-41.69,-30.79,-51.12,-0.19
-34.98,72.67,-41.69,-30.79,-51.12,-0.19
-34.98,72.67,-41.69,-30.79,-51.12,-0.19
-34.98,72.67,-41.69,-30.79,-51.12,-0.19
-34.98,72.67,-41.69,-30.79,-51.12,-0.19
-34.98,72.67,-41.69,-30.79,-51.12,-0.19
-34.98,72.67,-41.69,-30.79,-51.12,-0.19
-34.98,72.67,-41.69,-30.79,-51.12,-0.19
-34.98,72.67,-41.69,-30.79,-51.12,-0.19
-34.98,72.67,-41.69,-30.79,-51.12,-0.19
-35.02,72.28,-41.69,-30.67,-51.38,-0.16
-35.02,72.28,-41.69,-30.67,-51.38,-0.16
-35.02,72.28,-41.69,-30.67,-51.38,-0.16
-35.02,72.28,-41.69,-30.67,-51.38,-0.16
-35.02,72.28,-41.69,-30.67,-51.38,-0.16
-35.02,72.28,-41.69,-30.67,-51.38,-0.16
-35.02,72.28,-41.69,-30.67,-51.38,-0.16
-35.02,72.28,-41.69,-30.67,-51.38,-0.16
-35.02,72.28,-41.69,-30.67,-51.38,-0.16
-35.02,72.28,-41.69,-30.67,-51.38,-0.16
-35.02,72.28,-41.69,-30.67,-51.38,-0.16
-35.14,71.87,-41.70,-30.55,-51.73,-0.14
-35.14,71.87,-41.70,-30.55,-51.73,-0.14
-35.14,71.87,-41.70,-30.55,-51.73,-0.14
-35.14,71.87,-41.70,-30.55,-51.73,-0.14
-35.14,71.87,-41.70,-30.55,-51.73,-0.14
-35.14,71.87,-41.70,-30.55,-51.73,-0.14
-35.14,71.87,-41.70,-30.55,-51.73,-0.14
-35.14,71.87,-41.70,-30.55,-51.73,-0.14
-35.14,71.87,-41.70,-30.55,-51.73,-0.14
-35.14,71.87,-41.70,-30.55,-51.73,-0.14
-35.29,71.45,-41.72,-30.45,-52.13,-0.12
-35.29,71.45,-41.72,-30.45,-52.13,-0.12
-35.29,71.45,-41.72,-30.45,-52.13,-0.12
-35.29,71.45,-41.72,-30.45,-52.13,-0.12
-35.29,71.45,-41.72,-30.45,-52.13,-0.12
-35.29,71.45,-41.72,-30.45,-52.13,-0.12
-35.29,71.45,-41.72,-30.45,-52.13,-0.12
-35.29,71.45,-41.72,-30.45,-52.13,-0.12
-35.29,71.45,-41.72,-30.45,-52.13,-0.12
-35.29,71.45,-41.72,-30.45,-52.13,-0.12
-35.43,71.10,-41.75,-30.37,-52.50,-0.11
-35.43,71.10,-41.75,-30.37,-52.50,-0.11
-35.43,71.10,-41.75,-30.37,-52.50,-0.11
-35.43,71.10,-41.75,-30.37,-52.50,-0.11
-35.43,71.10,-41.75,-30.37,-52.50,-0.11
-35.43,71.10,-41.75,-30.37,-52.50,-0.11
-35.43,71.10,-41.75,-30.37,-52.50,-0.11
-35.43,71.10,-41.75,-30.37,-52.50,-0.11
-35.43,71.10,-41.75,-30.37,-52.50,-0.11
-35.43,71.10,-41.75,-30.37,-52.50,-0.11
-35.25,71.42,-41.71,-30.43,-52.13,-0.12
-35.25,71.42,-41.71,-30.43,-52.13,-0.12
-35.25,71.42,-41.71,-30.43,-52.13,-0.12
-35.25,71.42,-41.71,-30.43,-52.13,-0.12
-35.25,71.42,-41.71,-30.43,-52.13,-0.12
-35.25,71.42,-41.71,-30.43,-52.13,-0.12
-35.25,71.42,-41.71,-30.43,-52.13,-0.12
-35.25,71.42,-41.71,-30.43,-52.13,-0.12
-35.25,71.42,-41.71,-30.43,-52.13,-0.12
-35.25,71.42,-41.71,-30.43,-52.13,-0.12
-35.02,71.12,-41.70,-30.30,-52.21,-0.09
-35.02,71.12,-41.70,-30.30,-52.21,-0.09
-35.02,71.12,-41.70,-30.30,-52.21,-0.09
-35.02,71.12,-41.70,-30.30,-52.21,-0.09
-35.02,71.12,-41.70,-30.30,-52.21,-0.09
-35.02,71.12,-41.70,-30.30,-52.21,-0.09
-35.02,71.12,-41.70,-30.30,-52.21,-0.09
-35.02,71.12,-41.70,-30.30,-52.21,-0.09
-35.02,71.12,-41.70,-30.30,-52.21,-0.09
-35.02,71.12,-41.70,-30.30,-52.21,-0.09
-34.82,70.78,-41.71,-30.17,-52.42,-0.06
-34.82,70.78,-41.71,-30.17,-52.42,-0.06
-34.82,70.78,-41.71,-30.17,-52.42,-0.06
-34.82,70.78,-41.71,-30.17,-52.42,-0.06
-34.82,70.78,-41.71,-30.17,-52.42,-0.06
-34.82,70.78,-41.71,-30.17,-52.42,-0.06
-34.82,70.78,-41.71,-30.17,-52.42,-0.06
-34.82,70.78,-41.71,-30.17,-52.42,-0.06
-34.82,70.78,-41.71,-30.17,-52.42,-0.06
-34.82,70.78,-41.71,-30.17,-52.42,-0.06
-34.62,70.40,-41.73,-30.03,-52.72,-0.03
-34.62,70.40,-41.73,-30.03,-52.72,-0.03
-34.62,70.40,-41.73,-30.03,-52.72,-0.03
-34.62,70.40,-41.73,-30.03,-52.72,-0.03
-34.62,70.40,-41.73,-30.03,-52.72,-0.03
-34.62,70.40,-41.73,-30.03,-52.72,-0.03
-34.62,70.40,-41.73,-30.03,-52.72,-0.03
-34.62,70.40,-41.73,-30.03,-52.72,-0.03
-34.62,70.40,-41.73,-30.03,-52.72,-0.03
-34.62,70.40,-41.73,-30.03,-52.72,-0.03
-34.43,70.02,-41.78,-29.90,-53.08,-0.01
-34.43,70.02,-41.78,-29.90,-53.08,-0.01
-34.43,70.02,-41.78,-29.90,-53.08,-0.01
-34.43,70.02,-41.78,-29.90,-53.08,-0.01
-34.43,70.02,-41.78,-29.90,-53.08,-0.01
-34.43,70.02,-41.78,-29.90,-53.08,-0.01
-34.43,70.02,-41.78,-29.90,-53.08,-0.01
-34.43,70.02,-41.78,-29.90,-53.08,-0.01
-34.43,70.02,-41.78,-29.90,-53.08,-0.01
-34.43,70.02,-41.78,-29.90,-53.08,-0.01
-34.24,69.66,-41.84,-29.78,-53.46,0.01
-34.24,69.66,-41.84,-29.78,-53.46,0.01
-34.24,69.66,-41.84,-29.78,-53.46,0.01
-34.24,69.66,-41.84,-29.78,-53.46,0.01
-34.24,69.66,-41.84,-29.78,-53.46,0.01
-34.24,69.66,-41.84,-29.78,-53.46,0.01
-34.24,69.66,-41.84,-29.78,-53.46,0.01
-34.24,69.66,-41.84,-29.78,-53.46,0.01
-34.24,69.66,-41.84,-29.78,-53.46,0.01
-34.24,69.66,-41.84,-29.78,-53.46,0.01
-34.44,70.04,-41.78,-29.91,-53.08,-0.01
-34.44,70.04,-41.78,-29.91,-53.08,-0.01
-34.44,70.04,-41.78,-29.91,-53.08,-0.01
-34.44,70.04,-41.78,-29.91,-53.08,-0.01
-34.44,70.04,-41.78,-29.91,-53.08,-0.01
-34.44,70.04,-41.78,-29.91,-53.08,-0.01
-34.44,70.04,-41.78,-29.91,-53.08,-0.01
-34.44,70.04,-41.78,-29.91,-53.08,-0.01
-34.44,70.04,-41.78,-29.91,-53.08,-0.01
-34.44,70.04,-41.78,-29.91,-53.08,-0.01
-34.14,69.83,-41.75,-29.79,-53.12,0.02
-34.14,69.83,-41.75,-29.79,-53.12,0.02
-34.14,69.83,-41.75,-29.79,-53.12,0.02
-34.14,69.83,-41.75,-29.79,-53.12,0.02
-34.14,69.83,-41.75,-29.79,-53.12,0.02
-34.14,69.83,-41.75,-29.79,-53.12,0.02
-34.14,69.83,-41.75,-29.79,-53.12,0.02
-34.14,69.83,-41.75,-29.79,-53.12,0.02
-34.14,69.83,-41.75,-29.79,-53.12,0.02
-34.14,69.83,-41.75,-29.79,-53.12,0.02
-33.71,69.64,-41.74,-29.69,-53.30,0.06
-33.71,69.64,-41.74,-29.69,-53.30,0.06
-33.71,69.64,-41.74,-29.69,-53.30,0.06
-33.71,69.64,-41.74,-29.69,-53.30,0.06
-33.71,69.64,-41.74,-29.69,-53.30,0.06
-33.71,69.64,-41.74,-29.69,-53.30,0.06
-33.71,69.64,-41.74,-29.69,-53.30,0.06
-33.71,69.64,-41.74,-29.69,-53.30,0.06
-33.71,69.64,-41.74,-29.69,-53.30,0.06
-33.71,69.64,-41.74,-29.69,-53.30,0.06
-33.20,69.49,-41.73,-29.59,-53.57,0.09
-33.20,69.49,-41.73,-29.59,-53.57,0.09
-33.20,69.49,-41.73,-29.59,-53.57,0.09
-33.20,69.49,-41.73,-29.59,-53.57,0.09
-33.20,69.49,-41.73,-29.59,-53.57,0.09
-33.20,69.49,-41.73,-29.59,-53.57,0.09
-33.20,69.49,-41.73,-29.59,-53.57,0.09
-33.20,69.49,-41.73,-29.59,-53.57,0.09
-33.20,69.49,-41.73,-29.59,-53.57,0.09
-33.20,69.49,-41.73,-29.59,-53.57,0.09
-32.62,69.36,-41.74,-29.51,-53.91,0.12
-32.62,69.36,-41.74,-29.51,-53.91,0.12
-32.62,69.36,-41.74,-29.51,-53.91,0.12
-32.62,69.36,-41.74,-29.51,-53.91,0.12
-32.62,69.36,-41.74,-29.51,-53.91,0.12
-32.62,69.36,-41.74,-29.51,-53.91,0.12
-32.62,69.36,-41.74,-29.51,-53.91,0.12
-32.62,69.36,-41.74,-29.51,-53.91,0.12
-32.62,69.36,-41.74,-29.51,-53.91,0.12
-32.62,69.36,-41.74,-29.51,-53.91,0.12
-32.62,69.36,-41.74,-29.51,-53.91,0.12
-32.62,69.36,-41.74,-29.51,-53.91,0.12
-32.04,69.26,-41.76,-29.43,-54.29,0.15
-32.04,69.26,-41.76,-29.43,-54.29,0.15
-32.04,69.26,-41.76,-29.43,-54.29,0.15
-32.04,69.26,-41.76,-29.43,-54.29,0.15
-32.04,69.26,-41.76,-29.43,-54.29,0.15
-32.04,69.26,-41.76,-29.43,-54.29,0.15
-32.04,69.26,-41.76,-29.43,-54.29,0.15
-32.04,69.26,-41.76,-29.43,-54.29,0.15
-32.46,69.37,-41.76,-29.50,-54.05,0.12
-32.46,69.37,-41.76,-29.50,-54.05,0.12
-32.46,69.37,-41.76,-29.50,-54.05,0.12
-32.46,69.37,-41.76,-29.50,-54.05,0.12
-32.46,69.37,-41.76,-29.50,-54.05,0.12
-32.46,69.37,-41.76,-29.50,-54.05,0.12
-32.46,69.37,-41.76,-29.50,-54.05,0.12
-32.46,69.37,-41.76,-29.50,-54.05,0.12
-32.46,69.37,-41.76,-29.50,-54.05,0.12
-32.46,69.37,-41.76,-29.50,-54.05,0.12
-32.46,69.37,-41.76,-29.50,-54.05,0.12
-32.48,69.19,-41.72,-29.43,-53.93,0.16
-32.48,69.19,-41.72,-29.43,-53.93,0.16
-32.48,69.19,-41.72,-29.43,-53.93,0.16
-32.48,69.19,-41.72,-29.43,-53.93,0.16
-32.48,69.19,-41.72,-29.43,-53.93,0.16
-32.48,69.19,-41.72,-29.43,-53.93,0.16
-32.48,69.19,-41.72,-29.43,-53.93,0.16
-32.48,69.19,-41.72,-29.43,-53.93,0.16
-32.48,69.19,-41.72,-29.43,-53.93,0.16
-32.25,68.82,-41.74,-29.33,-54.07,0.20
-32.25,68.82,-41.74,-29.33,-54.07,0.20
-32.25,68.82,-41.74,-29.33,-54.07,0.20
-32.25,68.82,-41.74,-29.33,-54.07,0.20
-32.25,68.82,-41.74,-29.33,-54.07,0.20
-32.25,68.82,-41.74,-29.33,-54.07,0.20
-32.25,68.82,-41.74,-29.33,-54.07,0.20
-32.25,68.82,-41.74,-29.33,-54.07,0.20
-32.25,68.82,-41.74,-29.33,-54.07,0.20
-32.25,68.82,-41.74,-29.33,-54.07,0.20
-32.02,68.37,-41.78,-29.23,-54.31,0.24
-32.02,68.37,-41.78,-29.23,-54.31,0.24
-32.02,68.37,-41.78,-29.23,-54.31,0.24
-32.02,68.37,-41.78,-29.23,-54.31,0.24
-32.02,68.37,-41.78,-29.23,-54.31,0.24
-32.02,68.37,-41.78,-29.23,-54.31,0.24
-32.02,68.37,-41.78,-29.23,-54.31,0.24
-32.02,68.37,-41.78,-29.23,-54.31,0.24
-32.02,68.37,-41.78,-29.23,-54.31,0.24
-32.02,68.37,-41.78,-29.23,-54.31,0.24
-32.02,68.37,-41.78,-29.23,-54.31,0.24
-31.79,67.88,-41.86,-29.15,-54.63,0.28
-31.79,67.88,-41.86,-29.15,-54.63,0.28
-31.79,67.88,-41.86,-29.15,-54.63,0.28
-31.79,67.88,-41.86,-29.15,-54.63,0.28
-31.79,67.88,-41.86,-29.15,-54.63,0.28
-31.79,67.88,-41.86,-29.15,-54.63,0.28
-31.79,67.88,-41.86,-29.15,-54.63,0.28
-31.79,67.88,-41.86,-29.15,-54.63,0.28
-31.79,67.88,-41.86,-29.15,-54.63,0.28
-31.79,67.88,-41.86,-29.15,-54.63,0.28
-31.55,67.38,-41.95,-29.08,-54.98,0.32
-31.55,67.38,-41.95,-29.08,-54.98,0.32
-31.55,67.38,-41.95,-29.08,-54.98,0.32
-31.55,67.38,-41.95,-29.08,-54.98,0.32
-31.55,67.38,-41.95,-29.08,-54.98,0.32
-31.55,67.38,-41.95,-29.08,-54.98,0.32
-31.55,67.38,-41.95,-29.08,-54.98,0.32
-31.55,67.38,-41.95,-29.08,-54.98,0.32
-31.55,67.38,-41.95,-29.08,-54.98,0.32
-31.55,67.38,-41.95,-29.08,-54.98,0.32
-31.53,67.29,-41.98,-29.08,-55.09,0.32
-31.53,67.29,-41.98,-29.08,-55.09,0.32
-31.53,67.29,-41.98,-29.08,-55.09,0.32
-31.53,67.29,-41.98,-29.08,-55.09,0.32
-31.53,67.29,-41.98,-29.08,-55.09,0.32
-31.53,67.29,-41.98,-29.08,-55.09,0.32
-31.53,67.29,-41.98,-29.08,-55.09,0.32
-31.53,67.29,-41.98,-29.08,-55.09,0.32
-31.53,67.29,-41.98,-29.08,-55.09,0.32
-31.53,67.29,-41.98,-29.08,-55.09,0.32
-31.42,67.23,-41.94,-29.02,-54.98,0.35
-31.42,67.23,-41.94,-29.02,-54.98,0.35
-31.42,67.23,-41.94,-29.02,-54.98,0.35
-31.42,67.23,-41.94,-29.02,-54.98,0.35
-31.42,67.23,-41.94,-29.02,-54.98,0.35
-31.42,67.23,-41.94,-29.02,-54.98,0.35
-31.42,67.23,-41.94,-29.02,-54.98,0.35
-31.42,67.23,-41.94,-29.02,-54.98,0.35
-31.42,67.23,-41.94,-29.02,-54.98,0.35
-31.42,67.23,-41.94,-29.02,-54.98,0.35
-31.11,66.74,-42.04,-28.96,-55.08,0.40
-31.11,66.74,-42.04,-28.96,-55.08,0.40
-31.11,66.74,-42.04,-28.96,-55.08,0.40
-31.11,66.74,-42.04,-28.96,-55.08,0.40
-31.11,66.74,-42.04,-28.96,-55.08,0.40
-31.11,66.74,-42.04,-28.96,-55.08,0.40
-31.11,66.74,-42.04,-28.96,-55.08,0.40
-31.11,66.74,-42.04,-28.96,-55.08,0.40
-31.11,66.74,-42.04,-28.96,-55.08,0.40
-31.11,66.74,-42.04,-28.96,-55.08,0.40
-30.72,66.09,-42.24,-28.94,-55.26,0.45
-30.72,66.09,-42.24,-28.94,-55.26,0.45
-30.72,66.09,-42.24,-28.94,-55.26,0.45
-30.72,66.09,-42.24,-28.94,-55.26,0.45
-30.72,66.09,-42.24,-28.94,-55.26,0.45
-30.72,66.09,-42.24,-28.94,-55.26,0.45
-30.72,66.09,-42.24,-28.94,-55.26,0.45
-30.72,66.09,-42.24,-28.94,-55.26,0.45
-30.72,66.09,-42.24,-28.94,-55.26,0.45
-30.72,66.09,-42.24,-28.94,-55.26,0.45
-30.29,65.36,-42.47,-28.93,-55.52,0.49
-30.29,65.36,-42.47,-28.93,-55.52,0.49
-30.29,65.36,-42.47,-28.93,-55.52,0.49
-30.29,65.36,-42.47,-28.93,-55.52,0.49
-30.29,65.36,-42.47,-28.93,-55.52,0.49
-30.29,65.36,-42.47,-28.93,-55.52,0.49
-30.29,65.36,-42.47,-28.93,-55.52,0.49
-30.29,65.36,-42.47,-28.93,-55.52,0.49
-30.29,65.36,-42.47,-28.93,-55.52,0.49
-30.29,65.36,-42.47,-28.93,-55.52,0.49
-29.83,64.66,-42.69,-28.94,-55.82,0.53
-29.83,64.66,-42.69,-28.94,-55.82,0.53
-29.83,64.66,-42.69,-28.94,-55.82,0.53
-29.83,64.66,-42.69,-28.94,-55.82,0.53
-29.83,64.66,-42.69,-28.94,-55.82,0.53
-29.83,64.66,-42.69,-28.94,-55.82,0.53
-29.83,64.66,-42.69,-28.94,-55.82,0.53
-29.83,64.66,-42.69,-28.94,-55.82,0.53
-29.83,64.66,-42.69,-28.94,-55.82,0.53
-29.83,64.66,-42.69,-28.94,-55.82,0.53
-29.41,64.14,-42.85,-28.96,-56.11,0.56
-29.41,64.14,-42.85,-28.96,-56.11,0.56
-29.41,64.14,-42.85,-28.96,-56.11,0.56
-29.41,64.14,-42.85,-28.96,-56.11,0.56
-29.41,64.14,-42.85,-28.96,-56.11,0.56
-29.41,64.14,-42.85,-28.96,-56.11,0.56
-29.41,64.14,-42.85,-28.96,-56.11,0.56
-29.41,64.14,-42.85,-28.96,-56.11,0.56
-29.41,64.14,-42.85,-28.96,-56.11,0.56
-29.41,64.14,-42.85,-28.96,-56.11,0.56
-29.80,64.64,-42.68,-28.93,-55.81,0.54
-29.80,64.64,-42.68,-28.93,-55.81,0.54
-29.80,64.64,-42.68,-28.93,-55.81,0.54
-29.80,64.64,-42.68,-28.93,-55.81,0.54
-29.80,64.64,-42.68,-28.93,-55.81,0.54
-29.80,64.64,-42.68,-28.93,-55.81,0.54
-29.80,64.64,-42.68,-28.93,-55.81,0.54
-29.80,64.64,-42.68,-28.93,-55.81,0.54
-29.80,64.64,-42.68,-28.93,-55.81,0.54
-29.80,64.64,-42.68,-28.93,-55.81,0.54
-29.58,64.45,-42.64,-28.83,-55.86,0.60
-29.58,64.45,-42.64,-28.83,-55.86,0.60
-29.58,64.45,-42.64,-28.83,-55.86,0.60
-29.58,64.45,-42.64,-28.83,-55.86,0.60
-29.58,64.45,-42.64,-28.83,-55.86,0.60
-29.58,64.45,-42.64,-28.83,-55.86,0.60
-29.58,64.45,-42.64,-28.83,-55.86,0.60
-29.58,64.45,-42.64,-28.83,-55.86,0.60
-29.58,64.45,-42.64,-28.83,-55.86,0.60
-29.58,64.45,-42.64,-28.83,-55.86,0.60
-29.29,64.19,-42.62,-28.74,-56.03,0.65
-29.29,64.19,-42.62,-28.74,-56.03,0.65
-29.29,64.19,-42.62,-28.74,-56.03,0.65
-29.29,64.19,-42.62,-28.74,-56.03,0.65
-29.29,64.19,-42.62,-28.74,-56.03,0.65
-29.29,64.19,-42.62,-28.74,-56.03,0.65
-29.29,64.19,-42.62,-28.74,-56.03,0.65
-29.29,64.19,-42.62,-28.74,-56.03,0.65
-29.29,64.19,-42.62,-28.74,-56.03,0.65
-29.29,64.19,-42.62,-28.74,-56.03,0.65
-28.96,63.89,-42.62,-28.66,-56.28,0.70
-28.96,63.89,-42.62,-28.66,-56.28,0.70
-28.96,63.89,-42.62,-28.66,-56.28,0.70
-28.96,63.89,-42.62,-28.66,-56.28,0.70
-28.96,63.89,-42.62,-28.66,-56.28,0.70
-28.96,63.89,-42.62,-28.66,-56.28,0.70
-28.96,63.89,-42.62,-28.66,-56.28,0.70
-28.96,63.89,-42.62,-28.66,-56.28,0.70
-28.96,63.89,-42.62,-28.66,-56.28,0.70
-28.96,63.89,-42.62,-28.66,-56.28,0.70
-28.61,63.58,-42.64,-28.60,-56.59,0.74
-28.61,63.58,-42.64,-28.60,-56.59,0.74
-28.61,63.58,-42.64,-28.60,-56.59,0.74
-28.61,63.58,-42.64,-28.60,-56.59,0.74
-28.61,63.58,-42.64,-28.60,-56.59,0.74
-28.61,63.58,-42.64,-28.60,-56.59,0.74
-28.61,63.58,-42.64,-28.60,-56.59,0.74
-28.61,63.58,-42.64,-28.60,-56.59,0.74
-28.61,63.58,-42.64,-28.60,-56.59,0.74
-28.61,63.58,-42.64,-28.60,-56.59,0.74
-28.25,63.27,-42.67,-28.54,-56.93,0.78
-28.25,63.27,-42.67,-28.54,-56.93,0.78
-28.25,63.27,-42.67,-28.54,-56.93,0.78
-28.25,63.27,-42.67,-28.54,-56.93,0.78
-28.25,63.27,-42.67,-28.54,-56.93,0.78
-28.25,63.27,-42.67,-28.54,-56.93,0.78
-28.25,63.27,-42.67,-28.54,-56.93,0.78
-28.25,63.27,-42.67,-28.54,-56.93,0.78
-28.25,63.27,-42.67,-28.54,-56.93,0.78
-28.25,63.27,-42.67,-28.54,-56.93,0.78
-28.61,63.58,-42.65,-28.60,-56.61,0.74
-28.61,63.58,-42.65,-28.60,-56.61,0.74
-28.61,63.58,-42.65,-28.60,-56.61,0.74
-28.61,63.58,-42.65,-28.60,-56.61,0.74
-28.61,63.58,-42.65,-28.60,-56.61,0.74
-28.61,63.58,-42.65,-28.60,-56.61,0.74
-28.61,63.58,-42.65,-28.60,-56.61,0.74
-28.61,63.58,-42.65,-28.60,-56.61,0.74
-28.61,63.58,-42.65,-28.60,-56.61,0.74
-28.61,63.58,-42.65,-28.60,-56.61,0.74
-28.44,63.45,-42.59,-28.52,-56.60,0.79
-28.44,63.45,-42.59,-28.52,-56.60,0.79
-28.44,63.45,-42.59,-28.52,-56.60,0.79
-28.44,63.45,-42.59,-28.52,-56.60,0.79
-28.44,63.45,-42.59,-28.52,-56.60,0.79
-28.44,63.45,-42.59,-28.52,-56.60,0.79
-28.44,63.45,-42.59,-28.52,-56.60,0.79
-28.44,63.45,-42.59,-28.52,-56.60,0.79
-28.44,63.45,-42.59,-28.52,-56.60,0.79
-28.44,63.45,-42.59,-28.52,-56.60,0.79
-28.16,63.24,-42.55,-28.44,-56.72,0.84
-28.16,63.24,-42.55,-28.44,-56.72,0.84
-28.16,63.24,-42.55,-28.44,-56.72,0.84
-28.16,63.24,-42.55,-28.44,-56.72,0.84
-28.16,63.24,-42.55,-28.44,-56.72,0.84
-28.16,63.24,-42.55,-28.44,-56.72,0.84
-28.16,63.24,-42.55,-28.44,-56.72,0.84
-28.16,63.24,-42.55,-28.44,-56.72,0.84
-28.16,63.24,-42.55,-28.44,-56.72,0.84
-28.16,63.24,-42.55,-28.44,-56.72,0.84
-27.82,63.00,-42.53,-28.36,-56.94,0.89
-27.82,63.00,-42.53,-28.36,-56.94,0.89
-27.82,63.00,-42.53,-28.36,-56.94,0.89
-27.82,63.00,-42.53,-28.36,-56.94,0.89
-27.82,63.00,-42.53,-28.36,-56.94,0.89
-27.82,63.00,-42.53,-28.36,-56.94,0.89
-27.82,63.00,-42.53,-28.36,-56.94,0.89
-27.82,63.00,-42.53,-28.36,-56.94,0.89
-27.82,63.00,-42.53,-28.36,-56.94,0.89
-27.82,63.00,-42.53,-28.36,-56.94,0.89
-27.45,62.74,-42.53,-28.30,-57.23,0.94
-27.45,62.74,-42.53,-28.30,-57.23,0.94
-27.45,62.74,-42.53,-28.30,-57.23,0.94
-27.45,62.74,-42.53,-28.30,-57.23,0.94
-27.45,62.74,-42.53,-28.30,-57.23,0.94
-27.45,62.74,-42.53,-28.30,-57.23,0.94
-27.45,62.74,-42.53,-28.30,-57.23,0.94
-27.45,62.74,-42.53,-28.30,-57.23,0.94
-27.45,62.74,-42.53,-28.30,-57.23,0.94
-27.45,62.74,-42.53,-28.30,-57.23,0.94
-27.45,62.74,-42.53,-28.30,-57.23,0.94
-27.05,62.47,-42.53,-28.25,-57.55,0.98
-27.05,62.47,-42.53,-28.25,-57.55,0.98
-27.05,62.47,-42.53,-28.25,-57.55,0.98
-27.05,62.47,-42.53,-28.25,-57.55,0.98
-27.05,62.47,-42.53,-28.25,-57.55,0.98
-27.05,62.47,-42.53,-28.25,-57.55,0.98
-27.05,62.47,-42.53,-28.25,-57.55,0.98
-27.05,62.47,-42.53,-28.25,-57.55,0.98
-27.05,62.47,-42.53,-28.25,-57.55,0.98
-27.05,62.47,-42.53,-28.25,-57.55,0.98
-27.40,62.71,-42.54,-28.31,-57.29,0.93
-27.40,62.71,-42.54,-28.31,-57.29,0.93
-27.40,62.71,-42.54,-28.31,-57.29,0.93
-27.40,62.71,-42.54,-28.31,-57.29,0.93
-27.40,62.71,-42.54,-28.31,-57.29,0.93
-27.40,62.71,-42.54,-28.31,-57.29,0.93
-27.40,62.71,-42.54,-28.31,-57.29,0.93
-27.40,62.71,-42.54,-28.31,-57.29,0.93
-27.40,62.71,-42.54,-28.31,-57.29,0.93
-27.40,62.71,-42.54,-28.31,-57.29,0.93
-27.30,62.67,-42.48,-28.24,-57.22,0.98
-27.30,62.67,-42.48,-28.24,-57.22,0.98
-27.30,62.67,-42.48,-28.24,-57.22,0.98
-27.30,62.67,-42.48,-28.24,-57.22,0.98
-27.30,62.67,-42.48,-28.24,-57.22,0.98
-27.30,62.67,-42.48,-28.24,-57.22,0.98
-27.30,62.67,-42.48,-28.24,-57.22,0.98
-27.30,62.67,-42.48,-28.24,-57.22,0.98
-27.30,62.67,-42.48,-28.24,-57.22,0.98
-27.30,62.67,-42.48,-28.24,-57.22,0.98
-27.01,62.62,-42.43,-28.16,-57.32,1.03
-27.01,62.62,-42.43,-28.16,-57.32,1.03
-27.01,62.62,-42.43,-28.16,-57.32,1.03
-27.01,62.62,-42.43,-28.16,-57.32,1.03
-27.01,62.62,-42.43,-28.16,-57.32,1.03
-27.01,62.62,-42.43,-28.16,-57.32,1.03
-27.01,62.62,-42.43,-28.16,-57.32,1.03
-27.01,62.62,-42.43,-28.16,-57.32,1.03
-27.01,62.62,-42.43,-28.16,-57.32,1.03
-27.01,62.62,-42.43,-28.16,-57.32,1.03
-26.62,62.61,-42.39,-28.10,-57.53,1.08
-26.62,62.61,-42.39,-28.10,-57.53,1.08
-26.62,62.61,-42.39,-28.10,-57.53,1.08
-26.62,62.61,-42.39,-28.10,-57.53,1.08
-26.62,62.61,-42.39,-28.10,-57.53,1.08
-26.62,62.61,-42.39,-28.10,-57.53,1.08
-26.62,62.61,-42.39,-28.10,-57.53,1.08
-26.62,62.61,-42.39,-28.10,-57.53,1.08
-26.62,62.61,-42.39,-28.10,-57.53,1.08
-26.62,62.61,-42.39,-28.10,-57.53,1.08
-26.18,62.62,-42.37,-28.05,-57.80,1.13
-26.18,62.62,-42.37,-28.05,-57.80,1.13
-26.18,62.62,-42.37,-28.05,-57.80,1.13
-26.18,62.62,-42.37,-28.05,-57.80,1.13
-26.18,62.62,-42.37,-28.05,-57.80,1.13
-26.18,62.62,-42.37,-28.05,-57.80,1.13
-26.18,62.62,-42.37,-28.05,-57.80,1.13
-26.18,62.62,-42.37,-28.05,-57.80,1.13
-26.18,62.62,-42.37,-28.05,-57.80,1.13
-26.18,62.62,-42.37,-28.05,-57.80,1.13
-25.71,62.64,-42.35,-28.01,-58.11,1.17
-25.71,62.64,-42.35,-28.01,-58.11,1.17
-25.71,62.64,-42.35,-28.01,-58.11,1.17
-25.71,62.64,-42.35,-28.01,-58.11,1.17
-25.71,62.64,-42.35,-28.01,-58.11,1.17
-25.71,62.64,-42.35,-28.01,-58.11,1.17
-25.71,62.64,-42.35,-28.01,-58.11,1.17
-25.71,62.64,-42.35,-28.01,-58.11,1.17
-25.71,62.64,-42.35,-28.01,-58.11,1.17
-25.71,62.64,-42.35,-28.01,-58.11,1.17
-25.51,62.68,-42.36,-28.00,-58.27,1.18
-25.51,62.68,-42.36,-28.00,-58.27,1.18
-25.51,62.68,-42.36,-28.00,-58.27,1.18
-25.51,62.68,-42.36,-28.00,-58.27,1.18
-25.51,62.68,-42.36,-28.00,-58.27,1.18
-25.51,62.68,-42.36,-28.00,-58.27,1.18
-25.51,62.68,-42.36,-28.00,-58.27,1.18
-25.51,62.68,-42.36,-28.00,-58.27,1.18
-25.51,62.68,-42.36,-28.00,-58.27,1.18
-25.51,62.68,-42.36,-28.00,-58.27,1.18
-25.66,62.60,-42.32,-27.97,-58.09,1.19
-25.66,62.60,-42.32,-27.97,-58.09,1.19
-25.66,62.60,-42.32,-27.97,-58.09,1.19
-25.66,62.60,-42.32,-27.97,-58.09,1.19
-25.66,62.60,-42.32,-27.97,-58.09,1.19
-25.66,62.60,-42.32,-27.97,-58.09,1.19
-25.66,62.60,-42.32,-27.97,-58.09,1.19
-25.66,62.60,-42.32,-27.97,-58.09,1.19
-25.66,62.60,-42.32,-27.97,-58.09,1.19
-25.66,62.60,-42.32,-27.97,-58.09,1.19
-25.46,62.44,-42.27,-27.91,-58.14,1.25
-25.46,62.44,-42.27,-27.91,-58.14,1.25
-25.46,62.44,-42.27,-27.91,-58.14,1.25
-25.46,62.44,-42.27,-27.91,-58.14,1.25
-25.46,62.44,-42.27,-27.91,-58.14,1.25
-25.46,62.44,-42.27,-27.91,-58.14,1.25
-25.46,62.44,-42.27,-27.91,-58.14,1.25
-25.46,62.44,-42.27,-27.91,-58.14,1.25
-25.46,62.44,-42.27,-27.91,-58.14,1.25
-25.46,62.44,-42.27,-27.91,-58.14,1.25
-25.17,62.23,-42.23,-27.85,-58.30,1.29
-25.17,62.23,-42.23,-27.85,-58.30,1.29
-25.17,62.23,-42.23,-27.85,-58.30,1.29
-25.17,62.23,-42.23,-27.85,-58.30,1.29
-25.17,62.23,-42.23,-27.85,-58.30,1.29
-25.17,62.23,-42.23,-27.85,-58.30,1.29
-25.17,62.23,-42.23,-27.85,-58.30,1.29
-25.17,62.23,-42.23,-27.85,-58.30,1.29
-25.17,62.23,-42.23,-27.85,-58.30,1.29
-25.17,62.23,-42.23,-27.85,-58.30,1.29
-24.83,62.00,-42.21,-27.80,-58.54,1.34
-24.83,62.00,-42.21,-27.80,-58.54,1.34
-24.83,62.00,-42.21,-27.80,-58.54,1.34
-24.83,62.00,-42.21,-27.80,-58.54,1.34
-24.83,62.00,-42.21,-27.80,-58.54,1.34
-24.83,62.00,-42.21,-27.80,-58.54,1.34
-24.83,62.00,-42.21,-27.80,-58.54,1.34
-24.83,62.00,-42.21,-27.80,-58.54,1.34
-24.83,62.00,-42.21,-27.80,-58.54,1.34
-24.83,62.00,-42.21,-27.80,-58.54,1.34
-24.45,61.77,-42.20,-27.77,-58.83,1.38
-24.45,61.77,-42.20,-27.77,-58.83,1.38
-24.45,61.77,-42.20,-27.77,-58.83,1.38
-24.45,61.77,-42.20,-27.77,-58.83,1.38
-24.45,61.77,-42.20,-27.77,-58.83,1.38
-24.45,61.77,-42.20,-27.77,-58.83,1.38
-24.45,61.77,-42.20,-27.77,-58.83,1.38
-24.45,61.77,-42.20,-27.77,-58.83,1.38
-24.45,61.77,-42.20,-27.77,-58.83,1.38
-24.45,61.77,-42.20,-27.77,-58.83,1.38
-24.16,61.60,-42.21,-27.74,-59.08,1.40
-24.16,61.60,-42.21,-27.74,-59.08,1.40
-24.16,61.60,-42.21,-27.74,-59.08,1.40
-24.16,61.60,-42.21,-27.74,-59.08,1.40
-24.16,61.60,-42.21,-27.74,-59.08,1.40
-24.16,61.60,-42.21,-27.74,-59.08,1.40
-24.16,61.60,-42.21,-27.74,-59.08,1.40
-24.16,61.60,-42.21,-27.74,-59.08,1.40
-24.16,61.60,-42.21,-27.74,-59.08,1.40
-24.16,61.60,-42.21,-27.74,-59.08,1.40
-24.42,61.74,-42.18,-27.78,-58.84,1.38
-24.42,61.74,-42.18,-27.78,-58.84,1.38
-24.42,61.74,-42.18,-27.78,-58.84,1.38
-24.42,61.74,-42.18,-27.78,-58.84,1.38
-24.42,61.74,-42.18,-27.78,-58.84,1.38
-24.42,61.74,-42.18,-27.78,-58.84,1.38
-24.42,61.74,-42.18,-27.78,-58.84,1.38
-24.42,61.74,-42.18,-27.78,-58.84,1.38
-24.42,61.74,-42.18,-27.78,-58.84,1.38
-24.42,61.74,-42.18,-27.78,-58.84,1.38
-24.21,61.58,-42.09,-27.84,-58.97,1.40
-24.21,61.58,-42.09,-27.84,-58.97,1.40
-24.21,61.58,-42.09,-27.84,-58.97,1.40
-24.21,61.58,-42.09,-27.84,-58.97,1.40
-24.21,61.58,-42.09,-27.84,-58.97,1.40
-24.21,61.58,-42.09,-27.84,-58.97,1.40
-24.21,61.58,-42.09,-27.84,-58.97,1.40
-24.21,61.58,-42.09,-27.84,-58.97,1.40
-24.21,61.58,-42.09,-27.84,-58.97,1.40
-24.21,61.58,-42.09,-27.84,-58.97,1.40
-23.90,61.37,-42.02,-27.91,-59.19,1.41
-23.90,61.37,-42.02,-27.91,-59.19,1.41
-23.90,61.37,-42.02,-27.91,-59.19,1.41
-23.90,61.37,-42.02,-27.91,-59.19,1.41
-23.90,61.37,-42.02,-27.91,-59.19,1.41
-23.90,61.37,-42.02,-27.91,-59.19,1.41
-23.90,61.37,-42.02,-27.91,-59.19,1.41
-23.90,61.37,-42.02,-27.91,-59.19,1.41
-23.90,61.37,-42.02,-27.91,-59.19,1.41
-23.90,61.37,-42.02,-27.91,-59.19,1.41
-23.52,61.13,-41.97,-27.98,-59.50,1.43
-23.52,61.13,-41.97,-27.98,-59.50,1.43
-23.52,61.13,-41.97,-27.98,-59.50,1.43
-23.52,61.13,-41.97,-27.98,-59.50,1.43
-23.52,61.13,-41.97,-27.98,-59.50,1.43
-23.52,61.13,-41.97,-27.98,-59.50,1.43
-23.52,61.13,-41.97,-27.98,-59.50,1.43
-23.52,61.13,-41.97,-27.98,-59.50,1.43
-23.52,61.13,-41.97,-27.98,-59.50,1.43
-23.52,61.13,-41.97,-27.98,-59.50,1.43
-23.11,60.88,-41.93,-28.04,-59.86,1.44
-23.11,60.88,-41.93,-28.04,-59.86,1.44
-23.11,60.88,-41.93,-28.04,-59.86,1.44
-23.11,60.88,-41.93,-28.04,-59.86,1.44
-23.11,60.88,-41.93,-28.04,-59.86,1.44
-23.11,60.88,-41.93,-28.04,-59.86,1.44
-23.11,60.88,-41.93,-28.04,-59.86,1.44
-23.11,60.88,-41.93,-28.04,-59.86,1.44
-23.11,60.88,-41.93,-28.04,-59.86,1.44
-23.11,60.88,-41.93,-28.04,-59.86,1.44
-22.68,60.65,-41.90,-28.11,-60.23,1.44
-22.68,60.65,-41.90,-28.11,-60.23,1.44
-22.68,60.65,-41.90,-28.11,-60.23,1.44
-22.68,60.65,-41.90,-28.11,-60.23,1.44
-22.68,60.65,-41.90,-28.11,-60.23,1.44
-22.68,60.65,-41.90,-28.11,-60.23,1.44
-22.68,60.65,-41.90,-28.11,-60.23,1.44
-22.68,60.65,-41.90,-28.11,-60.23,1.44
-22.68,60.65,-41.90,-28.11,-60.23,1.44
-22.68,60.65,-41.90,-28.11,-60.23,1.44
-23.10,60.89,-41.94,-28.04,-59.87,1.43
-23.10,60.89,-41.94,-28.04,-59.87,1.43
-23.10,60.89,-41.94,-28.04,-59.87,1.43
-23.10,60.89,-41.94,-28.04,-59.87,1.43
-23.10,60.89,-41.94,-28.04,-59.87,1.43
-23.10,60.89,-41.94,-28.04,-59.87,1.43
-23.10,60.89,-41.94,-28.04,-59.87,1.43
-23.10,60.89,-41.94,-28.04,-59.87,1.43
-23.10,60.89,-41.94,-28.04,-59.87,1.43
-23.10,60.89,-41.94,-28.04,-59.87,1.43
-22.97,60.81,-41.81,-28.08,-59.94,1.45
-22.97,60.81,-41.81,-28.08,-59.94,1.45
-22.97,60.81,-41.81,-28.08,-59.94,1.45
-22.97,60.81,-41.81,-28.08,-59.94,1.45
-22.97,60.81,-41.81,-28.08,-59.94,1.45
-22.97,60.81,-41.81,-28.08,-59.94,1.45
-22.97,60.81,-41.81,-28.08,-59.94,1.45
-22.97,60.81,-41.81,-28.08,-59.94,1.45
-22.97,60.81,-41.81,-28.08,-59.94,1.45
-22.97,60.81,-41.81,-28.08,-59.94,1.45
-22.73,60.73,-41.62,-28.11,-60.14,1.46
-22.73,60.73,-41.62,-28.11,-60.14,1.46
-22.73,60.73,-41.62,-28.11,-60.14,1.46
-22.73,60.73,-41.62,-28.11,-60.14,1.46
-22.73,60.73,-41.62,-28.11,-60.14,1.46
-22.73,60.73,-41.62,-28.11,-60.14,1.46
-22.73,60.73,-41.62,-28.11,-60.14,1.46
-22.73,60.73,-41.62,-28.11,-60.14,1.46
-22.73,60.73,-41.62,-28.11,-60.14,1.46
-22.73,60.73,-41.62,-28.11,-60.14,1.46
-22.42,60.68,-41.37,-28.11,-60.44,1.47
-22.42,60.68,-41.37,-28.11,-60.44,1.47
-22.42,60.68,-41.37,-28.11,-60.44,1.47
-22.42,60.68,-41.37,-28.11,-60.44,1.47
-22.42,60.68,-41.37,-28.11,-60.44,1.47
-22.42,60.68,-41.37,-28.11,-60.44,1.47
-22.42,60.68,-41.37,-28.11,-60.44,1.47
-22.42,60.68,-41.37,-28.11,-60.44,1.47
-22.42,60.68,-41.37,-28.11,-60.44,1.47
-22.42,60.68,-41.37,-28.11,-60.44,1.47
-22.42,60.68,-41.37,-28.11,-60.44,1.47
-22.08,60.63,-41.10,-28.11,-60.80,1.47
-22.08,60.63,-41.10,-28.11,-60.80,1.47
-22.08,60.63,-41.10,-28.11,-60.80,1.47
-22.08,60.63,-41.10,-28.11,-60.80,1.47
-22.08,60.63,-41.10,-28.11,-60.80,1.47
-22.08,60.63,-41.10,-28.11,-60.80,1.47
-22.08,60.63,-41.10,-28.11,-60.80,1.47
-22.08,60.63,-41.10,-28.11,-60.80,1.47
-22.08,60.63,-41.10,-28.11,-60.80,1.47
-22.08,60.63,-41.10,-28.11,-60.80,1.47
-22.08,60.63,-41.10,-28.11,-60.80,1.47
-22.08,60.63,-41.10,-28.11,-60.80,1.47
-21.72,60.60,-40.83,-28.09,-61.19,1.48
-21.72,60.60,-40.83,-28.09,-61.19,1.48
-21.72,60.60,-40.83,-28.09,-61.19,1.48
-21.72,60.60,-40.83,-28.09,-61.19,1.48
-21.72,60.60,-40.83,-28.09,-61.19,1.48
-21.72,60.60,-40.83,-28.09,-61.19,1.48
-21.72,60.60,-40.83,-28.09,-61.19,1.48
-21.97,60.64,-41.03,-28.09,-60.93,1.47
-21.97,60.64,-41.03,-28.09,-60.93,1.47
-21.97,60.64,-41.03,-28.09,-60.93,1.47
-21.97,60.64,-41.03,-28.09,-60.93,1.47
-21.97,60.64,-41.03,-28.09,-60.93,1.47
-21.97,60.64,-41.03,-28.09,-60.93,1.47
-21.97,60.64,-41.03,-28.09,-60.93,1.47
-21.97,60.64,-41.03,-28.09,-60.93,1.47
-21.97,60.64,-41.03,-28.09,-60.93,1.47
-21.97,60.64,-41.03,-28.09,-60.93,1.47
-21.97,60.57,-41.05,-28.15,-60.85,1.48
-21.97,60.57,-41.05,-28.15,-60.85,1.48
-21.97,60.57,-41.05,-28.15,-60.85,1.48
-21.97,60.57,-41.05,-28.15,-60.85,1.48
-21.97,60.57,-41.05,-28.15,-60.85,1.48
-21.97,60.57,-41.05,-28.15,-60.85,1.48
-21.97,60.57,-41.05,-28.15,-60.85,1.48
-21.97,60.57,-41.05,-28.15,-60.85,1.48
-21.97,60.57,-41.05,-28.15,-60.85,1.48
-21.97,60.57,-41.05,-28.15,-60.85,1.48
-21.72,60.46,-40.99,-28.21,-61.02,1.49
-21.72,60.46,-40.99,-28.21,-61.02,1.49
-21.72,60.46,-40.99,-28.21,-61.02,1.49
-21.72,60.46,-40.99,-28.21,-61.02,1.49
-21.72,60.46,-40.99,-28.21,-61.02,1.49
-21.72,60.46,-40.99,-28.21,-61.02,1.49
-21.72,60.46,-40.99,-28.21,-61.02,1.49
-21.72,60.46,-40.99,-28.21,-61.02,1.49
-21.72,60.46,-40.99,-28.21,-61.02,1.49
-21.72,60.46,-40.99,-28.21,-61.02,1.49
-21.38,60.34,-40.95,-28.28,-61.29,1.50
-21.38,60.34,-40.95,-28.28,-61.29,1.50
-21.38,60.34,-40.95,-28.28,-61.29,1.50
-21.38,60.34,-40.95,-28.28,-61.29,1.50
-21.38,60.34,-40.95,-28.28,-61.29,1.50
-21.38,60.34,-40.95,-28.28,-61.29,1.50
-21.38,60.34,-40.95,-28.28,-61.29,1.50
-21.38,60.34,-40.95,-28.28,-61.29,1.50
-21.38,60.34,-40.95,-28.28,-61.29,1.50
-21.38,60.34,-40.95,-28.28,-61.29,1.50
-20.98,60.22,-40.92,-28.36,-61.62,1.50
-20.98,60.22,-40.92,-28.36,-61.62,1.50
-20.98,60.22,-40.92,-28.36,-61.62,1.50
-20.98,60.22,-40.92,-28.36,-61.62,1.50
-20.98,60.22,-40.92,-28.36,-61.62,1.50
-20.98,60.22,-40.92,-28.36,-61.62,1.50
-20.98,60.22,-40.92,-28.36,-61.62,1.50
-20.98,60.22,-40.92,-28.36,-61.62,1.50
-20.98,60.22,-40.92,-28.36,-61.62,1.50
-20.98,60.22,-40.92,-28.36,-61.62,1.50
-20.55,60.11,-40.91,-28.42,-61.98,1.50
-20.55,60.11,-40.91,-28.42,-61.98,1.50
-20.55,60.11,-40.91,-28.42,-61.98,1.50
-20.55,60.11,-40.91,-28.42,-61.98,1.50
-20.55,60.11,-40.91,-28.42,-61.98,1.50
-20.55,60.11,-40.91,-28.42,-61.98,1.50
-20.55,60.11,-40.91,-28.42,-61.98,1.50
-20.55,60.11,-40.91,-28.42,-61.98,1.50
-20.55,60.11,-40.91,-28.42,-61.98,1.50
-20.55,60.11,-40.91,-28.42,-61.98,1.50
-20.55,60.11,-40.91,-28.42,-61.98,1.50
-20.33,60.07,-40.91,-28.45,-62.18,1.50
-20.33,60.07,-40.91,-28.45,-62.18,1.50
-20.33,60.07,-40.91,-28.45,-62.18,1.50
-20.33,60.07,-40.91,-28.45,-62.18,1.50
-20.33,60.07,-40.91,-28.45,-62.18,1.50
-20.33,60.07,-40.91,-28.45,-62.18,1.50
-20.33,60.07,-40.91,-28.45,-62.18,1.50
-20.33,60.07,-40.91,-28.45,-62.18,1.50
-20.33,60.07,-40.91,-28.45,-62.18,1.50
-20.33,60.07,-40.91,-28.45,-62.18,1.50
-20.49,60.08,-40.88,-28.45,-62.01,1.51
-20.49,60.08,-40.88,-28.45,-62.01,1.51
-20.49,60.08,-40.88,-28.45,-62.01,1.51
-20.49,60.08,-40.88,-28.45,-62.01,1.51
-20.49,60.08,-40.88,-28.45,-62.01,1.51
-20.49,60.08,-40.88,-28.45,-62.01,1.51
-20.49,60.08,-40.88,-28.45,-62.01,1.51
-20.49,60.08,-40.88,-28.45,-62.01,1.51
-20.49,60.08,-40.88,-28.45,-62.01,1.51
-20.49,60.08,-40.88,-28.45,-62.01,1.51
-20.25,59.99,-40.82,-28.50,-62.18,1.52
-20.25,59.99,-40.82,-28.50,-62.18,1.52
-20.25,59.99,-40.82,-28.50,-62.18,1.52
-20.25,59.99,-40.82,-28.50,-62.18,1.52
-20.25,59.99,-40.82,-28.50,-62.18,1.52
-20.25,59.99,-40.82,-28.50,-62.18,1.52
-20.25,59.99,-40.82,-28.50,-62.18,1.52
-20.25,59.99,-40.82,-28.50,-62.18,1.52
-20.25,59.99,-40.82,-28.50,-62.18,1.52
-20.25,59.99,-40.82,-28.50,-62.18,1.52
-19.92,59.89,-40.77,-28.57,-62.45,1.53
-19.92,59.89,-40.77,-28.57,-62.45,1.53
-19.92,59.89,-40.77,-28.57,-62.45,1.53
-19.92,59.89,-40.77,-28.57,-62.45,1.53
-19.92,59.89,-40.77,-28.57,-62.45,1.53
-19.92,59.89,-40.77,-28.57,-62.45,1.53
-19.92,59.89,-40.77,-28.57,-62.45,1.53
-19.92,59.89,-40.77,-28.57,-62.45,1.53
-19.92,59.89,-40.77,-28.57,-62.45,1.53
-19.92,59.89,-40.77,-28.57,-62.45,1.53
-19.52,59.79,-40.75,-28.63,-62.78,1.53
-19.52,59.79,-40.75,-28.63,-62.78,1.53
-19.52,59.79,-40.75,-28.63,-62.78,1.53
-19.52,59.79,-40.75,-28.63,-62.78,1.53
-19.52,59.79,-40.75,-28.63,-62.78,1.53
-19.52,59.79,-40.75,-28.63,-62.78,1.53
-19.52,59.79,-40.75,-28.63,-62.78,1.53
-19.52,59.79,-40.75,-28.63,-62.78,1.53
-19.52,59.79,-40.75,-28.63,-62.78,1.53
-19.52,59.79,-40.75,-28.63,-62.78,1.53
-19.09,59.70,-40.73,-28.69,-63.15,1.54
-19.09,59.70,-40.73,-28.69,-63.15,1.54
-19.09,59.70,-40.73,-28.69,-63.15,1.54
-19.09,59.70,-40.73,-28.69,-63.15,1.54
-19.09,59.70,-40.73,-28.69,-63.15,1.54
-19.09,59.70,-40.73,-28.69,-63.15,1.54
-19.09,59.70,-40.73,-28.69,-63.15,1.54
-19.09,59.70,-40.73,-28.69,-63.15,1.54
-19.09,59.70,-40.73,-28.69,-63.15,1.54
-19.09,59.70,-40.73,-28.69,-63.15,1.54
-19.09,59.70,-40.73,-28.69,-63.15,1.54
-19.09,59.70,-40.73,-28.69,-63.15,1.54
-18.79,59.65,-40.73,-28.73,-63.41,1.54
-18.79,59.65,-40.73,-28.73,-63.41,1.54
-18.79,59.65,-40.73,-28.73,-63.41,1.54
-18.79,59.65,-40.73,-28.73,-63.41,1.54
-18.79,59.65,-40.73,-28.73,-63.41,1.54
-18.79,59.65,-40.73,-28.73,-63.41,1.54
-18.79,59.65,-40.73,-28.73,-63.41,1.54
-18.79,59.65,-40.73,-28.73,-63.41,1.54
-18.79,59.65,-40.73,-28.73,-63.41,1.54
-18.79,59.65,-40.73,-28.73,-63.41,1.54
-19.04,59.68,-40.71,-28.70,-63.18,1.54
-19.04,59.68,-40.71,-28.70,-63.18,1.54
-19.04,59.68,-40.71,-28.70,-63.18,1.54
-19.04,59.68,-40.71,-28.70,-63.18,1.54
-19.04,59.68,-40.71,-28.70,-63.18,1.54
-19.04,59.68,-40.71,-28.70,-63.18,1.54
-19.04,59.68,-40.71,-28.70,-63.18,1.54
-19.04,59.68,-40.71,-28.70,-63.18,1.54
-19.04,59.68,-40.71,-28.70,-63.18,1.54
-19.04,59.68,-40.71,-28.70,-63.18,1.54
-18.84,59.49,-40.69,-28.75,-63.36,1.56
-18.84,59.49,-40.69,-28.75,-63.36,1.56
-18.84,59.49,-40.69,-28.75,-63.36,1.56
-18.84,59.49,-40.69,-28.75,-63.36,1.56
-18.84,59.49,-40.69,-28.75,-63.36,1.56
-18.84,59.49,-40.69,-28.75,-63.36,1.56
-18.84,59.49,-40.69,-28.75,-63.36,1.56
-18.84,59.49,-40.69,-28.75,-63.36,1.56
-18.84,59.49,-40.69,-28.75,-63.36,1.56
-18.84,59.49,-40.69,-28.75,-63.36,1.56
-18.60,59.18,-40.72,-28.80,-63.63,1.57
-18.60,59.18,-40.72,-28.80,-63.63,1.57
-18.60,59.18,-40.72,-28.80,-63.63,1.57
-18.60,59.18,-40.72,-28.80,-63.63,1.57
-18.60,59.18,-40.72,-28.80,-63.63,1.57
-18.60,59.18,-40.72,-28.80,-63.63,1.57
-18.60,59.18,-40.72,-28.80,-63.63,1.57
-18.60,59.18,-40.72,-28.80,-63.63,1.57
-18.60,59.18,-40.72,-28.80,-63.63,1.57
-18.60,59.18,-40.72,-28.80,-63.63,1.57
-18.32,58.79,-40.79,-28.85,-63.97,1.58
-18.32,58.79,-40.79,-28.85,-63.97,1.58
-18.32,58.79,-40.79,-28.85,-63.97,1.58
-18.32,58.79,-40.79,-28.85,-63.97,1.58
-18.32,58.79,-40.79,-28.85,-63.97,1.58
-18.32,58.79,-40.79,-28.85,-63.97,1.58
-18.32,58.79,-40.79,-28.85,-63.97,1.58
-18.32,58.79,-40.79,-28.85,-63.97,1.58
-18.32,58.79,-40.79,-28.85,-63.97,1.58
-18.32,58.79,-40.79,-28.85,-63.97,1.58
-18.03,58.37,-40.89,-28.90,-64.35,1.58
-18.03,58.37,-40.89,-28.90,-64.35,1.58
-18.03,58.37,-40.89,-28.90,-64.35,1.58
-18.03,58.37,-40.89,-28.90,-64.35,1.58
-18.03,58.37,-40.89,-28.90,-64.35,1.58
-18.03,58.37,-40.89,-28.90,-64.35,1.58
-18.03,58.37,-40.89,-28.90,-64.35,1.58
-18.03,58.37,-40.89,-28.90,-64.35,1.58
-18.03,58.37,-40.89,-28.90,-64.35,1.58
-18.03,58.37,-40.89,-28.90,-64.35,1.58
-17.73,57.96,-41.00,-28.95,-64.74,1.59
-17.73,57.96,-41.00,-28.95,-64.74,1.59
-17.73,57.96,-41.00,-28.95,-64.74,1.59
-17.73,57.96,-41.00,-28.95,-64.74,1.59
-17.73,57.96,-41.00,-28.95,-64.74,1.59
-17.73,57.96,-41.00,-28.95,-64.74,1.59
-17.73,57.96,-41.00,-28.95,-64.74,1.59
-17.73,57.96,-41.00,-28.95,-64.74,1.59
-17.73,57.96,-41.00,-28.95,-64.74,1.59
-17.73,57.96,-41.00,-28.95,-64.74,1.59
-18.03,58.37,-40.90,-28.90,-64.35,1.58
-18.03,58.37,-40.90,-28.90,-64.35,1.58
-18.03,58.37,-40.90,-28.90,-64.35,1.58
-18.03,58.37,-40.90,-28.90,-64.35,1.58
-18.03,58.37,-40.90,-28.90,-64.35,1.58
-18.03,58.37,-40.90,-28.90,-64.35,1.58
-18.03,58.37,-40.90,-28.90,-64.35,1.58
-18.03,58.37,-40.90,-28.90,-64.35,1.58
-18.03,58.37,-40.90,-28.90,-64.35,1.58
-18.03,58.37,-40.90,-28.90,-64.35,1.58
-17.84,58.26,-40.86,-28.92,-64.49,1.60
-17.84,58.26,-40.86,-28.92,-64.49,1.60
-17.84,58.26,-40.86,-28.92,-64.49,1.60
-17.84,58.26,-40.86,-28.92,-64.49,1.60
-17.84,58.26,-40.86,-28.92,-64.49,1.60
-17.84,58.26,-40.86,-28.92,-64.49,1.60
-17.84,58.26,-40.86,-28.92,-64.49,1.60
-17.84,58.26,-40.86,-28.92,-64.49,1.60
-17.84,58.26,-40.86,-28.92,-64.49,1.60
-17.84,58.26,-40.86,-28.92,-64.49,1.60
-17.60,57.98,-40.90,-28.95,-64.75,1.62
-17.60,57.98,-40.90,-28.95,-64.75,1.62
-17.60,57.98,-40.90,-28.95,-64.75,1.62
-17.60,57.98,-40.90,-28.95,-64.75,1.62
-17.60,57.98,-40.90,-28.95,-64.75,1.62
-17.60,57.98,-40.90,-28.95,-64.75,1.62
-17.60,57.98,-40.90,-28.95,-64.75,1.62
-17.60,57.98,-40.90,-28.95,-64.75,1.62
-17.60,57.98,-40.90,-28.95,-64.75,1.62
-17.60,57.98,-40.90,-28.95,-64.75,1.62
-17.32,57.61,-40.99,-28.99,-65.07,1.63
-17.32,57.61,-40.99,-28.99,-65.07,1.63
-17.32,57.61,-40.99,-28.99,-65.07,1.63
-17.32,57.61,-40.99,-28.99,-65.07,1.63
-17.32,57.61,-40.99,-28.99,-65.07,1.63
-17.32,57.61,-40.99,-28.99,-65.07,1.63
-17.32,57.61,-40.99,-28.99,-65.07,1.63
-17.32,57.61,-40.99,-28.99,-65.07,1.63
-17.32,57.61,-40.99,-28.99,-65.07,1.63
-17.32,57.61,-40.99,-28.99,-65.07,1.63
-17.02,57.17,-41.12,-29.03,-65.45,1.64
-17.02,57.17,-41.12,-29.03,-65.45,1.64
-17.02,57.17,-41.12,-29.03,-65.45,1.64
-17.02,57.17,-41.12,-29.03,-65.45,1.64
-17.02,57.17,-41.12,-29.03,-65.45,1.64
-17.02,57.17,-41.12,-29.03,-65.45,1.64
-17.02,57.17,-41.12,-29.03,-65.45,1.64
-17.02,57.17,-41.12,-29.03,-65.45,1.64
-17.02,57.17,-41.12,-29.03,-65.45,1.64
-17.02,57.17,-41.12,-29.03,-65.45,1.64
-16.72,56.73,-41.27,-29.07,-65.85,1.65
-16.72,56.73,-41.27,-29.07,-65.85,1.65
-16.72,56.73,-41.27,-29.07,-65.85,1.65
-16.72,56.73,-41.27,-29.07,-65.85,1.65
-16.72,56.73,-41.27,-29.07,-65.85,1.65
-16.72,56.73,-41.27,-29.07,-65.85,1.65
-16.72,56.73,-41.27,-29.07,-65.85,1.65
-16.72,56.73,-41.27,-29.07,-65.85,1.65
-16.72,56.73,-41.27,-29.07,-65.85,1.65
-16.72,56.73,-41.27,-29.07,-65.85,1.65
-16.95,57.03,-41.19,-29.04,-65.57,1.64
-16.95,57.03,-41.19,-29.04,-65.57,1.64
-16.95,57.03,-41.19,-29.04,-65.57,1.64
-16.95,57.03,-41.19,-29.04,-65.57,1.64
-16.95,57.03,-41.19,-29.04,-65.57,1.64
-16.95,57.03,-41.19,-29.04,-65.57,1.64
-16.95,57.03,-41.19,-29.04,-65.57,1.64
-16.95,57.03,-41.19,-29.04,-65.57,1.64
-16.95,57.03,-41.19,-29.04,-65.57,1.64
-16.95,57.03,-41.19,-29.04,-65.57,1.64
-16.95,57.03,-41.19,-29.04,-65.57,1.64
-16.88,57.18,-41.08,-29.04,-65.55,1.66
-16.88,57.18,-41.08,-29.04,-65.55,1.66
-16.88,57.18,-41.08,-29.04,-65.55,1.66
-16.88,57.18,-41.08,-29.04,-65.55,1.66
-16.88,57.18,-41.08,-29.04,-65.55,1.66
-16.88,57.18,-41.08,-29.04,-65.55,1.66
-16.88,57.18,-41.08,-29.04,-65.55,1.66
-16.88,57.18,-41.08,-29.04,-65.55,1.66
-16.88,57.18,-41.08,-29.04,-65.55,1.66
-16.57,57.23,-41.02,-29.06,-65.78,1.68
-16.57,57.23,-41.02,-29.06,-65.78,1.68
-16.57,57.23,-41.02,-29.06,-65.78,1.68
-16.57,57.23,-41.02,-29.06,-65.78,1.68
-16.57,57.23,-41.02,-29.06,-65.78,1.68
-16.57,57.23,-41.02,-29.06,-65.78,1.68
-16.57,57.23,-41.02,-29.06,-65.78,1.68
-16.57,57.23,-41.02,-29.06,-65.78,1.68
-16.57,57.23,-41.02,-29.06,-65.78,1.68
-16.57,57.23,-41.02,-29.06,-65.78,1.68
-16.20,57.31,-40.98,-29.08,-66.09,1.70
-16.20,57.31,-40.98,-29.08,-66.09,1.70
-16.20,57.31,-40.98,-29.08,-66.09,1.70
-16.20,57.31,-40.98,-29.08,-66.09,1.70
-16.20,57.31,-40.98,-29.08,-66.09,1.70
-16.20,57.31,-40.98,-29.08,-66.09,1.70
-16.20,57.31,-40.98,-29.08,-66.09,1.70
-16.20,57.31,-40.98,-29.08,-66.09,1.70
-16.20,57.31,-40.98,-29.08,-66.09,1.70
-16.20,57.31,-40.98,-29.08,-66.09,1.70
-15.77,57.43,-40.96,-29.11,-66.46,1.71
-15.77,57.43,-40.96,-29.11,-66.46,1.71
-15.77,57.43,-40.96,-29.11,-66.46,1.71
-15.77,57.43,-40.96,-29.11,-66.46,1.71
-15.77,57.43,-40.96,-29.11,-66.46,1.71
-15.77,57.43,-40.96,-29.11,-66.46,1.71
-15.77,57.43,-40.96,-29.11,-66.46,1.71
-15.77,57.43,-40.96,-29.11,-66.46,1.71
-15.77,57.43,-40.96,-29.11,-66.46,1.71
-15.77,57.43,-40.96,-29.11,-66.46,1.71
-15.32,57.56,-40.95,-29.14,-66.85,1.72
-15.32,57.56,-40.95,-29.14,-66.85,1.72
-15.32,57.56,-40.95,-29.14,-66.85,1.72
-15.32,57.56,-40.95,-29.14,-66.85,1.72
-15.32,57.56,-40.95,-29.14,-66.85,1.72
-15.32,57.56,-40.95,-29.14,-66.85,1.72
-15.32,57.56,-40.95,-29.14,-66.85,1.72
-15.32,57.56,-40.95,-29.14,-66.85,1.72
-15.32,57.56,-40.95,-29.14,-66.85,1.72
-15.32,57.56,-40.95,-29.14,-66.85,1.72
-15.32,57.56,-40.95,-29.14,-66.85,1.72
-15.14,57.62,-40.95,-29.15,-67.02,1.72
-15.14,57.62,-40.95,-29.15,-67.02,1.72
-15.14,57.62,-40.95,-29.15,-67.02,1.72
-15.14,57.62,-40.95,-29.15,-67.02,1.72
-15.14,57.62,-40.95,-29.15,-67.02,1.72
-15.14,57.62,-40.95,-29.15,-67.02,1.72
-15.14,57.62,-40.95,-29.15,-67.02,1.72
-15.14,57.62,-40.95,-29.15,-67.02,1.72
-15.14,57.62,-40.95,-29.15,-67.02,1.72
-15.14,57.62,-40.95,-29.15,-67.02,1.72
-15.24,57.53,-40.92,-29.14,-66.91,1.74
-15.24,57.53,-40.92,-29.14,-66.91,1.74
-15.24,57.53,-40.92,-29.14,-66.91,1.74
-15.24,57.53,-40.92,-29.14,-66.91,1.74
-15.24,57.53,-40.92,-29.14,-66.91,1.74
-15.24,57.53,-40.92,-29.14,-66.91,1.74
-15.24,57.53,-40.92,-29.14,-66.91,1.74
-15.24,57.53,-40.92,-29.14,-66.91,1.74
-15.24,57.53,-40.92,-29.14,-66.91,1.74
-15.24,57.53,-40.92,-29.14,-66.91,1.74
-15.00,57.29,-40.97,-29.15,-67.12,1.76
-15.00,57.29,-40.97,-29.15,-67.12,1.76
-15.00,57.29,-40.97,-29.15,-67.12,1.76
-15.00,57.29,-40.97,-29.15,-67.12,1.76
-15.00,57.29,-40.97,-29.15,-67.12,1.76
-15.00,57.29,-40.97,-29.15,-67.12,1.76
-15.00,57.29,-40.97,-29.15,-67.12,1.76
-15.00,57.29,-40.97,-29.15,-67.12,1.76
-15.00,57.29,-40.97,-29.15,-67.12,1.76
-15.00,57.29,-40.97,-29.15,-67.12,1.76
-14.71,56.88,-41.11,-29.16,-67.42,1.78
-14.71,56.88,-41.11,-29.16,-67.42,1.78
-14.71,56.88,-41.11,-29.16,-67.42,1.78
-14.71,56.88,-41.11,-29.16,-67.42,1.78
-14.71,56.88,-41.11,-29.16,-67.42,1.78
-14.71,56.88,-41.11,-29.16,-67.42,1.78
-14.71,56.88,-41.11,-29.16,-67.42,1.78
-14.71,56.88,-41.11,-29.16,-67.42,1.78
-14.71,56.88,-41.11,-29.16,-67.42,1.78
-14.71,56.88,-41.11,-29.16,-67.42,1.78
-14.39,56.36,-41.30,-29.18,-67.77,1.80
-14.39,56.36,-41.30,-29.18,-67.77,1.80
-14.39,56.36,-41.30,-29.18,-67.77,1.80
-14.39,56.36,-41.30,-29.18,-67.77,1.80
-14.39,56.36,-41.30,-29.18,-67.77,1.80
-14.39,56.36,-41.30,-29.18,-67.77,1.80
-14.39,56.36,-41.30,-29.18,-67.77,1.80
-14.39,56.36,-41.30,-29.18,-67.77,1.80
-14.39,56.36,-41.30,-29.18,-67.77,1.80
-14.39,56.36,-41.30,-29.18,-67.77,1.80
-14.06,55.81,-41.53,-29.19,-68.16,1.82
-14.06,55.81,-41.53,-29.19,-68.16,1.82
-14.06,55.81,-41.53,-29.19,-68.16,1.82
-14.06,55.81,-41.53,-29.19,-68.16,1.82
-14.06,55.81,-41.53,-29.19,-68.16,1.82
-14.06,55.81,-41.53,-29.19,-68.16,1.82
-14.06,55.81,-41.53,-29.19,-68.16,1.82
-14.06,55.81,-41.53,-29.19,-68.16,1.82
-14.06,55.81,-41.53,-29.19,-68.16,1.82
-14.06,55.81,-41.53,-29.19,-68.16,1.82
-13.81,55.39,-41.72,-29.21,-68.46,1.82
-13.81,55.39,-41.72,-29.21,-68.46,1.82
-13.81,55.39,-41.72,-29.21,-68.46,1.82
-13.81,55.39,-41.72,-29.21,-68.46,1.82
-13.81,55.39,-41.72,-29.21,-68.46,1.82
-13.81,55.39,-41.72,-29.21,-68.46,1.82
-13.81,55.39,-41.72,-29.21,-68.46,1.82
-13.81,55.39,-41.72,-29.21,-68.46,1.82
-13.81,55.39,-41.72,-29.21,-68.46,1.82
-13.81,55.39,-41.72,-29.21,-68.46,1.82
-14.01,55.81,-41.52,-29.19,-68.19,1.83
-14.01,55.81,-41.52,-29.19,-68.19,1.83
-14.01,55.81,-41.52,-29.19,-68.19,1.83
-14.01,55.81,-41.52,-29.19,-68.19,1.83
-14.01,55.81,-41.52,-29.19,-68.19,1.83
-14.01,55.81,-41.52,-29.19,-68.19,1.83
-14.01,55.81,-41.52,-29.19,-68.19,1.83
-14.01,55.81,-41.52,-29.19,-68.19,1.83
-14.01,55.81,-41.52,-29.19,-68.19,1.83
-14.01,55.81,-41.52,-29.19,-68.19,1.83
-13.76,55.63,-41.55,-29.19,-68.38,1.85
-13.76,55.63,-41.55,-29.19,-68.38,1.85
-13.76,55.63,-41.55,-29.19,-68.38,1.85
-13.76,55.63,-41.55,-29.19,-68.38,1.85
-13.76,55.63,-41.55,-29.19,-68.38,1.85
-13.76,55.63,-41.55,-29.19,-68.38,1.85
-13.76,55.63,-41.55,-29.19,-68.38,1.85
-13.76,55.63,-41.55,-29.19,-68.38,1.85
-13.76,55.63,-41.55,-29.19,-68.38,1.85
-13.76,55.63,-41.55,-29.19,-68.38,1.85
-13.45,55.26,-41.70,-29.18,-68.67,1.88
-13.45,55.26,-41.70,-29.18,-68.67,1.88
-13.45,55.26,-41.70,-29.18,-68.67,1.88
-13.45,55.26,-41.70,-29.18,-68.67,1.88
-13.45,55.26,-41.70,-29.18,-68.67,1.88
-13.45,55.26,-41.70,-29.18,-68.67,1.88
-13.45,55.26,-41.70,-29.18,-68.67,1.88
-13.45,55.26,-41.70,-29.18,-68.67,1.88
-13.45,55.26,-41.70,-29.18,-68.67,1.88
-13.45,55.26,-41.70,-29.18,-68.67,1.88
-13.09,54.77,-41.93,-29.19,-69.01,1.90
-13.09,54.77,-41.93,-29.19,-69.01,1.90
-13.09,54.77,-41.93,-29.19,-69.01,1.90
-13.09,54.77,-41.93,-29.19,-69.01,1.90
-13.09,54.77,-41.93,-29.19,-69.01,1.90
-13.09,54.77,-41.93,-29.19,-69.01,1.90
-13.09,54.77,-41.93,-29.19,-69.01,1.90
-13.09,54.77,-41.93,-29.19,-69.01,1.90
-13.09,54.77,-41.93,-29.19,-69.01,1.90
-13.09,54.77,-41.93,-29.19,-69.01,1.90
-12.72,54.22,-42.20,-29.19,-69.38,1.92
-12.72,54.22,-42.20,-29.19,-69.38,1.92
-12.72,54.22,-42.20,-29.19,-69.38,1.92
-12.72,54.22,-42.20,-29.19,-69.38,1.92
-12.72,54.22,-42.20,-29.19,-69.38,1.92
-12.72,54.22,-42.20,-29.19,-69.38,1.92
-12.72,54.22,-42.20,-29.19,-69.38,1.92
-12.72,54.22,-42.20,-29.19,-69.38,1.92
-12.72,54.22,-42.20,-29.19,-69.38,1.92
-12.72,54.22,-42.20,-29.19,-69.38,1.92
-12.34,53.70,-42.47,-29.20,-69.77,1.93
-12.34,53.70,-42.47,-29.20,-69.77,1.93
-12.34,53.70,-42.47,-29.20,-69.77,1.93
-12.34,53.70,-42.47,-29.20,-69.77,1.93
-12.34,53.70,-42.47,-29.20,-69.77,1.93
-12.34,53.70,-42.47,-29.20,-69.77,1.93
-12.34,53.70,-42.47,-29.20,-69.77,1.93
-12.34,53.70,-42.47,-29.20,-69.77,1.93
-12.34,53.70,-42.47,-29.20,-69.77,1.93
-12.34,53.70,-42.47,-29.20,-69.77,1.93
-12.72,54.20,-42.22,-29.19,-69.39,1.91
-12.72,54.20,-42.22,-29.19,-69.39,1.91
-12.72,54.20,-42.22,-29.19,-69.39,1.91
-12.72,54.20,-42.22,-29.19,-69.39,1.91
-12.72,54.20,-42.22,-29.19,-69.39,1.91
-12.72,54.20,-42.22,-29.19,-69.39,1.91
-12.72,54.20,-42.22,-29.19,-69.39,1.91
-12.72,54.20,-42.22,-29.19,-69.39,1.91
-12.72,54.20,-42.22,-29.19,-69.39,1.91
-12.72,54.20,-42.22,-29.19,-69.39,1.91
-12.72,54.20,-42.22,-29.19,-69.39,1.91
-12.51,54.19,-42.17,-29.18,-69.53,1.95
-12.51,54.19,-42.17,-29.18,-69.53,1.95
-12.51,54.19,-42.17,-29.18,-69.53,1.95
-12.51,54.19,-42.17,-29.18,-69.53,1.95
-12.51,54.19,-42.17,-29.18,-69.53,1.95
-12.51,54.19,-42.17,-29.18,-69.53,1.95
-12.51,54.19,-42.17,-29.18,-69.53,1.95
-12.51,54.19,-42.17,-29.18,-69.53,1.95
-12.51,54.19,-42.17,-29.18,-69.53,1.95
-12.51,54.19,-42.17,-29.18,-69.53,1.95
-12.20,53.98,-42.23,-29.17,-69.78,1.98
-12.20,53.98,-42.23,-29.17,-69.78,1.98
-12.20,53.98,-42.23,-29.17,-69.78,1.98
-12.20,53.98,-42.23,-29.17,-69.78,1.98
-12.20,53.98,-42.23,-29.17,-69.78,1.98
-12.20,53.98,-42.23,-29.17,-69.78,1.98
-12.20,53.98,-42.23,-29.17,-69.78,1.98
-12.20,53.98,-42.23,-29.17,-69.78,1.98
-12.20,53.98,-42.23,-29.17,-69.78,1.98
-12.20,53.98,-42.23,-29.17,-69.78,1.98
-11.84,53.66,-42.37,-29.16,-70.10,2.00
-11.84,53.66,-42.37,-29.16,-70.10,2.00
-11.84,53.66,-42.37,-29.16,-70.10,2.00
-11.84,53.66,-42.37,-29.16,-70.10,2.00
-11.84,53.66,-42.37,-29.16,-70.10,2.00
-11.84,53.66,-42.37,-29.16,-70.10,2.00
-11.84,53.66,-42.37,-29.16,-70.10,2.00
-11.84,53.66,-42.37,-29.16,-70.10,2.00
-11.84,53.66,-42.37,-29.16,-70.10,2.00
-11.84,53.66,-42.37,-29.16,-70.10,2.00
-11.44,53.27,-42.56,-29.16,-70.46,2.02
-11.44,53.27,-42.56,-29.16,-70.46,2.02
-11.44,53.27,-42.56,-29.16,-70.46,2.02
-11.44,53.27,-42.56,-29.16,-70.46,2.02
-11.44,53.27,-42.56,-29.16,-70.46,2.02
-11.44,53.27,-42.56,-29.16,-70.46,2.02
-11.44,53.27,-42.56,-29.16,-70.46,2.02
-11.44,53.27,-42.56,-29.16,-70.46,2.02
-11.44,53.27,-42.56,-29.16,-70.46,2.02
-11.44,53.27,-42.56,-29.16,-70.46,2.02
-11.44,53.27,-42.56,-29.16,-70.46,2.02
-11.44,53.27,-42.56,-29.16,-70.46,2.02
-11.03,52.87,-42.77,-29.16,-70.84,2.04
-11.03,52.87,-42.77,-29.16,-70.84,2.04
-11.03,52.87,-42.77,-29.16,-70.84,2.04
-11.03,52.87,-42.77,-29.16,-70.84,2.04
-11.03,52.87,-42.77,-29.16,-70.84,2.04
-11.03,52.87,-42.77,-29.16,-70.84,2.04
-11.03,52.87,-42.77,-29.16,-70.84,2.04
-11.03,52.87,-42.77,-29.16,-70.84,2.04
-11.33,53.12,-42.65,-29.17,-70.58,2.02
-11.33,53.12,-42.65,-29.17,-70.58,2.02
-11.33,53.12,-42.65,-29.17,-70.58,2.02
-11.33,53.12,-42.65,-29.17,-70.58,2.02
-11.33,53.12,-42.65,-29.17,-70.58,2.02
-11.33,53.12,-42.65,-29.17,-70.58,2.02
-11.33,53.12,-42.65,-29.17,-70.58,2.02
-11.33,53.12,-42.65,-29.17,-70.58,2.02
-11.33,53.12,-42.65,-29.17,-70.58,2.02
-11.33,53.12,-42.65,-29.17,-70.58,2.02
-11.29,53.27,-42.53,-29.14,-70.56,2.05
-11.29,53.27,-42.53,-29.14,-70.56,2.05
-11.29,53.27,-42.53,-29.14,-70.56,2.05
-11.29,53.27,-42.53,-29.14,-70.56,2.05
-11.29,53.27,-42.53,-29.14,-70.56,2.05
-11.29,53.27,-42.53,-29.14,-70.56,2.05
-11.29,53.27,-42.53,-29.14,-70.56,2.05
-11.29,53.27,-42.53,-29.14,-70.56,2.05
-11.29,53.27,-42.53,-29.14,-70.56,2.05
-11.29,53.27,-42.53,-29.14,-70.56,2.05
-10.99,53.10,-42.60,-29.12,-70.80,2.08
-10.99,53.10,-42.60,-29.12,-70.80,2.08
-10.99,53.10,-42.60,-29.12,-70.80,2.08
-10.99,53.10,-42.60,-29.12,-70.80,2.08
-10.99,53.10,-42.60,-29.12,-70.80,2.08
-10.99,53.10,-42.60,-29.12,-70.80,2.08
-10.99,53.10,-42.60,-29.12,-70.80,2.08
-10.99,53.10,-42.60,-29.12,-70.80,2.08
-10.99,53.10,-42.60,-29.12,-70.80,2.08
-10.99,53.10,-42.60,-29.12,-70.80,2.08
-10.62,52.78,-42.77,-29.10,-71.10,2.11
-10.62,52.78,-42.77,-29.10,-71.10,2.11
-10.62,52.78,-42.77,-29.10,-71.10,2.11
-10.62,52.78,-42.77,-29.10,-71.10,2.11
-10.62,52.78,-42.77,-29.10,-71.10,2.11
-10.62,52.78,-42.77,-29.10,-71.10,2.11
-10.62,52.78,-42.77,-29.10,-71.10,2.11
-10.62,52.78,-42.77,-29.10,-71.10,2.11
-10.62,52.78,-42.77,-29.10,-71.10,2.11
-10.62,52.78,-42.77,-29.10,-71.10,2.11
-10.21,52.38,-43.01,-29.09,-71.46,2.13
-10.21,52.38,-43.01,-29.09,-71.46,2.13
-10.21,52.38,-43.01,-29.09,-71.46,2.13
-10.21,52.38,-43.01,-29.09,-71.46,2.13
-10.21,52.38,-43.01,-29.09,-71.46,2.13
-10.21,52.38,-43.01,-29.09,-71.46,2.13
-10.21,52.38,-43.01,-29.09,-71.46,2.13
-10.21,52.38,-43.01,-29.09,-71.46,2.13
-10.21,52.38,-43.01,-29.09,-71.46,2.13
-10.21,52.38,-43.01,-29.09,-71.46,2.13
-9.79,51.97,-43.28,-29.08,-71.83,2.15
-9.79,51.97,-43.28,-29.08,-71.83,2.15
-9.79,51.97,-43.28,-29.08,-71.83,2.15
-9.79,51.97,-43.28,-29.08,-71.83,2.15
-9.79,51.97,-43.28,-29.08,-71.83,2.15
-9.79,51.97,-43.28,-29.08,-71.83,2.15
-9.79,51.97,-43.28,-29.08,-71.83,2.15
-9.79,51.97,-43.28,-29.08,-71.83,2.15
-9.79,51.97,-43.28,-29.08,-71.83,2.15
-9.79,51.97,-43.28,-29.08,-71.83,2.15
-9.66,51.80,-43.40,-29.08,-71.96,2.15
-9.66,51.80,-43.40,-29.08,-71.96,2.15
-9.66,51.80,-43.40,-29.08,-71.96,2.15
-9.66,51.80,-43.40,-29.08,-71.96,2.15
-9.66,51.80,-43.40,-29.08,-71.96,2.15
-9.66,51.80,-43.40,-29.08,-71.96,2.15
-9.66,51.80,-43.40,-29.08,-71.96,2.15
-9.66,51.80,-43.40,-29.08,-71.96,2.15
-9.66,51.80,-43.40,-29.08,-71.96,2.15
-9.66,51.80,-43.40,-29.08,-71.96,2.15
-9.69,52.03,-43.23,-29.06,-71.90,2.17
-9.69,52.03,-43.23,-29.06,-71.90,2.17
-9.69,52.03,-43.23,-29.06,-71.90,2.17
-9.69,52.03,-43.23,-29.06,-71.90,2.17
-9.69,52.03,-43.23,-29.06,-71.90,2.17
-9.69,52.03,-43.23,-29.06,-71.90,2.17
-9.69,52.03,-43.23,-29.06,-71.90,2.17
-9.69,52.03,-43.23,-29.06,-71.90,2.17
-9.69,52.03,-43.23,-29.06,-71.90,2.17
-9.69,52.03,-43.23,-29.06,-71.90,2.17
-9.41,52.19,-43.14,-29.03,-72.11,2.21
-9.41,52.19,-43.14,-29.03,-72.11,2.21
-9.41,52.19,-43.14,-29.03,-72.11,2.21
-9.41,52.19,-43.14,-29.03,-72.11,2.21
-9.41,52.19,-43.14,-29.03,-72.11,2.21
-9.41,52.19,-43.14,-29.03,-72.11,2.21
-9.41,52.19,-43.14,-29.03,-72.11,2.21
-9.41,52.19,-43.14,-29.03,-72.11,2.21
-9.41,52.19,-43.14,-29.03,-72.11,2.21
-9.41,52.19,-43.14,-29.03,-72.11,2.21
-9.07,52.39,-43.06,-29.01,-72.39,2.24
-9.07,52.39,-43.06,-29.01,-72.39,2.24
-9.07,52.39,-43.06,-29.01,-72.39,2.24
-9.07,52.39,-43.06,-29.01,-72.39,2.24
-9.07,52.39,-43.06,-29.01,-72.39,2.24
-9.07,52.39,-43.06,-29.01,-72.39,2.24
-9.07,52.39,-43.06,-29.01,-72.39,2.24
-9.07,52.39,-43.06,-29.01,-72.39,2.24
-9.07,52.39,-43.06,-29.01,-72.39,2.24
-9.07,52.39,-43.06,-29.01,-72.39,2.24
-8.68,52.62,-43.00,-29.00,-72.73,2.26
-8.68,52.62,-43.00,-29.00,-72.73,2.26
-8.68,52.62,-43.00,-29.00,-72.73,2.26
-8.68,52.62,-43.00,-29.00,-72.73,2.26
-8.68,52.62,-43.00,-29.00,-72.73,2.26
-8.68,52.62,-43.00,-29.00,-72.73,2.26
-8.68,52.62,-43.00,-29.00,-72.73,2.26
-8.68,52.62,-43.00,-29.00,-72.73,2.26
-8.68,52.62,-43.00,-29.00,-72.73,2.26
-8.68,52.62,-43.00,-29.00,-72.73,2.26
-8.27,52.86,-42.95,-28.99,-73.09,2.28
-8.27,52.86,-42.95,-28.99,-73.09,2.28
-8.27,52.86,-42.95,-28.99,-73.09,2.28
-8.27,52.86,-42.95,-28.99,-73.09,2.28
-8.27,52.86,-42.95,-28.99,-73.09,2.28
-8.27,52.86,-42.95,-28.99,-73.09,2.28
-8.27,52.86,-42.95,-28.99,-73.09,2.28
-8.27,52.86,-42.95,-28.99,-73.09,2.28
-8.27,52.86,-42.95,-28.99,-73.09,2.28
-8.27,52.86,-42.95,-28.99,-73.09,2.28
-7.94,53.07,-42.93,-28.99,-73.39,2.29
-7.94,53.07,-42.93,-28.99,-73.39,2.29
-7.94,53.07,-42.93,-28.99,-73.39,2.29
-7.94,53.07,-42.93,-28.99,-73.39,2.29
-7.94,53.07,-42.93,-28.99,-73.39,2.29
-7.94,53.07,-42.93,-28.99,-73.39,2.29
-7.94,53.07,-42.93,-28.99,-73.39,2.29
-7.94,53.07,-42.93,-28.99,-73.39,2.29
-7.94,53.07,-42.93,-28.99,-73.39,2.29
-7.94,53.07,-42.93,-28.99,-73.39,2.29
-7.94,53.07,-42.93,-28.99,-73.39,2.29
-8.23,52.89,-42.94,-28.98,-73.12,2.29
-8.23,52.89,-42.94,-28.98,-73.12,2.29
-8.23,52.89,-42.94,-28.98,-73.12,2.29
-8.23,52.89,-42.94,-28.98,-73.12,2.29
-8.23,52.89,-42.94,-28.98,-73.12,2.29
-8.23,52.89,-42.94,-28.98,-73.12,2.29
-8.23,52.89,-42.94,-28.98,-73.12,2.29
-8.23,52.89,-42.94,-28.98,-73.12,2.29
-8.23,52.89,-42.94,-28.98,-73.12,2.29
-8.23,52.89,-42.94,-28.98,-73.12,2.29
-7.95,52.85,-42.96,-28.90,-73.32,2.34
-7.95,52.85,-42.96,-28.90,-73.32,2.34
-7.95,52.85,-42.96,-28.90,-73.32,2.34
-7.95,52.85,-42.96,-28.90,-73.32,2.34
-7.95,52.85,-42.96,-28.90,-73.32,2.34
-7.95,52.85,-42.96,-28.90,-73.32,2.34
-7.95,52.85,-42.96,-28.90,-73.32,2.34
-7.95,52.85,-42.96,-28.90,-73.32,2.34
-7.95,52.85,-42.96,-28.90,-73.32,2.34
-7.95,52.85,-42.96,-28.90,-73.32,2.34
-7.60,52.69,-43.12,-28.79,-73.60,2.37
-7.60,52.69,-43.12,-28.79,-73.60,2.37
-7.60,52.69,-43.12,-28.79,-73.60,2.37
-7.60,52.69,-43.12,-28.79,-73.60,2.37
-7.60,52.69,-43.12,-28.79,-73.60,2.37
-7.60,52.69,-43.12,-28.79,-73.60,2.37
-7.60,52.69,-43.12,-28.79,-73.60,2.37
-7.60,52.69,-43.12,-28.79,-73.60,2.37
-7.60,52.69,-43.12,-28.79,-73.60,2.37
-7.19,52.44,-43.37,-28.67,-73.93,2.40
-7.19,52.44,-43.37,-28.67,-73.93,2.40
-7.19,52.44,-43.37,-28.67,-73.93,2.40
-7.19,52.44,-43.37,-28.67,-73.93,2.40
-7.19,52.44,-43.37,-28.67,-73.93,2.40
-7.19,52.44,-43.37,-28.67,-73.93,2.40
-7.19,52.44,-43.37,-28.67,-73.93,2.40
-7.19,52.44,-43.37,-28.67,-73.93,2.40
-7.19,52.44,-43.37,-28.67,-73.93,2.40
-7.19,52.44,-43.37,-28.67,-73.93,2.40
-6.76,52.17,-43.67,-28.53,-74.29,2.43
-6.76,52.17,-43.67,-28.53,-74.29,2.43
-6.76,52.17,-43.67,-28.53,-74.29,2.43
-6.76,52.17,-43.67,-28.53,-74.29,2.43
-6.76,52.17,-43.67,-28.53,-74.29,2.43
-6.76,52.17,-43.67,-28.53,-74.29,2.43
-6.76,52.17,-43.67,-28.53,-74.29,2.43
-6.76,52.17,-43.67,-28.53,-74.29,2.43
-6.76,52.17,-43.67,-28.53,-74.29,2.43
-6.76,52.17,-43.67,-28.53,-74.29,2.43
-6.76,52.17,-43.67,-28.53,-74.29,2.43
-6.32,51.92,-43.97,-28.38,-74.66,2.45
-6.32,51.92,-43.97,-28.38,-74.66,2.45
-6.32,51.92,-43.97,-28.38,-74.66,2.45
-6.32,51.92,-43.97,-28.38,-74.66,2.45
-6.32,51.92,-43.97,-28.38,-74.66,2.45
-6.32,51.92,-43.97,-28.38,-74.66,2.45
-6.32,51.92,-43.97,-28.38,-74.66,2.45
-6.32,51.92,-43.97,-28.38,-74.66,2.45
-6.32,51.92,-43.97,-28.38,-74.66,2.45
-6.32,51.92,-43.97,-28.38,-74.66,2.45
-6.76,52.15,-43.69,-28.53,-74.29,2.42
-6.76,52.15,-43.69,-28.53,-74.29,2.42
-6.76,52.15,-43.69,-28.53,-74.29,2.42
-6.76,52.15,-43.69,-28.53,-74.29,2.42
-6.76,52.15,-43.69,-28.53,-74.29,2.42
-6.76,52.15,-43.69,-28.53,-74.29,2.42
-6.76,52.15,-43.69,-28.53,-74.29,2.42
-6.76,52.15,-43.69,-28.53,-74.29,2.42
-6.76,52.15,-43.69,-28.53,-74.29,2.42
-6.76,52.15,-43.69,-28.53,-74.29,2.42
-6.48,52.18,-43.65,-28.47,-74.49,2.48
-6.48,52.18,-43.65,-28.47,-74.49,2.48
-6.48,52.18,-43.65,-28.47,-74.49,2.48
-6.48,52.18,-43.65,-28.47,-74.49,2.48
-6.48,52.18,-43.65,-28.47,-74.49,2.48
-6.48,52.18,-43.65,-28.47,-74.49,2.48
-6.48,52.18,-43.65,-28.47,-74.49,2.48
-6.48,52.18,-43.65,-28.47,-74.49,2.48
-6.48,52.18,-43.65,-28.47,-74.49,2.48
-6.48,52.18,-43.65,-28.47,-74.49,2.48
-6.08,51.98,-43.77,-28.42,-74.80,2.53
-6.08,51.98,-43.77,-28.42,-74.80,2.53
-6.08,51.98,-43.77,-28.42,-74.80,2.53
-6.08,51.98,-43.77,-28.42,-74.80,2.53
-6.08,51.98,-43.77,-28.42,-74.80,2.53
-6.08,51.98,-43.77,-28.42,-74.80,2.53
-6.08,51.98,-43.77,-28.42,-74.80,2.53
-6.08,51.98,-43.77,-28.42,-74.80,2.53
-6.08,51.98,-43.77,-28.42,-74.80,2.53
-6.08,51.98,-43.77,-28.42,-74.80,2.53
-5.62,51.64,-43.99,-28.38,-75.16,2.58
-5.62,51.64,-43.99,-28.38,-75.16,2.58
-5.62,51.64,-43.99,-28.38,-75.16,2.58
-5.62,51.64,-43.99,-28.38,-75.16,2.58
-5.62,51.64,-43.99,-28.38,-75.16,2.58
-5.62,51.64,-43.99,-28.38,-75.16,2.58
-5.62,51.64,-43.99,-28.38,-75.16,2.58
-5.62,51.64,-43.99,-28.38,-75.16,2.58
-5.62,51.64,-43.99,-28.38,-75.16,2.58
-5.62,51.64,-43.99,-28.38,-75.16,2.58
-5.12,51.23,-44.28,-28.36,-75.57,2.62
-5.12,51.23,-44.28,-28.36,-75.57,2.62
-5.12,51.23,-44.28,-28.36,-75.57,2.62
-5.12,51.23,-44.28,-28.36,-75.57,2.62
-5.12,51.23,-44.28,-28.36,-75.57,2.62
-5.12,51.23,-44.28,-28.36,-75.57,2.62
-5.12,51.23,-44.28,-28.36,-75.57,2.62
-5.12,51.23,-44.28,-28.36,-75.57,2.62
-5.12,51.23,-44.28,-28.36,-75.57,2.62
-5.12,51.23,-44.28,-28.36,-75.57,2.62
-4.61,50.82,-44.58,-28.33,-75.97,2.65
-4.61,50.82,-44.58,-28.33,-75.97,2.65
-4.61,50.82,-44.58,-28.33,-75.97,2.65
-4.61,50.82,-44.58,-28.33,-75.97,2.65
-4.61,50.82,-44.58,-28.33,-75.97,2.65
-4.61,50.82,-44.58,-28.33,-75.97,2.65
-4.61,50.82,-44.58,-28.33,-75.97,2.65
-4.61,50.82,-44.58,-28.33,-75.97,2.65
-4.61,50.82,-44.58,-28.33,-75.97,2.65
-4.61,50.82,-44.58,-28.33,-75.97,2.65
-4.87,50.97,-44.47,-28.36,-75.77,2.62
-4.87,50.97,-44.47,-28.36,-75.77,2.62
-4.87,50.97,-44.47,-28.36,-75.77,2.62
-4.87,50.97,-44.47,-28.36,-75.77,2.62
-4.87,50.97,-44.47,-28.36,-75.77,2.62
-4.87,50.97,-44.47,-28.36,-75.77,2.62
-4.87,50.97,-44.47,-28.36,-75.77,2.62
-4.87,50.97,-44.47,-28.36,-75.77,2.62
-4.87,50.97,-44.47,-28.36,-75.77,2.62
-4.87,50.97,-44.47,-28.36,-75.77,2.62
-4.93,51.33,-44.22,-28.30,-75.71,2.66
-4.93,51.33,-44.22,-28.30,-75.71,2.66
-4.93,51.33,-44.22,-28.30,-75.71,2.66
-4.93,51.33,-44.22,-28.30,-75.71,2.66
-4.93,51.33,-44.22,-28.30,-75.71,2.66
-4.93,51.33,-44.22,-28.30,-75.71,2.66
-4.93,51.33,-44.22,-28.30,-75.71,2.66
-4.93,51.33,-44.22,-28.30,-75.71,2.66
-4.93,51.33,-44.22,-28.30,-75.71,2.66
-4.93,51.33,-44.22,-28.30,-75.71,2.66
-4.54,51.55,-44.13,-28.21,-76.03,2.72
-4.54,51.55,-44.13,-28.21,-76.03,2.72
-4.54,51.55,-44.13,-28.21,-76.03,2.72
-4.54,51.55,-44.13,-28.21,-76.03,2.72
-4.54,51.55,-44.13,-28.21,-76.03,2.72
-4.54,51.55,-44.13,-28.21,-76.03,2.72
-4.54,51.55,-44.13,-28.21,-76.03,2.72
-4.54,51.55,-44.13,-28.21,-76.03,2.72
-4.54,51.55,-44.13,-28.21,-76.03,2.72
-4.54,51.55,-44.13,-28.21,-76.03,2.72
-4.10,51.80,-44.05,-28.13,-76.40,2.78
-4.10,51.80,-44.05,-28.13,-76.40,2.78
-4.10,51.80,-44.05,-28.13,-76.40,2.78
-4.10,51.80,-44.05,-28.13,-76.40,2.78
-4.10,51.80,-44.05,-28.13,-76.40,2.78
-4.10,51.80,-44.05,-28.13,-76.40,2.78
-4.10,51.80,-44.05,-28.13,-76.40,2.78
-4.10,51.80,-44.05,-28.13,-76.40,2.78
-4.10,51.80,-44.05,-28.13,-76.40,2.78
-4.10,51.80,-44.05,-28.13,-76.40,2.78
-3.64,52.08,-43.98,-28.06,-76.82,2.83
-3.64,52.08,-43.98,-28.06,-76.82,2.83
-3.64,52.08,-43.98,-28.06,-76.82,2.83
-3.64,52.08,-43.98,-28.06,-76.82,2.83
-3.64,52.08,-43.98,-28.06,-76.82,2.83
-3.64,52.08,-43.98,-28.06,-76.82,2.83
-3.64,52.08,-43.98,-28.06,-76.82,2.83
-3.64,52.08,-43.98,-28.06,-76.82,2.83
-3.64,52.08,-43.98,-28.06,-76.82,2.83
-3.64,52.08,-43.98,-28.06,-76.82,2.83
-3.16,52.37,-43.93,-28.00,-77.25,2.87
-3.16,52.37,-43.93,-28.00,-77.25,2.87
-3.16,52.37,-43.93,-28.00,-77.25,2.87
-3.16,52.37,-43.93,-28.00,-77.25,2.87
-3.16,52.37,-43.93,-28.00,-77.25,2.87
-3.16,52.37,-43.93,-28.00,-77.25,2.87
-3.16,52.37,-43.93,-28.00,-77.25,2.87
-3.16,52.37,-43.93,-28.00,-77.25,2.87
-3.16,52.37,-43.93,-28.00,-77.25,2.87
-3.16,52.37,-43.93,-28.00,-77.25,2.87
-3.16,52.37,-43.93,-28.00,-77.25,2.87
-3.16,52.37,-43.93,-28.00,-77.25,2.87
-2.99,52.48,-43.92,-27.99,-77.41,2.88
-2.99,52.48,-43.92,-27.99,-77.41,2.88
-2.99,52.48,-43.92,-27.99,-77.41,2.88
-2.99,52.48,-43.92,-27.99,-77.41,2.88
-2.99,52.48,-43.92,-27.99,-77.41,2.88
-2.99,52.48,-43.92,-27.99,-77.41,2.88
-2.99,52.48,-43.92,-27.99,-77.41,2.88
-2.99,52.48,-43.92,-27.99,-77.41,2.88
-3.00,52.41,-43.91,-27.95,-77.37,2.91
-3.00,52.41,-43.91,-27.95,-77.37,2.91
-3.00,52.41,-43.91,-27.95,-77.37,2.91
-3.00,52.41,-43.91,-27.95,-77.37,2.91
-3.00,52.41,-43.91,-27.95,-77.37,2.91
-3.00,52.41,-43.91,-27.95,-77.37,2.91
-3.00,52.41,-43.91,-27.95,-77.37,2.91
-3.00,52.41,-43.91,-27.95,-77.37,2.91
-3.00,52.41,-43.91,-27.95,-77.37,2.91
-3.00,52.41,-43.91,-27.95,-77.37,2.91
-2.50,52.27,-44.00,-27.88,-77.69,2.98
-2.50,52.27,-44.00,-27.88,-77.69,2.98
-2.50,52.27,-44.00,-27.88,-77.69,2.98
-2.50,52.27,-44.00,-27.88,-77.69,2.98
-2.50,52.27,-44.00,-27.88,-77.69,2.98
-2.50,52.27,-44.00,-27.88,-77.69,2.98
-2.50,52.27,-44.00,-27.88,-77.69,2.98
-2.50,52.27,-44.00,-27.88,-77.69,2.98
-2.50,52.27,-44.00,-27.88,-77.69,2.98
-2.50,52.27,-44.00,-27.88,-77.69,2.98
-1.89,51.92,-44.24,-27.86,-78.06,3.05
-1.89,51.92,-44.24,-27.86,-78.06,3.05
-1.89,51.92,-44.24,-27.86,-78.06,3.05
-1.89,51.92,-44.24,-27.86,-78.06,3.05
-1.89,51.92,-44.24,-27.86,-78.06,3.05
-1.89,51.92,-44.24,-27.86,-78.06,3.05
-1.89,51.92,-44.24,-27.86,-78.06,3.05
-1.89,51.92,-44.24,-27.86,-78.06,3.05
-1.89,51.92,-44.24,-27.86,-78.06,3.05
-1.89,51.92,-44.24,-27.86,-78.06,3.05
-1.21,51.45,-44.57,-27.87,-78.46,3.11
-1.21,51.45,-44.57,-27.87,-78.46,3.11
-1.21,51.45,-44.57,-27.87,-78.46,3.11
-1.21,51.45,-44.57,-27.87,-78.46,3.11
-1.21,51.45,-44.57,-27.87,-78.46,3.11
-1.21,51.45,-44.57,-27.87,-78.46,3.11
-1.21,51.45,-44.57,-27.87,-78.46,3.11
-1.21,51.45,-44.57,-27.87,-78.46,3.11
-1.21,51.45,-44.57,-27.87,-78.46,3.11
-1.21,51.45,-44.57,-27.87,-78.46,3.11
-0.52,50.95,-44.94,-27.90,-78.87,3.16
-0.52,50.95,-44.94,-27.90,-78.87,3.16
-0.52,50.95,-44.94,-27.90,-78.87,3.16
-0.52,50.95,-44.94,-27.90,-78.87,3.16
-0.52,50.95,-44.94,-27.90,-78.87,3.16
